; generated by PrusaSlicer 2.4.2+win64 on 2023-02-03 at 10:15:46 UTC

; 

; external perimeters extrusion width = 0.45mm
; perimeters extrusion width = 0.45mm
; infill extrusion width = 0.45mm
; solid infill extrusion width = 0.45mm
; top infill extrusion width = 0.40mm
; first layer extrusion width = 0.42mm

M73 P0 R48
M73 Q0 S48
M201 X1000 Y1000 Z200 E5000 ; sets maximum accelerations, mm/sec^2
M203 X200 Y200 Z12 E120 ; sets maximum feedrates, mm / sec
M204 P1250 R1250 T1250 ; sets acceleration (P, T) and retract acceleration (R), mm/sec^2
M205 X8.00 Y8.00 Z0.40 E4.50 ; sets the jerk limits, mm/sec
M205 S0 T0 ; sets the minimum extruding and travel feed rate, mm/sec
M107
;TYPE:Custom
M862.3 P "MK3S" ; printer model check
M862.1 P0.4 ; nozzle diameter check
M115 U3.10.1 ; tell printer latest fw version
G90 ; use absolute coordinates
M83 ; extruder relative mode
M104 S215 ; set extruder temp
M140 S60 ; set bed temp
M190 S60 ; wait for bed temp
M109 S215 ; wait for extruder temp
G28 W ; home all without mesh bed level
G80 ; mesh bed leveling
G1 Z0.2 F720
G1 Y-3 F1000 ; go outside print area
G92 E0
G1 X60 E9 F1000 ; intro line
G1 X100 E12.5 F1000 ; intro line
G92 E0
M221 S95

; Don't change E values below. Excessive value can damage the printer.
M907 E430 ; set extruder motor current
G21 ; set units to millimeters
G90 ; use absolute coordinates
M83 ; use relative distances for extrusion
M900 K0.05 ; Filament gcode LA 1.5
M900 K30 ; Filament gcode LA 1.0
M107
;LAYER_CHANGE
;Z:0.2
;HEIGHT:0.2
;BEFORE_LAYER_CHANGE
G92 E0.0
;0.2


G1 E-.8 F2100
G1 Z.4 F720
;AFTER_LAYER_CHANGE
;0.2
G1 X109.764 Y114.027 F10800
G1 Z.2 F720
G1 E.8 F2100
M204 S800
;TYPE:Skirt/Brim
;WIDTH:0.42
G1 F1200
G1 X111.012 Y112.916 E.05241
G1 X112.352 Y111.916 E.05241
G1 X113.774 Y111.037 E.05241
G1 X115.266 Y110.284 E.05241
G1 X116.818 Y109.664 E.05241
G1 X118.419 Y109.181 E.05241
G1 X120.055 Y108.838 E.05241
G1 X121.714 Y108.638 E.05241
G1 X123.385 Y108.584 E.05241
G1 X125.48 Y108.72 E.06582
G1 X127.712 Y109.122 E.07112
G1 X129.573 Y109.675 E.06086
G1 X131.641 Y110.54 E.07029
G1 X133.336 Y111.478 E.06074
G1 X135.172 Y112.771 E.07042
G1 X136.622 Y114.05 E.06061
G1 X138.139 Y115.712 E.07055
G1 X139.276 Y117.27 E.06048
G1 X140.428 Y119.276 E.07254
G1 X141.295 Y121.312 E.06937
G1 X141.868 Y123.197 E.06178
G1 X142.275 Y125.368 E.06924
G1 X142.429 Y127.337 E.06191
G1 X142.358 Y129.54 E.06911
G1 X142.083 Y131.499 E.06204
G1 X141.54 Y133.632 E.06899
G1 X140.848 Y135.49 E.06217
G1 X139.86 Y137.451 E.06886
G1 X138.782 Y139.12 E.06229
G1 X137.397 Y140.819 E.06873
G1 X135.981 Y142.219 E.06242
G1 X134.249 Y143.589 E.06925
G1 X132.468 Y144.701 E.06583
G1 X131.232 Y145.322 E.04339
G1 X130.112 Y145.56 E.03588
G1 X116.25 Y145.56 E.43465
G1 X115.13 Y145.322 E.03588
G1 X113.894 Y144.701 E.04339
G1 X112.311 Y143.727 E.05827
G1 X110.772 Y142.556 E.06063
G1 X109.298 Y141.176 E.06331
G1 X108.193 Y139.921 E.05242
G1 X107.18 Y138.544 E.0536
G1 X106.33 Y137.149 E.05123
G1 X105.57 Y135.618 E.05359
G1 X104.962 Y134.061 E.05241
G1 X104.49 Y132.457 E.05241
G1 X104.16 Y130.818 E.05241
G1 X103.973 Y129.157 E.05241
G1 X103.931 Y127.486 E.05241
G1 X104.033 Y125.818 E.05241
G1 X104.281 Y124.165 E.05241
G1 X104.67 Y122.539 E.05241
G1 X105.2 Y120.954 E.05241
G1 X105.864 Y119.42 E.05241
G1 X106.659 Y117.95 E.05241
G1 X107.579 Y116.554 E.05241
G1 X108.617 Y115.243 E.05241
G1 X109.723 Y114.071 E.05053
M204 S1000
G1 X109.998 Y114.336 F10800
M204 S800
G1 F1200
G1 X110.146 Y114.181 E.00671
G1 X111.381 Y113.101 E.05145
G1 X112.706 Y112.132 E.05145
G1 X114.109 Y111.282 E.05145
G1 X115.581 Y110.556 E.05145
G1 X117.11 Y109.962 E.05145
G1 X118.685 Y109.502 E.05145
G1 X120.294 Y109.181 E.05145
G1 X121.925 Y109 E.05145
G1 X123.381 Y108.961 E.04566
G1 X125.435 Y109.095 E.06454
G1 X127.627 Y109.49 E.06984
G1 X129.444 Y110.029 E.05945
G1 X131.479 Y110.88 E.06914
G1 X133.134 Y111.797 E.05932
G1 X134.94 Y113.069 E.06927
G1 X136.356 Y114.318 E.05919
G1 X137.848 Y115.952 E.06941
G1 X138.959 Y117.474 E.05906
G1 X140.089 Y119.441 E.07115
G1 X140.941 Y121.443 E.0682
G1 X141.501 Y123.285 E.06039
G1 X141.901 Y125.419 E.06807
G1 X142.052 Y127.344 E.06053
G1 X141.982 Y129.509 E.06793
G1 X141.714 Y131.425 E.06066
G1 X141.18 Y133.52 E.0678
G1 X140.503 Y135.337 E.06079
G1 X139.533 Y137.265 E.06767
G1 X138.478 Y138.897 E.06092
G1 X137.117 Y140.566 E.06754
G1 X135.732 Y141.935 E.06105
G1 X134.032 Y143.28 E.06797
G1 X132.256 Y144.387 E.06561
G1 X131.078 Y144.978 E.04131
G1 X130.112 Y145.183 E.03097
G1 X116.25 Y145.183 E.43465
G1 X115.284 Y144.977 E.03097
G1 X113.921 Y144.285 E.04793
G1 X112.33 Y143.28 E.059
G1 X110.753 Y142.043 E.06285
G1 X109.453 Y140.792 E.05657
G1 X108.379 Y139.551 E.05145
G1 X107.418 Y138.221 E.05145
G1 X106.575 Y136.813 E.05145
G1 X105.859 Y135.337 E.05145
G1 X105.273 Y133.805 E.05145
G1 X104.822 Y132.227 E.05145
G1 X104.51 Y130.616 E.05145
G1 X104.339 Y128.984 E.05145
G1 X104.31 Y127.344 E.05145
G1 X104.424 Y125.707 E.05145
G1 X104.68 Y124.086 E.05145
G1 X105.076 Y122.493 E.05145
G1 X105.608 Y120.941 E.05145
G1 X106.273 Y119.441 E.05145
G1 X107.066 Y118.005 E.05145
G1 X107.981 Y116.642 E.05145
G1 X109.01 Y115.365 E.05145
G1 X109.957 Y114.379 E.04286
M204 S1000
; printing object TLG_MP 2.stl id:0 copy 0
;WIPE_START
G1 F8640
G1 X110.146 Y114.181 E-.06326
G1 X111.381 Y113.101 E-.37887
G1 X112.492 Y112.288 E-.31786
;WIPE_END
G1 E-.04 F2100
G1 Z.6 F720
G1 X125.41 Y116.297 F10800
G1 Z.2 F720
G1 E.8 F2100
M204 S800
;TYPE:Perimeter
G1 F1200
G1 X125.207 Y116.558 E.01037
G1 X125.375 Y117.042 E.01606
G1 X125.091 Y116.936 E.00949
G1 X124.568 Y116.872 E.01653
G1 X124.203 Y116.884 E.01143
G1 X124.257 Y116.661 E.00719
G1 X124.564 Y116.627 E.00969
G1 X124.955 Y116.526 E.01267
G1 X125.284 Y116.382 E.01125
G1 X125.36 Y116.331 E.00288
M204 S1000
;WIPE_START
G1 F8640
G1 X125.207 Y116.558 E-.06333
G1 X125.375 Y117.042 E-.11827
G1 X125.091 Y116.936 E-.0699
G1 X124.568 Y116.872 E-.12175
G1 X124.203 Y116.884 E-.08415
G1 X124.257 Y116.661 E-.05293
G1 X124.564 Y116.627 E-.07133
G1 X124.955 Y116.526 E-.09334
G1 X125.284 Y116.382 E-.08288
G1 X125.291 Y116.377 E-.00212
;WIPE_END
G1 E-.04 F2100
G1 Z.6 F720
G1 X126.162 Y115.158 F10800
G1 Z.2 F720
G1 E.8 F2100
M204 S800
G1 F1200
G1 X126.506 Y115.057 E.01122
G1 X126.058 Y115.534 E.0205
G1 X126.161 Y115.218 E.01042
M204 S1000
;WIPE_START
G1 F8640
G1 X126.506 Y115.057 E-.08781
G1 X126.058 Y115.534 E-.15097
G1 X126.161 Y115.218 E-.07677
;WIPE_END
G1 E-.48445 F2100
G1 Z.6 F720
G1 X125.676 Y113.816 F10800
G1 Z.2 F720
G1 E.8 F2100
M204 S800
;TYPE:External perimeter
G1 F1200
G1 X125.965 Y113.577 E.01177
G1 X126.105 Y113.359 E.00812
G1 X126.357 Y113.16 E.01008
G1 X126.693 Y113.012 E.01152
G1 X126.988 Y112.97 E.00933
G1 X127.192 Y112.971 E.00638
G1 X127.588 Y113.022 E.01252
G1 X127.879 Y113.091 E.00938
G1 X128.143 Y113.181 E.00873
G1 X128.396 Y113.303 E.00881
G1 X128.622 Y113.45 E.00846
G1 X128.789 Y113.621 E.00751
G1 X128.922 Y113.817 E.00741
G1 X129.027 Y114.148 E.0109
G1 X129.046 Y114.501 E.01108
G1 X128.979 Y114.873 E.01184
G1 X128.814 Y115.242 E.01268
G1 X128.521 Y115.605 E.01462
G1 X128.284 Y115.796 E.00954
G1 X128.033 Y115.934 E.00898
G1 X127.518 Y116.383 E.02143
G1 X127.876 Y116.383 E.01124
G1 X129.103 Y116.199 E.03888
G1 X129.154 Y116.937 E.0232
G1 X129.165 Y117.708 E.02418
G1 X128.283 Y117.693 E.02766
G1 X127.807 Y117.65 E.01499
G1 X126.892 Y117.509 E.02902
G1 X125.774 Y117.509 E.03506
G1 X125.774 Y117.042 E.01462
G1 X125.63 Y116.628 E.01375
G1 X126.028 Y116.117 E.02031
G1 X127.21 Y114.858 E.05413
G1 X127.339 Y114.672 E.00711
G1 X127.387 Y114.555 E.00396
G1 X127.4 Y114.434 E.0038
G1 X127.392 Y114.399 E.00114
G1 X127.367 Y114.391 E.00081
G1 X127.141 Y114.409 E.00711
G1 X126.916 Y114.478 E.00739
G1 X126.693 Y114.61 E.00812
G1 X126.325 Y114.717 E.01202
G1 X126.03 Y114.236 E.01769
G1 X125.715 Y113.862 E.01536
M204 S1000
G1 X125.443 Y113.522 F10800
G1 X125.666 Y113.335
M204 S800
;TYPE:Perimeter
G1 F1200
G1 X125.532 Y113.096 E.0086
G1 X125.127 Y112.795 E.01582
G1 X124.626 Y112.602 E.01683
G1 X124.39 Y112.574 E.00747
G1 X125.504 Y112.7 E.03516
G1 X126.197 Y112.819 E.02206
G1 X125.822 Y113.102 E.01475
G1 X125.703 Y113.289 E.00693
M204 S1000
;WIPE_START
G1 F8640
G1 X125.532 Y113.096 E-.05936
G1 X125.127 Y112.795 E-.11653
G1 X124.626 Y112.602 E-.12397
G1 X124.39 Y112.574 E-.05504
G1 X125.504 Y112.7 E-.25893
G1 X126.128 Y112.807 E-.14617
;WIPE_END
G1 E-.04 F2100
G1 Z.6 F720
G1 X121.621 Y112.605 F10800
G1 Z.2 F720
G1 E.8 F2100
M204 S800
G1 F1200
G1 X122.216 Y112.554 E.01874
G1 X122.848 Y112.526 E.01983
G1 X123.514 Y112.526 E.02088
G1 X124.086 Y112.551 E.01796
G1 X123.597 Y112.551 E.01532
G1 X123.138 Y112.581 E.01444
G1 X122.26 Y112.692 E.02774
G1 X121.68 Y112.613 E.01836
M204 S1000
;WIPE_START
G1 F8640
G1 X122.216 Y112.554 E-.12453
G1 X122.848 Y112.526 E-.14602
G1 X123.514 Y112.526 E-.15376
G1 X124.086 Y112.551 E-.13224
G1 X123.597 Y112.551 E-.11284
G1 X123.206 Y112.577 E-.09061
;WIPE_END
G1 E-.04 F2100
G1 Z.6 F720
G1 X119.955 Y112.865 F10800
G1 Z.2 F720
G1 E.8 F2100
M204 S800
G1 F1200
G1 X119.639 Y113.894 E.03377
G1 X119.495 Y113.487 E.01356
G1 X119.232 Y112.985 E.01776
G1 X119.896 Y112.876 E.02112
M204 S1000
;WIPE_START
G1 F8640
G1 X119.639 Y113.894 E-.2426
G1 X119.495 Y113.487 E-.09988
G1 X119.232 Y112.985 E-.13075
G1 X119.896 Y112.876 E-.15555
;WIPE_END
G1 E-.17123 F2100
G1 Z.6 F720
G1 X116.865 Y113.771 F10800
G1 Z.2 F720
G1 E.8 F2100
M204 S800
G1 F1200
G1 X116.784 Y114.259 E.0155
G1 X116.752 Y114.804 E.01712
G1 X116.76 Y118.119 E.10395
G1 X117.782 Y118.044 E.03215
G1 X117.584 Y118.149 E.00703
G1 X116.787 Y118.655 E.0296
G1 X116.038 Y119.226 E.02953
G1 X115.644 Y119.568 E.01637
G1 X114.979 Y120.228 E.02935
G1 X114.633 Y120.618 E.01636
G1 X114.06 Y121.358 E.02936
G1 X113.767 Y121.791 E.01636
G1 X113.295 Y122.599 E.02936
G1 X113.061 Y123.066 E.01635
G1 X112.698 Y123.929 E.02937
G1 X112.527 Y124.421 E.01635
G1 X112.279 Y125.325 E.02937
G1 X112.094 Y126.342 E.03241
G1 X112.009 Y127.249 E.02857
G1 X111.994 Y127.796 E.01715
G1 X112.029 Y128.729 E.02929
G1 X112.084 Y129.251 E.01644
G1 X112.236 Y130.149 E.02857
G1 X112.362 Y130.681 E.01714
G1 X112.631 Y131.558 E.02878
G1 X113.014 Y132.504 E.03198
G1 X113.431 Y133.321 E.02877
G1 X113.696 Y133.768 E.01631
G1 X114.226 Y134.542 E.0294
G1 X114.548 Y134.951 E.01632
G1 X115.174 Y135.649 E.02941
G1 X115.542 Y136.008 E.01612
G1 X115.91 Y136.338 E.01548
G1 X116.394 Y136.718 E.01931
G1 X116.394 Y141.559 E.1518
G1 X115.694 Y141.193 E.02477
G1 X115.12 Y140.855 E.02087
G1 X114.562 Y140.492 E.02088
G1 X114.02 Y140.106 E.02087
G1 X113.495 Y139.696 E.02088
G1 X112.989 Y139.264 E.02087
G1 X112.502 Y138.81 E.02088
G1 X112.035 Y138.335 E.02087
G1 X111.589 Y137.841 E.02088
G1 X111.165 Y137.327 E.02088
G1 X110.764 Y136.796 E.02087
G1 X110.386 Y136.248 E.02088
G1 X110.032 Y135.684 E.02088
G1 X109.704 Y135.105 E.02087
G1 X109.4 Y134.512 E.02088
G1 X109.123 Y133.907 E.02088
G1 X108.873 Y133.29 E.02087
G1 X108.649 Y132.663 E.02087
G1 X108.453 Y132.027 E.02088
G1 X108.285 Y131.382 E.02088
G1 X108.145 Y130.731 E.02087
G1 X108.033 Y130.075 E.02088
G1 X107.95 Y129.415 E.02087
G1 X107.896 Y128.751 E.02088
G1 X107.87 Y128.086 E.02087
G1 X107.874 Y127.42 E.02087
G1 X107.906 Y126.755 E.02088
G1 X107.968 Y126.092 E.02088
G1 X108.058 Y125.432 E.02087
G1 X108.177 Y124.777 E.02088
G1 X108.318 Y124.154 E.02002
G1 X108.499 Y123.485 E.02173
G1 X108.702 Y122.851 E.02087
G1 X108.932 Y122.227 E.02088
G1 X109.19 Y121.613 E.02087
G1 X109.473 Y121.01 E.02088
G1 X109.783 Y120.421 E.02088
G1 X110.118 Y119.845 E.02088
G1 X110.462 Y119.309 E.01998
G1 X110.862 Y118.741 E.02178
G1 X111.268 Y118.214 E.02086
G1 X111.698 Y117.705 E.02088
G1 X112.129 Y117.237 E.01995
G1 X112.622 Y116.746 E.02181
G1 X113.091 Y116.318 E.01991
G1 X113.653 Y115.849 E.02296
G1 X114.153 Y115.467 E.01973
G1 X114.699 Y115.087 E.02087
G1 X115.29 Y114.713 E.02193
G1 X116.442 Y114.062 E.04147
G1 X116.82 Y113.81 E.01424
M204 S1000
;WIPE_START
G1 F8640
G1 X116.784 Y114.259 E-.10385
G1 X116.752 Y114.804 E-.12607
G1 X116.757 Y117.099 E-.53008
;WIPE_END
G1 E-.04 F2100
G1 Z.6 F720
G1 X128.797 Y115.864 F10800
G1 Z.2 F720
G1 E.8 F2100
M204 S800
G1 F1200
G1 X129.138 Y115.441 E.01704
G1 X129.342 Y114.985 E.01567
G1 X129.425 Y114.525 E.01466
G1 X129.401 Y114.08 E.01397
G1 X129.308 Y113.788 E.00961
G1 X130.495 Y114.383 E.04164
G1 X131.1 Y114.73 E.02186
G1 X131.688 Y115.103 E.02182
G1 X132.209 Y115.467 E.01993
G1 X132.709 Y115.849 E.01973
G1 X133.271 Y116.318 E.02296
G1 X133.741 Y116.746 E.01993
G1 X134.213 Y117.216 E.02087
G1 X134.683 Y117.728 E.0218
G1 X135.094 Y118.214 E.01996
G1 X135.478 Y118.711 E.0197
G1 X135.884 Y119.285 E.02205
G1 X136.258 Y119.87 E.02176
G1 X136.579 Y120.421 E.01998
G1 X136.871 Y120.976 E.01968
G1 X137.172 Y121.613 E.02208
G1 X137.439 Y122.252 E.02173
G1 X137.66 Y122.851 E.02001
G1 X137.851 Y123.448 E.01966
G1 X138.038 Y124.128 E.02211
G1 X138.185 Y124.777 E.02085
G1 X138.308 Y125.459 E.02172
G1 X138.394 Y126.092 E.02004
G1 X138.452 Y126.715 E.01963
G1 X138.488 Y127.42 E.02214
G1 X138.492 Y128.085 E.02085
G1 X138.465 Y128.776 E.02169
G1 X138.412 Y129.415 E.02007
M73 Q1 S48
G1 X138.335 Y130.035 E.01959
G1 X138.217 Y130.732 E.02217
G1 X138.077 Y131.382 E.02086
G1 X137.909 Y132.027 E.02088
G1 X137.726 Y132.623 E.01957
G1 X137.489 Y133.29 E.02219
G1 X137.229 Y133.929 E.02162
G1 X136.962 Y134.512 E.02012
G1 X136.678 Y135.067 E.01954
G1 X136.329 Y135.684 E.02222
G1 X135.963 Y136.267 E.02159
G1 X135.598 Y136.796 E.02015
G1 X135.223 Y137.293 E.01953
G1 X134.773 Y137.841 E.02224
M73 P1 R48
G1 X134.327 Y138.335 E.02086
G1 X133.891 Y138.779 E.01949
G1 X133.373 Y139.264 E.02227
G1 X132.867 Y139.696 E.02086
G1 X132.377 Y140.079 E.01947
G1 X131.782 Y140.505 E.02297
G1 X131.242 Y140.855 E.02018
G1 X130.668 Y141.193 E.02088
G1 X129.968 Y141.559 E.02477
G1 X129.968 Y136.718 E.1518
G1 X130.432 Y136.355 E.01846
G1 X130.824 Y136.006 E.01647
G1 X131.5 Y135.316 E.03029
G1 X132.118 Y134.566 E.03048
G1 X132.668 Y133.764 E.03048
G1 X133.147 Y132.918 E.03049
G1 X133.56 Y132.012 E.03123
G1 X133.874 Y131.124 E.02952
G1 X134.01 Y130.644 E.01563
G1 X134.212 Y129.7 E.03027
G1 X134.332 Y128.742 E.03029
G1 X134.362 Y128.219 E.01641
G1 X134.355 Y127.278 E.0295
G1 X134.264 Y126.311 E.03047
G1 X134.091 Y125.36 E.03029
G1 X133.963 Y124.853 E.01642
G1 X133.675 Y123.957 E.02949
G1 X133.299 Y123.061 E.03047
G1 X132.846 Y122.201 E.03048
G1 X132.321 Y121.383 E.03048
G1 X131.726 Y120.614 E.03048
G1 X131.067 Y119.9 E.03048
G1 X130.348 Y119.245 E.03049
G1 X129.553 Y118.64 E.03132
G1 X128.636 Y118.076 E.03378
G1 X129.548 Y118.092 E.0286
G1 X129.531 Y116.921 E.03671
G1 X129.451 Y115.765 E.03633
G1 X128.856 Y115.855 E.01886
M204 S1000
;WIPE_START
G1 F8640
G1 X129.138 Y115.441 E-.11561
G1 X129.342 Y114.985 E-.11543
G1 X129.425 Y114.525 E-.10792
G1 X129.401 Y114.08 E-.10285
G1 X129.308 Y113.788 E-.07077
G1 X130.266 Y114.268 E-.24742
;WIPE_END
G1 E-.04 F2100
G1 Z.6 F720
G1 X122.461 Y113.047 F10800
G1 Z.2 F720
G1 E.8 F2100
M204 S800
;TYPE:External perimeter
G1 F1200
G1 X122.467 Y115.818 E.08687
G1 X122.495 Y116.327 E.01601
G1 X122.562 Y116.817 E.0155
G1 X122.562 Y117.252 E.01362
G1 X121.984 Y117.296 E.01818
G1 X121.984 Y116.817 E.01501
G1 X122.05 Y116.327 E.0155
G1 X122.079 Y115.818 E.01601
G1 X122.085 Y113.049 E.08681
G1 X121.414 Y112.957 E.02123
G1 X121.019 Y112.929 E.0124
G1 X120.333 Y112.922 E.02151
G1 X119.974 Y114.098 E.03855
G1 X119.889 Y114.57 E.01504
G1 X119.849 Y115.022 E.01423
G1 X119.631 Y115.697 E.02225
G1 X119.426 Y115.026 E.02201
G1 X119.394 Y114.575 E.01419
G1 X119.31 Y114.097 E.01522
G1 X119.148 Y113.638 E.01526
G1 X118.839 Y113.048 E.02088
G1 X118.283 Y113.123 E.01757
G1 X117.356 Y113.123 E.02907
G1 X117.159 Y114.301 E.03745
G1 X117.13 Y114.814 E.01612
G1 X117.136 Y117.713 E.09091
G1 X117.943 Y117.654 E.02537
G1 X118.555 Y117.505 E.01977
G1 X118.496 Y116.828 E.02129
G1 X118.496 Y115.692 E.03563
G1 X119.05 Y117.522 E.05995
G1 X120.136 Y117.507 E.03408
G1 X120.781 Y115.549 E.06461
G1 X120.78 Y117.506 E.06135
G1 X120.025 Y117.706 E.02447
G1 X119.562 Y117.863 E.01534
G1 X118.652 Y118.067 E.02922
G1 X118.22 Y118.239 E.01459
