; generated by PrusaSlicer 2.4.2+win64 on 2023-02-03 at 10:15:19 UTC

; 

; external perimeters extrusion width = 0.45mm
; perimeters extrusion width = 0.45mm
; infill extrusion width = 0.45mm
; solid infill extrusion width = 0.45mm
; top infill extrusion width = 0.40mm
; support material extrusion width = 0.35mm
; first layer extrusion width = 0.42mm

M73 P0 R20
M73 Q0 S20
M201 X1000 Y1000 Z200 E5000 ; sets maximum accelerations, mm/sec^2
M203 X200 Y200 Z12 E120 ; sets maximum feedrates, mm / sec
M204 P1250 R1250 T1250 ; sets acceleration (P, T) and retract acceleration (R), mm/sec^2
M205 X8.00 Y8.00 Z0.40 E4.50 ; sets the jerk limits, mm/sec
M205 S0 T0 ; sets the minimum extruding and travel feed rate, mm/sec
M107
;TYPE:Custom
M862.3 P "MK3S" ; printer model check
M862.1 P0.4 ; nozzle diameter check
M115 U3.10.1 ; tell printer latest fw version
G90 ; use absolute coordinates
M83 ; extruder relative mode
M104 S215 ; set extruder temp
M140 S60 ; set bed temp
M190 S60 ; wait for bed temp
M109 S215 ; wait for extruder temp
G28 W ; home all without mesh bed level
G80 ; mesh bed leveling
G1 Z0.2 F720
G1 Y-3 F1000 ; go outside print area
G92 E0
G1 X60 E9 F1000 ; intro line
G1 X100 E12.5 F1000 ; intro line
G92 E0
M221 S95

; Don't change E values below. Excessive value can damage the printer.
M907 E430 ; set extruder motor current
G21 ; set units to millimeters
G90 ; use absolute coordinates
M83 ; use relative distances for extrusion
M900 K0.05 ; Filament gcode LA 1.5
M900 K30 ; Filament gcode LA 1.0
M107
;LAYER_CHANGE
;Z:0.2
;HEIGHT:0.2
;BEFORE_LAYER_CHANGE
G92 E0.0
;0.2


G1 E-.8 F2100
G1 Z.4 F720
;AFTER_LAYER_CHANGE
;0.2
G1 X116.967 Y116.967 F10800
G1 Z.2 F720
G1 E.8 F2100
M204 S800
;TYPE:Skirt/Brim
;WIDTH:0.42
G1 F1200
G1 X127.295 Y106.639 E.45794
G1 X128.976 Y105.943 E.05704
G1 X147.784 Y105.943 E.58972
G1 X149.091 Y106.335 E.04278
G1 X149.967 Y107.381 E.04278
G1 X150.161 Y108.32 E.03008
G1 X150.161 Y140.05 E.99485
G1 X149.91 Y141.113 E.03425
G1 X145.603 Y149.727 E.30197
G1 X145.157 Y150.345 E.02388
G1 X140.85 Y154.652 E.19098
G1 X140.233 Y155.097 E.02388
G1 X131.618 Y159.404 E.30197
G1 X130.555 Y159.655 E.03425
M73 Q1 S20
G1 X98.826 Y159.655 E.99485
G1 X97.519 Y159.264 E.04278
M73 P1 R20
G1 X96.643 Y158.218 E.04278
G1 X96.449 Y157.278 E.03008
G1 X96.449 Y138.47 E.58972
G1 X97.145 Y136.789 E.05704
G1 X116.925 Y117.009 E.87706
M204 S1000
; printing object TLG_BP.stl id:0 copy 0
;WIPE_START
G1 F8640
G1 X119.252 Y114.682 E-.76
;WIPE_END
G1 E-.04 F2100
G1 Z.6 F720
G1 X131.925 Y119.878 F10800
G1 Z.2 F720
G1 E.8 F2100
M204 S800
;TYPE:Support material interface
;WIDTH:0.35
G1 F1200
G1 X131.925 Y115.571 E.10998
G1 X132.432 Y115.571 E.01295
G1 X132.432 Y119.878 E.10998
G1 X132.939 Y119.878 E.01295
G1 X132.939 Y115.571 E.10998
G1 X133.446 Y115.571 E.01295
G1 X133.446 Y119.878 E.10998
G1 X133.953 Y119.878 E.01295
G1 X133.953 Y115.571 E.10998
G1 X134.461 Y115.571 E.01295
G1 X134.461 Y119.878 E.10998
G1 X134.947 Y119.878 E.01243
G1 X134.947 Y118.967 E.02325
G1 X134.968 Y118.544 E.01081
G1 X134.968 Y115.571 E.07593
G1 X135.475 Y115.571 E.01295
G1 X135.475 Y116.982 E.03603
G1 X135.537 Y116.938 E.00194
G1 X135.982 Y116.938 E.01136
G1 X135.982 Y115.571 E.03491
G1 X136.489 Y115.571 E.01295
G1 X136.489 Y116.938 E.0349
G1 X136.996 Y116.938 E.01295
G1 X136.996 Y115.571 E.0349
G1 X137.503 Y115.571 E.01295
G1 X137.503 Y116.937 E.03489
G1 X138.01 Y116.937 E.01295
G1 X138.01 Y115.571 E.03489
G1 X138.517 Y115.571 E.01295
G1 X138.517 Y116.937 E.03488
G1 X139.024 Y116.937 E.01295
G1 X139.024 Y115.571 E.03488
G1 X139.531 Y115.571 E.01295
G1 X139.531 Y116.937 E.03488
G1 X140.038 Y116.937 E.01295
G1 X140.038 Y115.571 E.03488
G1 X140.545 Y115.571 E.01295
G1 X140.545 Y116.937 E.03488
G1 X141.053 Y116.937 E.01295
G1 X141.053 Y115.571 E.03488
G1 X141.56 Y115.571 E.01295
G1 X141.56 Y116.937 E.03488
G1 X142.067 Y116.937 E.01295
G1 X142.067 Y115.571 E.03488
G1 X142.42 Y115.571 E.00903
M204 S1000
;WIPE_START
G1 F8640
G1 X142.067 Y115.571 E-.08163
G1 X142.067 Y116.937 E-.31541
G1 X141.56 Y116.937 E-.11709
G1 X141.56 Y115.872 E-.24588
;WIPE_END
G1 E-.04 F2100
G1 Z.6 F720
G1 X142.09 Y117.3 F10800
G1 Z.2 F720
G1 E.8 F2100
M204 S800
;TYPE:Support material
;WIDTH:0.42
G1 F1200
G1 X142.121 Y117.322 E.00119
G1 X142.199 Y117.551 E.00758
G1 X135.543 Y117.554 E.20869
G1 X135.621 Y117.323 E.00763
G1 X135.652 Y117.302 E.00119
G1 X142.033 Y117.3 E.20008
M204 S1000
;WIPE_START
G1 F8640
G1 X138.742 Y117.301 E-.76
;WIPE_END
G1 E-.04 F2100
G1 Z.6 F720
G1 X142.728 Y118.189 F10800
G1 Z.2 F720
G1 E.8 F2100
M204 S800
;TYPE:Support material interface
;WIDTH:0.35
G1 F1200
G1 X142.574 Y117.532 E.01723
G1 X142.574 Y115.571 E.05008
G1 X143.081 Y115.571 E.01295
G1 X143.081 Y119.878 E.10998
G1 X143.588 Y119.878 E.01295
G1 X143.588 Y115.571 E.10998
G1 X144.095 Y115.571 E.01295
G1 X144.095 Y119.878 E.10998
G1 X144.602 Y119.878 E.01295
G1 X144.602 Y115.571 E.10998
G1 X144.84 Y115.571 E.00608
G1 X144.84 Y116.032 E.01178
M204 S1000
;WIPE_START
G1 F8640
G1 X144.84 Y115.571 E-.10657
G1 X144.602 Y115.571 E-.05498
G1 X144.602 Y118.163 E-.59846
;WIPE_END
G1 E-.04 F2100
G1 Z.6 F720
G1 X147.784 Y140.05 F10800
G1 Z.2 F720
G1 E.8 F2100
M204 S800
;TYPE:Support material
;WIDTH:0.42
G1 F1200
G1 X143.477 Y140.05 E.13505
G1 X143.477 Y148.664 E.27009
G1 X139.169 Y148.664 E.13505
M73 Q2 S20
G1 X139.169 Y152.971 E.13505
M73 P2 R20
G1 X130.555 Y152.971 E.27009
G1 X130.555 Y157.278 E.13505
G1 X98.826 Y157.278 E.99485
G1 X98.826 Y138.47 E.58972
G1 X120.361 Y138.47 E.67523
G1 X120.361 Y134.163 E.13505
G1 X124.668 Y134.163 E.13505
G1 X124.668 Y129.856 E.13505
G1 X128.976 Y129.856 E.13505
G1 X128.976 Y108.32 E.67523
G1 X147.784 Y108.32 E.58972
G1 X147.784 Y139.993 E.99308
M204 S1000
;WIPE_START
M73 P2 R19
G1 F8640
G1 X147.784 Y136.702 E-.76
;WIPE_END
G1 E-.04 F2100
G1 Z.6 F720
G1 X131.555 Y120.242 F10800
G1 Z.2 F720
G1 E.8 F2100
M204 S800
G1 F1200
G1 X135.091 Y120.242 E.11085
G1 X135.091 Y125.969 E.17958
G1 X135.075 Y126.726 E.02374
G1 X135.027 Y127.477 E.02358
G1 X134.947 Y128.223 E.02353
G1 X134.836 Y128.964 E.02351
G1 X134.693 Y129.701 E.02351
G1 X134.516 Y130.445 E.024
G1 X134.315 Y131.151 E.02302
G1 X134.117 Y131.754 E.0199
G1 X133.816 Y132.565 E.02712
G1 X133.521 Y133.255 E.02351
G1 X133.181 Y133.964 E.02468
G1 X132.846 Y134.593 E.02234
G1 X132.514 Y135.16 E.02057
G1 X132.06 Y135.87 E.02644
G1 X131.627 Y136.482 E.02351
G1 X131.168 Y137.075 E.02351
G1 X130.643 Y137.696 E.02549
G1 X130.178 Y138.201 E.02152
G1 X129.696 Y138.684 E.02139
G1 X129.14 Y139.198 E.02372
G1 X128.524 Y139.72 E.02535
G1 X127.93 Y140.179 E.02351
G1 X127.318 Y140.612 E.02352
G1 X126.688 Y141.019 E.02351
G1 X126.041 Y141.399 E.02352
G1 X125.379 Y141.751 E.02351
G1 X124.73 Y142.061 E.02256
G1 X124.013 Y142.369 E.02446
G1 X123.332 Y142.626 E.02282
G1 X122.599 Y142.868 E.02421
G1 X121.877 Y143.073 E.02351
G1 X121.148 Y143.247 E.02352
G1 X120.417 Y143.388 E.02333
G1 X119.67 Y143.5 E.0237
G1 X118.923 Y143.58 E.02355
G1 X118.173 Y143.628 E.02358
G1 X117.416 Y143.644 E.02374
G1 X110.747 Y143.644 E.20909
G1 X110.747 Y141.05 E.08135
G1 X105.713 Y141.05 E.15785
M73 Q3 S20
G1 X105.713 Y154.698 E.42794
M73 Q3 S19
G1 X110.747 Y154.698 E.15785
M73 P3 R19
G1 X110.747 Y151.204 E.10955
G1 X117.429 Y151.204 E.20949
G1 X118.527 Y151.18 E.03443
G1 X119.615 Y151.109 E.03419
G1 X120.709 Y150.989 E.03451
G1 X121.807 Y150.82 E.03484
G1 X122.887 Y150.605 E.03451
G1 X123.956 Y150.343 E.03451
G1 X125.013 Y150.035 E.03451
G1 X126.045 Y149.684 E.03419
G1 X127.081 Y149.282 E.03484
G1 X128.088 Y148.838 E.03451
G1 X129.066 Y148.356 E.03419
G1 X130.04 Y147.821 E.03484
G1 X130.972 Y147.256 E.03419
G1 X131.888 Y146.644 E.03451
G1 X132.784 Y145.987 E.03484
G1 X133.634 Y145.305 E.03419
G1 X134.462 Y144.579 E.03451
G1 X135.265 Y143.811 E.03484
G1 X136.019 Y143.023 E.03419
G1 X136.745 Y142.196 E.03451
G1 X137.44 Y141.329 E.03484
G1 X138.091 Y140.441 E.03451
G1 X138.702 Y139.526 E.03451
G1 X139.273 Y138.585 E.03451
G1 X139.803 Y137.619 E.03451
G1 X140.289 Y136.632 E.03451
G1 X140.732 Y135.624 E.03451
G1 X141.131 Y134.598 E.03451
G1 X141.485 Y133.556 E.03451
G1 X141.792 Y132.499 E.03451
G1 X142.054 Y131.43 E.03452
G1 X142.268 Y130.35 E.03451
G1 X142.434 Y129.273 E.03419
G1 X142.554 Y128.178 E.03452
G1 X142.627 Y127.08 E.03451
G1 X142.651 Y125.982 E.03443
G1 X142.651 Y120.242 E.17999
G1 X145.204 Y120.242 E.08005
G1 X145.204 Y115.207 E.15785
G1 X131.555 Y115.207 E.42794
G1 X131.555 Y120.185 E.15608
M204 S1000
;WIPE_START
G1 F8640
G1 X131.555 Y116.894 E-.76
;WIPE_END
G1 E-.04 F2100
G1 Z.6 F720
G1 X147.186 Y139.88 F10800
G1 Z.2 F720
G1 E.8 F2100
M204 S800
G1 F1200
G1 X147.186 Y108.66 E.97889
G1 X146.768 Y108.66 E.01314
G1 X146.767 Y139.71 E.97357
G1 X146.349 Y139.71 E.01314
G1 X146.349 Y108.66 E.97357
G1 X145.93 Y108.66 E.01314
G1 X145.93 Y139.71 E.97357
G1 X145.511 Y139.71 E.01314
G1 X145.511 Y108.66 E.97357
M73 Q4 S19
G1 X145.092 Y108.66 E.01314
M73 P4 R19
G1 X145.092 Y114.868 E.19465
G1 X144.673 Y114.868 E.01314
G1 X144.673 Y108.66 E.19465
G1 X144.254 Y108.66 E.01314
G1 X144.254 Y114.868 E.19465
G1 X143.835 Y114.868 E.01314
G1 X143.835 Y108.66 E.19465
G1 X143.416 Y108.66 E.01314
G1 X143.416 Y114.868 E.19465
G1 X142.997 Y114.868 E.01314
G1 X142.997 Y108.66 E.19465
G1 X142.578 Y108.66 E.01314
G1 X142.578 Y114.868 E.19465
G1 X142.159 Y114.868 E.01314
G1 X142.159 Y108.66 E.19465
G1 X141.74 Y108.66 E.01314
G1 X141.74 Y114.868 E.19465
G1 X141.321 Y114.868 E.01314
G1 X141.321 Y108.66 E.19465
G1 X140.902 Y108.66 E.01314
G1 X140.902 Y114.868 E.19465
G1 X140.483 Y114.868 E.01314
G1 X140.483 Y108.66 E.19465
G1 X140.064 Y108.66 E.01314
G1 X140.064 Y114.868 E.19465
G1 X139.645 Y114.868 E.01314
G1 X139.645 Y108.66 E.19465
G1 X139.226 Y108.66 E.01314
G1 X139.226 Y114.868 E.19465
G1 X138.807 Y114.868 E.01314
G1 X138.807 Y108.66 E.19465
G1 X138.388 Y108.66 E.01314
G1 X138.388 Y114.868 E.19465
G1 X137.969 Y114.868 E.01314
G1 X137.969 Y108.66 E.19465
G1 X137.55 Y108.66 E.01314
G1 X137.55 Y114.868 E.19465
G1 X137.131 Y114.868 E.01314
G1 X137.131 Y108.66 E.19465
G1 X136.712 Y108.66 E.01314
G1 X136.712 Y114.868 E.19465
G1 X136.293 Y114.868 E.01314
G1 X136.293 Y108.66 E.19465
G1 X135.874 Y108.66 E.01314
G1 X135.874 Y114.868 E.19465
G1 X135.455 Y114.868 E.01314
G1 X135.455 Y108.66 E.19465
G1 X135.036 Y108.66 E.01314
G1 X135.036 Y114.868 E.19465
G1 X134.617 Y114.868 E.01314
G1 X134.617 Y108.66 E.19465
G1 X134.198 Y108.66 E.01314
G1 X134.198 Y114.868 E.19465
G1 X133.779 Y114.868 E.01314
G1 X133.779 Y108.66 E.19465
G1 X133.36 Y108.66 E.01314
G1 X133.36 Y114.868 E.19465
G1 X132.941 Y114.868 E.01314
G1 X132.941 Y108.66 E.19465
G1 X132.522 Y108.66 E.01314
G1 X132.522 Y114.868 E.19465
G1 X132.103 Y114.868 E.01314
M73 Q5 S19
G1 X132.103 Y108.66 E.19465
G1 X131.684 Y108.66 E.01314
M73 P5 R19
G1 X131.684 Y115.038 E.19997
M204 S1000
;WIPE_START
G1 F8640
G1 X131.684 Y111.746 E-.76
;WIPE_END
G1 E-.04 F2100
G1 Z.6 F720
G1 X145.092 Y139.88 F10800
G1 Z.2 F720
G1 E.8 F2100
M204 S800
G1 F1200
G1 X145.092 Y120.581 E.60511
G1 X144.673 Y120.581 E.01314
G1 X144.673 Y139.71 E.59979
G1 X144.254 Y139.71 E.01314
G1 X144.254 Y120.581 E.59979
G1 X143.835 Y120.581 E.01314
G1 X143.835 Y139.71 E.59979
G1 X143.416 Y139.71 E.01314
G1 X143.416 Y120.581 E.59979
G1 X142.997 Y120.581 E.01314
G1 X142.997 Y148.324 E.86988
G1 X142.578 Y148.324 E.01314
G1 X142.578 Y130.536 E.55775
G1 X142.386 Y131.5 E.03081
G1 X142.159 Y132.43 E.03003
G1 X142.159 Y148.324 E.49836
G1 X141.74 Y148.324 E.01314
G1 X141.74 Y133.861 E.4535
G1 X141.321 Y135.047 E.03945
G1 X141.321 Y148.324 E.41629
G1 X140.902 Y148.324 E.01314
G1 X140.902 Y136.082 E.38384
G1 X140.483 Y137.007 E.03183
G1 X140.483 Y148.324 E.35485
G1 X140.064 Y148.324 E.01314
M73 Q6 S19
G1 X140.064 Y137.849 E.32845
G1 X139.645 Y138.613 E.02731
M73 P6 R19
G1 X139.645 Y148.324 E.3045
G1 X139.226 Y148.324 E.01314
G1 X139.226 Y139.317 E.28242
G1 X138.807 Y139.981 E.0246
G1 X138.807 Y152.632 E.39666
G1 X138.388 Y152.632 E.01314
G1 X138.388 Y140.608 E.377
G1 X137.969 Y141.182 E.02229
G1 X137.969 Y152.632 E.35899
G1 X137.55 Y152.632 E.01314
G1 X137.55 Y141.735 E.34166
G1 X137.131 Y142.257 E.02099
G1 X137.131 Y152.632 E.32529
G1 X136.712 Y152.632 E.01314
G1 X136.712 Y142.748 E.3099
G1 X136.293 Y143.225 E.01992
G1 X136.293 Y152.632 E.29492
G1 X135.874 Y152.632 E.01314
G1 X135.874 Y143.665 E.28114
G1 X135.455 Y144.099 E.01891
G1 X135.455 Y152.632 E.26754
G1 X135.036 Y152.632 E.01314
G1 X135.036 Y144.5 E.25497
G1 X134.617 Y144.895 E.01805
G1 X134.617 Y152.632 E.24259
G1 X134.198 Y152.632 E.01314
G1 X134.198 Y145.262 E.23107
G1 X133.779 Y145.624 E.01735
G1 X133.779 Y152.632 E.21973
G1 X133.36 Y152.632 E.01314
G1 X133.36 Y145.96 E.20918
G1 X132.941 Y146.293 E.01678
G1 X132.941 Y152.632 E.19874
G1 X132.522 Y152.632 E.01314
G1 X132.522 Y146.6 E.18911
G1 X132.103 Y146.908 E.01629
G1 X132.103 Y152.632 E.17947
G1 X131.684 Y152.632 E.01314
G1 X131.684 Y147.189 E.17066
G1 X131.265 Y147.468 E.0158
G1 X131.265 Y152.632 E.16189
G1 X130.846 Y152.632 E.01314
G1 X130.846 Y147.729 E.15371
G1 X130.427 Y147.983 E.01537
G1 X130.427 Y152.632 E.14574
G1 X130.216 Y152.632 E.00663
G1 X130.216 Y156.939 E.13505
G1 X130.008 Y156.939 E.00651
G1 X130.008 Y148.226 E.27317
G1 X129.589 Y148.456 E.01498
G1 X129.589 Y156.939 E.26596
G1 X129.17 Y156.939 E.01314
G1 X129.17 Y148.683 E.25886
G1 X128.751 Y148.889 E.01465
M73 P7 R19
M73 Q7 S19
G1 X128.751 Y156.939 E.25238
G1 X128.333 Y156.939 E.01314
G1 X128.333 Y149.096 E.2459
G1 X127.914 Y149.286 E.01442
G1 X127.914 Y156.939 E.23994
G1 X127.495 Y156.939 E.01314
G1 X127.495 Y149.47 E.23416
G1 X127.076 Y149.648 E.01427
G1 X127.076 Y156.939 E.22859
G1 X126.657 Y156.939 E.01314
G1 X126.657 Y149.811 E.22348
G1 X126.238 Y149.974 E.0141
G1 X126.238 Y156.939 E.21838
G1 X125.819 Y156.939 E.01314
G1 X125.819 Y150.12 E.2138
G1 X125.4 Y150.262 E.01387
G1 X125.4 Y156.939 E.20935
G1 X124.981 Y156.939 E.01314
G1 X124.981 Y150.398 E.20508
G1 X124.562 Y150.52 E.01368
G1 X124.562 Y156.939 E.20125
G1 X124.143 Y156.939 E.01314
G1 X124.143 Y150.642 E.19742
G1 X123.724 Y150.75 E.01356
G1 X123.724 Y156.939 E.19406
G1 X123.305 Y156.939 E.01314
M73 P7 R18
G1 X123.305 Y150.852 E.19084
G1 X122.886 Y150.951 E.0135
G1 X122.886 Y156.939 E.18773
G1 X122.467 Y156.939 E.01314
G1 X122.467 Y151.035 E.18511
G1 X122.048 Y151.118 E.01339
G1 X122.048 Y156.939 E.1825
G1 X121.629 Y156.939 E.01314
G1 X121.629 Y151.191 E.18021
G1 X121.21 Y151.255 E.01329
G1 X121.21 Y156.939 E.17819
G1 X120.791 Y156.939 E.01314
G1 X120.791 Y151.32 E.17617
G1 X120.372 Y151.367 E.01322
G1 X120.372 Y156.939 E.17469
G1 X119.953 Y156.939 E.01314
G1 X119.953 Y151.413 E.17325
G1 X119.534 Y151.454 E.0132
G1 X119.534 Y156.939 E.17197
G1 X119.115 Y156.939 E.01314
G1 X119.115 Y151.481 E.17111
G1 X118.696 Y151.509 E.01316
G1 X118.696 Y156.939 E.17025
G1 X118.277 Y156.939 E.01314
G1 X118.277 Y151.525 E.16974
G1 X117.858 Y151.534 E.01314
G1 X117.858 Y156.939 E.16945
G1 X117.439 Y156.939 E.01314
G1 X117.439 Y151.543 E.16917
G1 X117.02 Y151.544 E.01314
G1 X117.02 Y156.939 E.16916
G1 X116.601 Y156.939 E.01314
G1 X116.601 Y151.544 E.16916
G1 X116.182 Y151.544 E.01314
M73 Q7 S18
G1 X116.182 Y156.939 E.16916
G1 X115.763 Y156.939 E.01314
G1 X115.763 Y151.544 E.16916
G1 X115.344 Y151.544 E.01314
G1 X115.344 Y156.939 E.16916
G1 X114.925 Y156.939 E.01314
G1 X114.925 Y151.544 E.16916
G1 X114.506 Y151.544 E.01314
G1 X114.506 Y156.939 E.16916
G1 X114.087 Y156.939 E.01314
G1 X114.087 Y151.544 E.16916
G1 X113.668 Y151.544 E.01314
M73 P8 R18
M73 Q8 S18
G1 X113.668 Y156.939 E.16916
G1 X113.249 Y156.939 E.01314
G1 X113.249 Y151.544 E.16916
G1 X112.83 Y151.544 E.01314
G1 X112.83 Y156.939 E.16916
G1 X112.411 Y156.939 E.01314
G1 X112.411 Y151.544 E.16916
G1 X111.992 Y151.544 E.01314
G1 X111.992 Y156.939 E.16916
G1 X111.573 Y156.939 E.01314
G1 X111.573 Y151.544 E.16916
G1 X111.154 Y151.544 E.01314
G1 X111.154 Y156.939 E.16916
G1 X110.735 Y156.939 E.01314
G1 X110.735 Y155.038 E.05961
G1 X110.316 Y155.038 E.01314
G1 X110.316 Y156.939 E.05961
G1 X109.898 Y156.939 E.01314
G1 X109.898 Y155.038 E.05961
G1 X109.479 Y155.038 E.01314
G1 X109.479 Y156.939 E.05961
