; generated by PrusaSlicer 2.4.2+win64 on 2023-03-01 at 12:32:54 UTC

; 

; external perimeters extrusion width = 0.45mm
; perimeters extrusion width = 0.45mm
; infill extrusion width = 0.45mm
; solid infill extrusion width = 0.45mm
; top infill extrusion width = 0.40mm
; first layer extrusion width = 0.42mm

M73 P0 R14
M73 Q0 S14
M201 X1000 Y1000 Z200 E5000 ; sets maximum accelerations, mm/sec^2
M203 X200 Y200 Z12 E120 ; sets maximum feedrates, mm / sec
M204 P1250 R1250 T1250 ; sets acceleration (P, T) and retract acceleration (R), mm/sec^2
M205 X8.00 Y8.00 Z0.40 E4.50 ; sets the jerk limits, mm/sec
M205 S0 T0 ; sets the minimum extruding and travel feed rate, mm/sec
M107
;TYPE:Custom
M862.3 P "MK3S" ; printer model check
M862.1 P0.4 ; nozzle diameter check
M115 U3.10.1 ; tell printer latest fw version
G90 ; use absolute coordinates
M83 ; extruder relative mode
M104 S215 ; set extruder temp
M140 S55 ; set bed temp
M190 S55 ; wait for bed temp
M109 S215 ; wait for extruder temp
G28 W ; home all without mesh bed level
G80 ; mesh bed leveling
G1 Z0.2 F720
G1 Y-3 F1000 ; go outside print area
G92 E0
G1 X60 E9 F1000 ; intro line
G1 X100 E12.5 F1000 ; intro line
G92 E0
M221 S95

; Don't change E values below. Excessive value can damage the printer.
M907 E430 ; set extruder motor current
G21 ; set units to millimeters
G90 ; use absolute coordinates
M83 ; use relative distances for extrusion
M900 K0.05 ; Filament gcode LA 1.5
M900 K30 ; Filament gcode LA 1.0
M107
;LAYER_CHANGE
;Z:0.2
;HEIGHT:0.2
;BEFORE_LAYER_CHANGE
G92 E0.0
;0.2


G1 E-.8 F2100
G1 Z.4 F720
;AFTER_LAYER_CHANGE
;0.2
G1 X144.681 Y95.007 F10800
G1 Z.2 F720
G1 E.8 F2100
M204 S800
;TYPE:Skirt/Brim
;WIDTH:0.42
G1 F1200
G1 X145.733 Y93.733 E.05179
G1 X146.903 Y92.695 E.04907
G1 X148.055 Y92.158 E.03984
G1 X149.196 Y91.986 E.03618
G1 X159.296 Y91.986 E.31666
G1 X160.198 Y92.096 E.02851
G1 X160.95 Y92.346 E.02483
G1 X161.686 Y92.761 E.02651
G1 X162.399 Y93.371 E.02941
G1 X163.431 Y94.503 E.04804
G1 X164.099 Y95.429 E.03579
G1 X164.797 Y96.657 E.0443
M73 Q1 S14
G1 X165.249 Y97.705 E.03579
G1 X165.666 Y99.055 E.0443
G1 X165.882 Y100.176 E.03579
G1 X165.982 Y101.193 E.03204
G1 X165.974 Y102.606 E.0443
M73 P1 R14
G1 X165.845 Y103.74 E.03579
G1 X165.533 Y105.118 E.0443
G1 X164.741 Y107.129 E.06776
G1 X164.03 Y108.35 E.0443
G1 X163.428 Y109.175 E.03204
G1 X161.929 Y110.733 E.06776
G1 X160.806 Y111.59 E.0443
G1 X159.934 Y112.123 E.03204
G1 X157.955 Y112.991 E.06776
G1 X156.59 Y113.355 E.04429
G1 X155.581 Y113.515 E.03204
G1 X153.42 Y113.562 E.06776
G1 X152.405 Y113.446 E.03204
G1 X151.025 Y113.141 E.0443
G1 X149.01 Y112.361 E.06776
G1 X147.785 Y111.656 E.0443
G1 X146.957 Y111.058 E.03204
G1 X145.392 Y109.568 E.06776
G1 X144.528 Y108.45 E.0443
G1 X143.991 Y107.58 E.03204
G1 X143.113 Y105.606 E.06776
G1 X142.827 Y104.624 E.03204
G1 X142.576 Y103.234 E.0443
G1 X142.517 Y101.074 E.06776
G1 X142.694 Y99.672 E.0443
G1 X142.925 Y98.677 E.03204
G1 X143.695 Y96.657 E.06776
G1 X144.65 Y95.058 E.0584
M204 S1000
G1 X144.974 Y95.261 F10800
M204 S800
G1 F1200
G1 X145.052 Y95.137 E.0046
G1 X146.276 Y93.719 E.05874
G1 X147.163 Y92.975 E.03629
G1 X148.221 Y92.503 E.03631
G1 X149.204 Y92.363 E.03115
G1 X159.288 Y92.363 E.31616
G1 X160.173 Y92.477 E.02798
G1 X161.042 Y92.808 E.02915
G1 X161.73 Y93.27 E.02598
G1 X162.49 Y93.998 E.033
G1 X163.204 Y94.825 E.03425
G1 X163.987 Y95.961 E.04327
G1 X164.669 Y97.278 E.0465
G1 X165.058 Y98.299 E.03425
G1 X165.407 Y99.634 E.04327
G1 X165.556 Y100.612 E.03101
G1 X165.591 Y102.691 E.0652
G1 X165.474 Y103.673 E.03101
G1 X165.169 Y105.019 E.04327
G1 X164.813 Y106.052 E.03425
G1 X164.225 Y107.3 E.04327
G1 X163.064 Y109.025 E.0652
G1 X162.129 Y110.04 E.04327
G1 X161.387 Y110.694 E.03101
G1 X159.656 Y111.846 E.0652
G1 X158.766 Y112.278 E.03101
G1 X157.469 Y112.748 E.04327
G1 X155.429 Y113.153 E.0652
G1 X154.442 Y113.213 E.03101
G1 X153.063 Y113.153 E.04327
G1 X151.023 Y112.748 E.0652
G1 X149.726 Y112.278 E.04327
G1 X148.836 Y111.846 E.03101
G1 X147.105 Y110.694 E.0652
G1 X146.363 Y110.04 E.03101
G1 X145.428 Y109.025 E.04327
G1 X144.267 Y107.3 E.0652
G1 X143.83 Y106.413 E.03101
G1 X143.353 Y105.118 E.04327
G1 X142.937 Y103.081 E.0652
G1 X142.872 Y102.093 E.03102
G1 X142.925 Y100.715 E.04327
G1 X143.318 Y98.673 E.0652
G1 X143.635 Y97.736 E.03101
G1 X144.209 Y96.481 E.04327
G1 X144.942 Y95.312 E.04325
M204 S1000
; printing object TLG_SA.stl id:0 copy 0
;WIPE_START
G1 F8640
G1 X145.052 Y95.137 E-.04774
G1 X146.276 Y93.719 E-.43257
G1 X147.163 Y92.975 E-.26727
G1 X147.212 Y92.953 E-.01242
;WIPE_END
G1 E-.04 F2100
G1 Z.6 F720
G1 X154.27 Y100.485 F10800
G1 Z.2 F720
G1 E.8 F2100
M204 S800
;TYPE:Perimeter
G1 F1200
G1 X153.365 Y102.673 E.07423
G1 X153.538 Y102.865 E.0081
G1 X153.645 Y103.028 E.00611
G1 X153.749 Y102.646 E.01242
G1 X154.729 Y99.834 E.09337
G1 X157.129 Y99.834 E.07526
G1 X159.441 Y106.386 E.21786
G1 X156.613 Y106.386 E.08868
M73 P1 R13
G1 X156.254 Y105.206 E.03869
G1 X155.612 Y105.206 E.02013
G1 X155.248 Y106.395 E.03899
G1 X154.245 Y106.371 E.03147
G1 X153.775 Y106.305 E.01486
G1 X152.919 Y106.003 E.02849
G1 X152.659 Y106.191 E.01003
G1 X152.192 Y106.37 E.0157
G1 X151.749 Y106.441 E.01405
G1 X151.245 Y106.452 E.01583
G1 X150.679 Y106.394 E.01783
G1 X150.065 Y106.236 E.01988
G1 X149.244 Y105.88 E.02803
G1 X149.244 Y103.2 E.08405
G1 X149.914 Y103.485 E.02281
G1 X149.793 Y103.362 E.0054
G1 X149.519 Y102.948 E.01556
G1 X149.358 Y102.51 E.01465
M73 Q1 S13
G1 X149.3 Y102.061 E.01419
G1 X149.333 Y101.569 E.01546
G1 X149.427 Y101.203 E.01186
G1 X149.604 Y100.831 E.01293
G1 X149.852 Y100.506 E.0128
G1 X150.166 Y100.235 E.01301
G1 X150.482 Y100.048 E.01152
G1 X150.849 Y99.906 E.01233
G1 X151.289 Y99.813 E.0141
G1 X151.72 Y99.783 E.01356
G1 X152.244 Y99.811 E.01646
G1 X152.676 Y99.892 E.01378
M73 Q2 S13
G1 X153.114 Y100.025 E.01434
G1 X154.215 Y100.463 E.03714
M204 S1000
G1 X154.997 Y100.211 F10800
M204 S800
;TYPE:External perimeter
G1 F1200
G1 X156.862 Y100.211 E.0585
G1 X158.909 Y106.009 E.19279
G1 X156.892 Y106.009 E.06321
M73 P2 R13
G1 X156.533 Y104.828 E.03869
G1 X155.333 Y104.828 E.03764
G1 X154.971 Y106.011 E.03877
G1 X154.276 Y105.995 E.02182
G1 X153.865 Y105.937 E.013
G1 X153.27 Y105.727 E.01979
G1 X153.811 Y104.188 E.05116
G1 X153.978 Y103.238 E.03025
G1 X154.109 Y102.757 E.01561
G1 X154.977 Y100.267 E.08268
M204 S1000
G1 X155.04 Y99.813 F10800
;WIPE_START
G1 F8640
G1 X156.862 Y100.211 E-.43555
G1 X157.33 Y101.536 E-.32445
;WIPE_END
G1 E-.04 F2100
G1 Z.6 F720
G1 X153.776 Y100.694 F10800
G1 Z.2 F720
G1 E.8 F2100
M204 S800
G1 F1200
G1 X153.127 Y102.261 E.05316
G1 X152.147 Y101.904 E.03272
G1 X151.788 Y101.856 E.01136
G1 X151.641 Y101.863 E.00461
G1 X151.559 Y101.891 E.00272
G1 X151.533 Y101.933 E.00157
G1 X151.539 Y101.971 E.0012
G1 X151.59 Y102.027 E.00239
G1 X152.737 Y102.646 E.04085
G1 X153.028 Y102.863 E.01139
G1 X153.238 Y103.096 E.00984
G1 X153.348 Y103.263 E.00626
G1 X153.463 Y103.633 E.01217
G1 X153.473 Y104.229 E.01868
G1 X153.448 Y104.535 E.00962
G1 X153.361 Y104.849 E.01024
G1 X153.193 Y105.153 E.01086
G1 X152.762 Y105.651 E.02067
G1 X152.478 Y105.856 E.01097
G1 X152.093 Y106.004 E.01293
G1 X151.715 Y106.065 E.012
G1 X151.26 Y106.074 E.01428
G1 X150.745 Y106.022 E.01621
G1 X150.188 Y105.878 E.01806
G1 X149.622 Y105.633 E.01934
G1 X149.622 Y103.771 E.05838
G1 X150.483 Y104.138 E.02936
G1 X150.836 Y104.267 E.01179
G1 X151.193 Y104.356 E.01155
G1 X151.42 Y104.384 E.00716
G1 X151.667 Y104.376 E.00776
G1 X151.807 Y104.318 E.00476
G1 X151.799 Y104.236 E.00259
G1 X151.692 Y104.143 E.00444
G1 X150.622 Y103.578 E.03795
G1 X150.32 Y103.36 E.01167
G1 X150.087 Y103.124 E.0104
G1 X149.858 Y102.777 E.01304
G1 X149.727 Y102.42 E.01193
G1 X149.679 Y102.049 E.01171
G1 X149.707 Y101.629 E.0132
G1 X149.783 Y101.332 E.00962
G1 X149.928 Y101.028 E.01055
G1 X150.128 Y100.766 E.01035
G1 X150.387 Y100.542 E.01073
G1 X150.647 Y100.389 E.00948
G1 X150.957 Y100.269 E.0104
G1 X151.341 Y100.187 E.01232
G1 X151.723 Y100.161 E.012
G1 X152.199 Y100.187 E.01495
G1 X152.587 Y100.259 E.01237
G1 X152.99 Y100.381 E.0132
G1 X153.72 Y100.672 E.02465
M204 S1000
G1 X154.147 Y100.842 F10800
;WIPE_START
G1 F8640
G1 X153.127 Y102.261 E-.39153
G1 X152.147 Y101.904 E-.24093
G1 X151.788 Y101.856 E-.08364
G1 X151.641 Y101.863 E-.03395
G1 X151.6 Y101.877 E-.00995
;WIPE_END
G1 E-.04 F2100
G1 Z.6 F720
G1 X149.441 Y95.991 F10800
G1 Z.2 F720
G1 E.8 F2100
M204 S800
;TYPE:Perimeter
G1 F1200
G1 X149.546 Y96.126 E.00535
G1 X149.708 Y96.541 E.01399
G1 X149.9 Y96.929 E.01356
G1 X150.124 Y97.298 E.01355
G1 X150.384 Y97.652 E.01376
G1 X150.814 Y98.12 E.01992
G1 X151.144 Y98.409 E.01376
G1 X151.493 Y98.664 E.01355
G1 X151.862 Y98.888 E.01355
G1 X152.25 Y99.079 E.01355
G1 X152.653 Y99.236 E.01355
G1 X153.068 Y99.357 E.01355
G1 X153.492 Y99.441 E.01355
G1 X153.922 Y99.488 E.01356
G1 X154.354 Y99.497 E.01355
G1 X154.785 Y99.469 E.01355
G1 X155.213 Y99.403 E.01355
G1 X155.639 Y99.299 E.01376
G1 X156.242 Y99.08 E.02012
G1 X156.817 Y98.781 E.02033
G1 X157.349 Y98.409 E.02033
G1 X157.822 Y97.976 E.02012
G1 X158.112 Y97.646 E.01376
G1 X158.372 Y97.293 E.01376
G1 X158.693 Y96.737 E.02013
G1 X158.95 Y96.12 E.02098
G1 X159.008 Y96.032 E.00328
G1 X159.108 Y95.958 E.00393
G1 X159.251 Y95.931 E.00454
G1 X159.311 Y95.94 E.0019
G1 X159.44 Y96.003 E.0045
G1 X159.69 Y96.234 E.01067
G1 X160.164 Y96.737 E.02166
G1 X160.372 Y96.989 E.01025
G1 X160.777 Y97.55 E.0217
G1 X160.951 Y97.828 E.01027
G1 X161.247 Y98.373 E.01945
G1 X161.416 Y98.735 E.01255
G1 X161.66 Y99.374 E.02143
G1 X161.846 Y100.027 E.0213
G1 X161.974 Y100.694 E.0213
G1 X162.044 Y101.37 E.0213
G1 X162.056 Y102.055 E.0215
G1 X162.04 Y102.382 E.01025
G1 X161.961 Y103.069 E.0217
G1 X161.903 Y103.391 E.01025
G1 X161.737 Y104.056 E.0215
G1 X161.514 Y104.705 E.0215
G1 X161.387 Y105.006 E.01025
G1 X161.082 Y105.62 E.0215
G1 X160.727 Y106.199 E.0213
G1 X160.32 Y106.751 E.0215
G1 X160.109 Y107.001 E.01025
G1 X159.634 Y107.495 E.0215
G1 X159.122 Y107.941 E.0213
G1 X158.573 Y108.342 E.0213
G1 X157.992 Y108.693 E.0213
G1 X157.382 Y108.993 E.0213
G1 X156.743 Y109.24 E.0215
G1 X156.431 Y109.338 E.01025
G1 X155.765 Y109.501 E.0215
G1 X155.094 Y109.604 E.0213
G1 X154.415 Y109.648 E.02132
G1 X153.801 Y109.636 E.01925
G1 X153.403 Y109.605 E.01254
G1 X152.727 Y109.501 E.02143
G1 X152.061 Y109.338 E.0215
G1 X151.749 Y109.24 E.01025
G1 X151.11 Y108.993 E.0215
G1 X150.5 Y108.693 E.0213
G1 X149.919 Y108.342 E.0213
G1 X149.37 Y107.941 E.0213
G1 X148.853 Y107.491 E.0215
G1 X148.622 Y107.26 E.01025
G1 X148.168 Y106.746 E.0215
G1 X147.765 Y106.199 E.0213
G1 X147.41 Y105.62 E.0213
G1 X147.107 Y105.011 E.02132
G1 X146.881 Y104.441 E.01925
G1 X146.756 Y104.06 E.01254
G1 X146.591 Y103.397 E.02143
G1 X146.484 Y102.726 E.0213
G1 X146.437 Y102.049 E.0213
G1 X146.448 Y101.363 E.0215
G1 X146.474 Y101.037 E.01025
G1 X146.575 Y100.359 E.0215
G1 X146.734 Y99.692 E.0215
G1 X146.83 Y99.38 E.01025
G1 X147.074 Y98.739 E.0215
G1 X147.371 Y98.128 E.0213
G1 X147.719 Y97.545 E.0213
G1 X148.116 Y96.994 E.0213
G1 X148.565 Y96.475 E.0215
G1 X149.086 Y95.981 E.02254
G1 X149.196 Y95.936 E.00372
G1 X149.288 Y95.932 E.00288
G1 X149.39 Y95.96 E.00331
M204 S1000
G1 X148.996 Y95.601 F10800
M204 S800
;TYPE:External perimeter
G1 F1200
G1 X149.135 Y95.561 E.00454
G1 X149.316 Y95.554 E.00567
G1 X149.461 Y95.582 E.00462
G1 X149.668 Y95.688 E.0073
G1 X149.756 Y95.766 E.0037
G1 X149.888 Y95.966 E.00751
G1 X150.053 Y96.389 E.01423
G1 X150.23 Y96.747 E.01252
G1 X150.438 Y97.088 E.01252
G1 X150.676 Y97.412 E.0126
G1 X151.078 Y97.85 E.01863
G1 X151.38 Y98.114 E.0126
G1 X151.702 Y98.35 E.01252
G1 X152.044 Y98.557 E.01252
G1 X152.402 Y98.734 E.01252
G1 X152.774 Y98.878 E.01252
G1 X153.158 Y98.99 E.01252
G1 X153.549 Y99.068 E.01252
G1 X153.947 Y99.111 E.01252
G1 X154.346 Y99.12 E.01252
G1 X154.744 Y99.094 E.01252
G1 X155.139 Y99.033 E.01252
G1 X155.529 Y98.938 E.0126
G1 X156.09 Y98.734 E.01871
G1 X156.621 Y98.458 E.01878
G1 X157.112 Y98.114 E.01878
G1 X157.552 Y97.712 E.01871
G1 X157.818 Y97.41 E.0126
G1 X158.056 Y97.086 E.0126
G1 X158.354 Y96.57 E.01871
G1 X158.616 Y95.941 E.02134
G1 X158.718 Y95.787 E.00582
G1 X158.824 Y95.688 E.00454
G1 X158.951 Y95.613 E.00462
G1 X159.089 Y95.567 E.00456
G1 X159.261 Y95.551 E.00542
G1 X159.41 Y95.573 E.00473
G1 X159.579 Y95.642 E.00573
G1 X159.675 Y95.707 E.00364
G1 X159.955 Y95.966 E.01195
G1 X160.446 Y96.487 E.02245
G1 X160.67 Y96.758 E.01102
G1 X161.09 Y97.339 E.02247
G1 X161.277 Y97.637 E.01103
G1 X161.584 Y98.203 E.02018
G1 X161.764 Y98.588 E.01333
G1 X162.018 Y99.255 E.02237
G1 X162.213 Y99.94 E.02233
G1 X162.348 Y100.639 E.02233
G1 X162.421 Y101.347 E.02233
G1 X162.433 Y102.061 E.0224
G1 X162.416 Y102.412 E.01102
G1 X162.334 Y103.124 E.02247
G1 X162.271 Y103.47 E.01102
G1 X162.099 Y104.163 E.0224
G1 X161.866 Y104.839 E.0224
G1 X161.73 Y105.163 E.01102
G1 X161.412 Y105.803 E.0224
G1 X161.04 Y106.41 E.02233
G1 X160.616 Y106.985 E.0224
G1 X160.389 Y107.254 E.01102
G1 X159.894 Y107.768 E.0224
G1 X159.358 Y108.236 E.02233
G1 X158.782 Y108.656 E.02233
G1 X158.173 Y109.024 E.02233
G1 X157.534 Y109.338 E.02233
G1 X156.868 Y109.597 E.0224
G1 X156.532 Y109.702 E.01102
G1 X155.838 Y109.871 E.0224
G1 X155.135 Y109.979 E.02233
G1 X154.424 Y110.025 E.02233
G1 X153.783 Y110.013 E.0201
G1 X153.359 Y109.979 E.01333
G1 X152.654 Y109.871 E.02237
G1 X151.96 Y109.702 E.0224
G1 X151.624 Y109.597 E.01102
G1 X150.958 Y109.338 E.0224
G1 X150.319 Y109.024 E.02233
G1 X149.71 Y108.656 E.02233
G1 X149.134 Y108.236 E.02233
G1 X148.596 Y107.767 E.0224
G1 X148.347 Y107.519 E.01102
G1 X147.874 Y106.983 E.0224
G1 X147.452 Y106.41 E.02233
G1 X147.08 Y105.803 E.02233
G1 X146.763 Y105.165 E.02233
G1 X146.526 Y104.569 E.0201
G1 X146.394 Y104.165 E.01333
G1 X146.221 Y103.473 E.02237
G1 X146.109 Y102.769 E.02232
G1 X146.059 Y102.059 E.02233
G1 X146.071 Y101.345 E.0224
G1 X146.1 Y100.994 E.01102
G1 X146.204 Y100.288 E.0224
G1 X146.37 Y99.593 E.0224
G1 X146.473 Y99.257 E.01102
G1 X146.728 Y98.589 E.0224
M73 Q3 S13
G1 X147.038 Y97.949 E.02233
G1 X147.404 Y97.337 E.02233
G1 X147.82 Y96.76 E.02233
G1 X148.287 Y96.219 E.0224
G1 X148.534 Y95.969 E.01103
G1 X148.869 Y95.67 E.01407
G1 X148.943 Y95.63 E.00266
M204 S1000
G1 X149.113 Y95.687 F10800
;WIPE_START
G1 F8640
G1 X149.135 Y95.561 E-.0471
G1 X149.316 Y95.554 E-.04178
G1 X149.461 Y95.582 E-.03399
G1 X149.668 Y95.688 E-.05375
G1 X149.756 Y95.766 E-.02723
G1 X149.888 Y95.966 E-.05532
G1 X150.053 Y96.389 E-.10481
M73 P3 R13
G1 X150.23 Y96.747 E-.09223
G1 X150.438 Y97.088 E-.09222
G1 X150.676 Y97.412 E-.09275
G1 X151.024 Y97.791 E-.11883
;WIPE_END
G1 E-.04 F2100
G1 Z.6 F720
G1 X152.286 Y99.466 F10800
G1 Z.2 F720
G1 E.8 F2100
M204 S800
;TYPE:Gap fill
;WIDTH:0.333737
G1 F1200
G1 X152.544 Y99.539 E.00649
M204 S1000
M204 S800
;WIDTH:0.311092
G1 X152.555 Y99.542 E.00026
M204 S1000
M204 S800
;WIDTH:0.309441
G1 X152.744 Y99.587 E.0043
M204 S1000
M204 S800
;WIDTH:0.290457
G1 X152.757 Y99.591 E.00028
M204 S1000
M204 S800
;WIDTH:0.292358
G1 X152.988 Y99.66 E.00501
M204 S1000
M204 S800
;WIDTH:0.292944
G1 X152.999 Y99.662 E.00023
M204 S1000
M204 S800
;WIDTH:0.314715
G1 X153.216 Y99.717 E.00505
M204 S1000
M204 S800
;WIDTH:0.31635
G1 X153.227 Y99.72 E.00027
M204 S1000
M204 S800
;WIDTH:0.338253
G1 X153.484 Y99.796 E.00657
M204 S1000
G1 X153.886 Y99.598 F10800
M204 S800
;TYPE:Solid infill
;WIDTH:0.451151
G1 F1200
G1 X154.483 Y100.195 E.02868
M204 S1000
G1 X155.185 Y99.622 F10800
M204 S800
;TYPE:Gap fill
;WIDTH:0.0999684
G1 F1200
G1 X155.254 Y99.617 E.00033
M204 S1000
M204 S800
;WIDTH:0.10046
G1 X155.256 Y99.616 E.00001
M204 S1000
M204 S800
;WIDTH:0.13717
G1 X155.409 Y99.598 E.0012
M204 S1000
M204 S800
;WIDTH:0.17388
G1 X155.561 Y99.58 E.00167
M204 S1000
M204 S800
;WIDTH:0.21059
G1 X155.714 Y99.561 E.00214
M204 S1000
M204 S800
;WIDTH:0.21332
G1 X155.723 Y99.56 E.00013
M204 S1000
M204 S800
;WIDTH:0.260919
G1 X155.923 Y99.525 E.00369
M204 S1000
M204 S800
;WIDTH:0.308516
G1 X156.124 Y99.489 E.0045
M204 S1000
;WIPE_START
G1 F8640
G1 X155.923 Y99.525 E-.04701
;WIPE_END
G1 E-.75299 F2100
G1 Z.6 F720
G1 X160.717 Y97.668 F10800
G1 Z.2 F720
G1 E.8 F2100
M204 S800
;TYPE:Solid infill
