; generated by PrusaSlicer 2.4.2+win64 on 2023-02-28 at 19:27:36 UTC

; 

; external perimeters extrusion width = 0.45mm
; perimeters extrusion width = 0.45mm
; infill extrusion width = 0.45mm
; solid infill extrusion width = 0.45mm
; top infill extrusion width = 0.40mm
; first layer extrusion width = 0.42mm

M73 P0 R115
M73 Q0 S115
M201 X1000 Y1000 Z200 E5000 ; sets maximum accelerations, mm/sec^2
M203 X200 Y200 Z12 E120 ; sets maximum feedrates, mm / sec
M204 P1250 R1250 T1250 ; sets acceleration (P, T) and retract acceleration (R), mm/sec^2
M205 X8.00 Y8.00 Z0.40 E4.50 ; sets the jerk limits, mm/sec
M205 S0 T0 ; sets the minimum extruding and travel feed rate, mm/sec
M107
;TYPE:Custom
M862.3 P "MK3S" ; printer model check
M862.1 P0.4 ; nozzle diameter check
M115 U3.10.1 ; tell printer latest fw version
G90 ; use absolute coordinates
M83 ; extruder relative mode
M104 S215 ; set extruder temp
M140 S55 ; set bed temp
M190 S55 ; wait for bed temp
M109 S215 ; wait for extruder temp
G28 W ; home all without mesh bed level
G80 ; mesh bed leveling
G1 Z0.2 F720
G1 Y-3 F1000 ; go outside print area
G92 E0
G1 X60 E9 F1000 ; intro line
G1 X100 E12.5 F1000 ; intro line
G92 E0
M221 S95

; Don't change E values below. Excessive value can damage the printer.
M907 E430 ; set extruder motor current
G21 ; set units to millimeters
G90 ; use absolute coordinates
M83 ; use relative distances for extrusion
M900 K0.05 ; Filament gcode LA 1.5
M900 K30 ; Filament gcode LA 1.0
M107
;LAYER_CHANGE
;Z:0.2
;HEIGHT:0.2
;BEFORE_LAYER_CHANGE
G92 E0.0
;0.2


M73 P0 R114
G1 E-.8 F2100
G1 Z.4 F720
;AFTER_LAYER_CHANGE
;0.2
G1 X131.452 Y88.466 F10800
G1 Z.2 F720
G1 E.8 F2100
M204 S800
;TYPE:Skirt/Brim
;WIDTH:0.42
G1 F1200
G1 X132.251 Y87.381 E.04224
G1 X133.915 Y85.397 E.08121
G1 X135.817 Y83.489 E.08446
G1 X137.877 Y81.754 E.08446
G1 X140.169 Y80.15 E.08771
G1 X142.504 Y78.807 E.08446
G1 X143.713 Y78.213 E.04224
G1 X146.106 Y77.222 E.08121
G1 X148.673 Y76.407 E.08446
G1 X151.404 Y75.802 E.08771
G1 X154.685 Y75.415 E.10358
G1 X158.01 Y75.369 E.10426
G1 X160.797 Y75.613 E.08771
G1 X163.449 Y76.085 E.08446
G1 X166.628 Y76.983 E.10358
G1 X169.717 Y78.213 E.10426
G1 X172.198 Y79.504 E.08771
G1 X174.468 Y80.956 E.08446
G1 X175.553 Y81.754 E.04224
G1 X177.537 Y83.419 E.08121
G1 X179.445 Y85.32 E.08446
G1 X181.179 Y87.381 E.08446
G1 X182.784 Y89.672 E.08771
G1 X184.127 Y92.007 E.08446
G1 X184.721 Y93.216 E.04224
G1 X185.712 Y95.609 E.08121
G1 X186.526 Y98.177 E.08446
G1 X187.131 Y100.908 E.08771
G1 X187.518 Y104.188 E.10358
G1 X187.564 Y107.513 E.10426
G1 X187.321 Y110.3 E.08771
G1 X186.848 Y112.952 E.08446
G1 X185.951 Y116.131 E.10358
G1 X184.721 Y119.22 E.10426
G1 X183.429 Y121.702 E.08771
G1 X181.978 Y123.971 E.08446
G1 X181.179 Y125.056 E.04224
G1 X179.515 Y127.04 E.08121
G1 X177.613 Y128.948 E.08446
G1 X175.553 Y130.683 E.08446
G1 X173.261 Y132.287 E.08771
G1 X170.926 Y133.63 E.08446
G1 X168.579 Y134.725 E.08121
G1 X167.324 Y135.215 E.04224
G1 X164.757 Y136.029 E.08446
G1 X162.026 Y136.635 E.08771
G1 X158.745 Y137.022 E.10358
G1 X155.42 Y137.068 E.10426
G1 X152.633 Y136.824 E.08771
G1 X149.981 Y136.352 E.08446
G1 X146.802 Y135.454 E.10358
G1 X143.713 Y134.224 E.10426
G1 X141.232 Y132.932 E.08771
G1 X138.962 Y131.481 E.08446
G1 X137.877 Y130.683 E.04224
G1 X135.893 Y129.018 E.08121
G1 X133.985 Y127.116 E.08446
G1 X132.251 Y125.056 E.08446
G1 X130.646 Y122.765 E.08771
G1 X129.303 Y120.43 E.08446
G1 X128.209 Y118.082 E.08121
G1 X127.718 Y116.828 E.04224
G1 X126.904 Y114.26 E.08446
G1 X126.299 Y111.529 E.08771
G1 X125.912 Y108.248 E.10358
G1 X125.866 Y104.923 E.10426
G1 X126.109 Y102.137 E.08771
G1 X126.582 Y99.485 E.08446
G1 X127.479 Y96.306 E.10358
G1 X128.709 Y93.216 E.10426
G1 X130.001 Y90.735 E.08771
G1 X131.42 Y88.516 E.08258
M204 S1000
; printing object TLG_DC 2.stl id:0 copy 0
;WIPE_START
G1 F8640
G1 X132.251 Y87.381 E-.32489
G1 X133.462 Y85.937 E-.43511
;WIPE_END
G1 E-.04 F2100
G1 Z.6 F720
G1 X135.383 Y103.761 F10800
G1 Z.2 F720
G1 E.8 F2100
M204 S800
;TYPE:Perimeter
G1 F1200
G1 X135.171 Y104.514 E.02453
G1 X135.247 Y104.785 E.00882
G1 X135.243 Y104.925 E.00439
G1 X135.312 Y105.418 E.0156
G1 X135.311 Y105.652 E.00733
G1 X135.256 Y105.815 E.00542
G1 X135.159 Y105.885 E.00375
G1 X134.96 Y105.956 E.00663
G1 X134.679 Y105.999 E.0089
G1 X134.359 Y106.006 E.01002
G1 X134.041 Y105.972 E.01005
G1 X133.768 Y105.889 E.00895
G1 X133.638 Y105.806 E.00483
G1 X133.567 Y105.698 E.00405
G1 X133.556 Y105.429 E.00845
G1 X133.932 Y103.946 E.04797
G1 X133.379 Y103.825 E.01772
G1 X134.327 Y103.202 E.03556
G1 X133.747 Y102.378 E.0316
G1 X133.678 Y102.254 E.00446
G1 X135.064 Y103.532 E.05912
G1 X135.334 Y103.726 E.01043
M204 S1000
;WIPE_START
G1 F8640
G1 X135.171 Y104.514 E-.18582
G1 X135.247 Y104.785 E-.06497
G1 X135.243 Y104.925 E-.03234
G1 X135.312 Y105.418 E-.1149
G1 X135.311 Y105.652 E-.05395
G1 X135.256 Y105.815 E-.03989
G1 X135.159 Y105.885 E-.02761
G1 X134.96 Y105.956 E-.04884
G1 X134.679 Y105.999 E-.06553
G1 X134.359 Y106.006 E-.07382
G1 X134.134 Y105.982 E-.05233
;WIPE_END
G1 E-.04 F2100
G1 Z.6 F720
G1 X137.702 Y99.325 F10800
G1 Z.2 F720
G1 E.8 F2100
M204 S800
G1 F1200
G1 X137.689 Y102.622 E.10338
G1 X137.625 Y103.193 E.01801
G1 X137.365 Y104.157 E.0313
G1 X137.483 Y104.358 E.00731
G1 X137.628 Y104.696 E.01153
G1 X137.727 Y105.082 E.01249
G1 X137.765 Y105.494 E.01297
G1 X137.757 Y105.966 E.01483
G1 X137.695 Y106.407 E.01396
G1 X137.553 Y106.89 E.01578
G1 X137.35 Y107.3 E.01433
G1 X137.032 Y107.718 E.01647
G1 X136.655 Y108.046 E.01569
G1 X136.248 Y108.274 E.01461
G1 X136.115 Y108.324 E.00446
G1 X136.294 Y108.412 E.00624
G1 X136.516 Y108.555 E.00829
G1 X136.832 Y108.839 E.01332
G1 X137.064 Y109.118 E.01138
G1 X137.257 Y109.424 E.01134
G1 X137.42 Y109.771 E.01202
G1 X137.553 Y110.172 E.01327
G1 X137.651 Y110.651 E.01532
G1 X137.698 Y111.232 E.01828
G1 X137.7 Y113.585 E.07377
G1 X131.168 Y113.585 E.20482
G1 X131.168 Y111.223 E.07404
G1 X131.199 Y110.673 E.01729
G1 X131.323 Y110.054 E.01978
G1 X131.422 Y109.766 E.00955
M73 Q0 S114
G1 X131.584 Y109.417 E.01208
G1 X131.781 Y109.105 E.01154
G1 X132.033 Y108.805 E.01229
G1 X132.385 Y108.499 E.01462
G1 X132.777 Y108.285 E.01401
G1 X132.441 Y108.13 E.01163
G1 X132.212 Y107.974 E.00868
G1 X131.938 Y107.738 E.01134
G1 X131.595 Y107.315 E.01708
G1 X131.452 Y107.072 E.00883
G1 X131.305 Y106.749 E.01112
G1 X131.196 Y106.399 E.01148
G1 X131.141 Y106.131 E.00861
G1 X131.1 Y105.715 E.01309
G1 X131.101 Y105.382 E.01045
G1 X131.133 Y105.06 E.01014
G1 X131.203 Y104.706 E.01132
G1 X131.412 Y104.204 E.01704
G1 X131.555 Y103.976 E.00846
G1 X131.709 Y103.819 E.00688
G1 X131.835 Y103.652 E.00657
G1 X131.723 Y103.568 E.00439
G1 X131.491 Y103.295 E.01122
G1 X131.252 Y102.83 E.01642
G1 X131.143 Y102.409 E.01362
G1 X131.096 Y101.821 E.01848
G1 X131.136 Y101.317 E.01587
G1 X131.248 Y100.884 E.01402
G1 X131.476 Y100.414 E.01639
G1 X131.754 Y100.065 E.01399
G1 X132.071 Y99.805 E.01285
G1 X132.319 Y99.663 E.00896
G1 X132.623 Y99.546 E.0102
G1 X132.949 Y99.48 E.01044
G1 X133.227 Y99.463 E.00873
G1 X133.552 Y99.483 E.01022
G1 X133.874 Y99.544 E.01027
G1 X134.363 Y99.729 E.01639
G1 X134.804 Y100.002 E.01626
G1 X135.098 Y100.254 E.01215
G1 X135.282 Y100.445 E.00831
G1 X135.214 Y99.34 E.03473
G1 X137.642 Y99.325 E.07613
M204 S1000
G1 X137.324 Y99.702 F10800
M204 S800
;TYPE:External perimeter
G1 F1200
G1 X137.312 Y102.6 E.09086
G1 X137.253 Y103.122 E.01648
G1 X137.074 Y103.788 E.02162
G1 X136.123 Y103.788 E.0298
G1 X135.682 Y103.512 E.01631
G1 X135.303 Y103.239 E.01465
G1 X133.89 Y101.936 E.06026
G1 X133.646 Y101.778 E.00912
G1 X133.429 Y101.709 E.00714
G1 X133.283 Y101.71 E.00457
G1 X133.219 Y101.736 E.00216
G1 X133.188 Y101.785 E.00184
G1 X133.172 Y101.934 E.00468
G1 X133.195 Y102.097 E.00517
G1 X133.262 Y102.281 E.00614
G1 X133.428 Y102.579 E.01068
G1 X133.795 Y103.101 E.02002
G1 X133.099 Y103.559 E.02613
G1 X132.546 Y103.855 E.01966
G1 X132.174 Y103.435 E.01757
G1 X131.983 Y103.291 E.00751
G1 X131.806 Y103.084 E.00852
G1 X131.606 Y102.695 E.01373
G1 X131.517 Y102.346 E.01129
G1 X131.474 Y101.821 E.0165
G1 X131.51 Y101.38 E.0139
G1 X131.604 Y101.015 E.01182
G1 X131.797 Y100.616 E.0139
G1 X132.025 Y100.331 E.01143
G1 X132.286 Y100.116 E.01059
G1 X132.481 Y100.005 E.00706
G1 X132.729 Y99.909 E.00833
G1 X132.999 Y99.854 E.00862
G1 X133.227 Y99.841 E.00717
G1 X133.506 Y99.858 E.00876
G1 X133.772 Y99.908 E.00849
G1 X134.196 Y100.068 E.01421
G1 X134.581 Y100.307 E.0142
G1 X134.839 Y100.528 E.01067
G1 X134.996 Y100.692 E.0071
G1 X135.223 Y100.997 E.01194
G1 X135.372 Y101.277 E.00995
G1 X135.544 Y101.498 E.00876
G1 X135.821 Y101.793 E.01268
G1 X135.821 Y101.424 E.01156
G1 X135.761 Y101.013 E.013
G1 X135.668 Y100.573 E.01412
G1 X135.615 Y99.712 E.02703
G1 X137.264 Y99.702 E.05169
M204 S1000
G1 X137.719 Y99.639 F10800
;WIPE_START
G1 F8640
G1 X137.312 Y102.6 E-.6692
G1 X137.268 Y102.991 E-.0908
;WIPE_END
G1 E-.04 F2100
G1 Z.6 F720
G1 X136.85 Y104.077 F10800
G1 Z.2 F720
G1 E.8 F2100
M204 S800
G1 F1200
G1 X136.961 Y104.278 E.00719
G1 X137.057 Y104.377 E.00434
G1 X137.146 Y104.528 E.0055
G1 X137.27 Y104.818 E.00987
G1 X137.354 Y105.146 E.01064
G1 X137.387 Y105.508 E.01138
G1 X137.38 Y105.937 E.01347
G1 X137.326 Y106.327 E.01235
G1 X137.2 Y106.752 E.01388
G1 X137.028 Y107.1 E.01218
G1 X136.756 Y107.459 E.01412
G1 X136.437 Y107.736 E.01325
G1 X136.088 Y107.931 E.01253
G1 X135.874 Y108.013 E.00717
G1 X135.638 Y108.063 E.00758
G1 X135.38 Y108.092 E.00812
G1 X133.407 Y108.065 E.06187
G1 X133.018 Y107.981 E.0125
G1 X132.627 Y107.801 E.01348
G1 X132.442 Y107.674 E.00703
G1 X132.21 Y107.474 E.00962
G1 X131.905 Y107.099 E.01515
G1 X131.787 Y106.898 E.00731
G1 X131.658 Y106.615 E.00975
G1 X131.562 Y106.305 E.01015
G1 X131.515 Y106.074 E.0074
G1 X131.477 Y105.697 E.01188
G1 X131.478 Y105.401 E.00928
G1 X131.506 Y105.115 E.009
G1 X131.566 Y104.816 E.00956
G1 X131.748 Y104.378 E.01489
G1 X131.853 Y104.211 E.00618
G1 X131.996 Y104.066 E.00637
G1 X132.161 Y103.846 E.00864
G1 X132.722 Y104.068 E.01891
G1 X133.468 Y104.231 E.02394
G1 X133.179 Y105.396 E.03765
G1 X133.178 Y105.683 E.00899
G1 X133.243 Y105.903 E.00721
G1 X133.383 Y106.086 E.00723
G1 X133.62 Y106.238 E.00881
G1 X133.965 Y106.344 E.01132
G1 X134.344 Y106.383 E.01195
G1 X134.711 Y106.375 E.01153
G1 X135.052 Y106.324 E.01081
G1 X135.335 Y106.222 E.0094
G1 X135.509 Y106.099 E.0067
G1 X135.625 Y105.932 E.00636
G1 X135.688 Y105.687 E.00794
G1 X135.689 Y105.393 E.00922
G1 X135.621 Y104.904 E.01546
G1 X135.625 Y104.738 E.0052
G1 X135.563 Y104.514 E.00729
G1 X135.686 Y104.077 E.01426
G1 X136.79 Y104.077 E.03463
M204 S1000
G1 X137.057 Y103.978 F10800
;WIPE_START
G1 F8640
G1 X136.961 Y104.278 E-.06082
G1 X137.057 Y104.377 E-.03196
G1 X137.146 Y104.528 E-.04053
G1 X137.27 Y104.818 E-.07266
G1 X137.354 Y105.146 E-.07835
G1 X137.387 Y105.508 E-.08384
G1 X137.38 Y105.937 E-.09919
G1 X137.326 Y106.327 E-.09095
G1 X137.2 Y106.752 E-.1022
G1 X137.028 Y107.1 E-.08971
G1 X137.002 Y107.134 E-.0098
;WIPE_END
G1 E-.04 F2100
G1 Z.6 F720
G1 X137.323 Y113.208 F10800
G1 Z.2 F720
G1 E.8 F2100
M204 S800
G1 F1200
G1 X131.545 Y113.208 E.18116
G1 X131.545 Y111.234 E.06189
G1 X131.574 Y110.721 E.01611
G1 X131.688 Y110.153 E.01817
G1 X131.772 Y109.907 E.00815
G1 X131.916 Y109.598 E.0107
G1 X132.086 Y109.328 E.00999
G1 X132.303 Y109.07 E.01056
G1 X132.604 Y108.808 E.01253
G1 X132.868 Y108.657 E.00954
G1 X133.067 Y108.571 E.00678
G1 X133.39 Y108.498 E.0104
G1 X134.103 Y108.469 E.02238
G1 X135.36 Y108.5 E.03942
G1 X135.819 Y108.599 E.01471
G1 X136.109 Y108.741 E.01011
G1 X136.287 Y108.855 E.00664
G1 X136.559 Y109.101 E.0115
G1 X136.758 Y109.34 E.00975
G1 X136.926 Y109.606 E.00986
G1 X137.07 Y109.911 E.01057
G1 X137.188 Y110.269 E.01184
G1 X137.277 Y110.704 E.01391
G1 X137.321 Y111.248 E.0171
G1 X137.323 Y113.148 E.05958
M204 S1000
G1 X137.325 Y113.608 F10800
;WIPE_START
G1 F8640
G1 X134.032 Y113.182 E-.76
;WIPE_END
G1 E-.04 F2100
G1 Z.6 F720
G1 X142.397 Y116.844 F10800
G1 Z.2 F720
G1 E.8 F2100
M204 S800
;TYPE:Perimeter
G1 F1200
G1 X141.836 Y116.057 E.03031
G1 X141.233 Y115.077 E.03607
G1 X140.863 Y114.396 E.02431
G1 X140.524 Y113.702 E.02421
G1 X140.215 Y112.994 E.02421
G1 X139.937 Y112.274 E.02421
G1 X139.691 Y111.542 E.02421
G1 X139.476 Y110.8 E.02421
G1 X139.294 Y110.05 E.02421
G1 X139.145 Y109.292 E.02421
G1 X139.028 Y108.529 E.02421
G1 X138.945 Y107.761 E.02421
G1 X138.894 Y106.99 E.02421
G1 X138.878 Y106.218 E.02421
G1 X138.894 Y105.446 E.02421
G1 X138.945 Y104.676 E.02421
G1 X139.028 Y103.908 E.02421
G1 X139.145 Y103.145 E.02421
G1 X139.294 Y102.387 E.02421
G1 X139.476 Y101.637 E.02421
G1 X139.691 Y100.895 E.02421
G1 X139.937 Y100.163 E.02421
G1 X140.215 Y99.443 E.02421
G1 X140.524 Y98.735 E.02421
G1 X140.863 Y98.041 E.02421
G1 X141.231 Y97.363 E.02421
G1 X141.629 Y96.702 E.02418
G1 X142.055 Y96.056 E.02425
G1 X142.396 Y95.589 E.01814
G1 X142.306 Y94.619 E.03052
G1 X142.286 Y93.994 E.01961
G1 X142.293 Y93.369 E.01961
G1 X142.326 Y92.745 E.01961
G1 X142.387 Y92.122 E.01961
G1 X142.475 Y91.503 E.01961
G1 X142.589 Y90.888 E.01961
G1 X142.73 Y90.279 E.01961
G1 X142.897 Y89.677 E.01961
G1 X143.09 Y89.082 E.01961
G1 X143.309 Y88.496 E.01961
G1 X143.553 Y87.92 E.01961
G1 X143.821 Y87.355 E.01961
G1 X144.114 Y86.803 E.01961
G1 X144.431 Y86.264 E.01961
G1 X144.77 Y85.738 E.01961
G1 X145.132 Y85.229 E.01961
G1 X145.516 Y84.735 E.01961
G1 X145.922 Y84.257 E.01965
G1 X146.406 Y83.739 E.02225
G1 X147.249 Y82.943 E.03633
G1 X147.735 Y82.539 E.01984
G1 X148.302 Y82.112 E.02225
G1 X149.269 Y81.474 E.03633
G1 X149.817 Y81.16 E.01979
G1 X150.373 Y80.873 E.01961
G1 X150.942 Y80.61 E.01965
G1 X151.599 Y80.343 E.02225
G1 X152.698 Y79.975 E.03633
G1 X153.308 Y79.813 E.01979
G1 X153.919 Y79.678 E.01961
G1 X154.536 Y79.57 E.01965
G1 X155.24 Y79.482 E.02225
G1 X156.396 Y79.408 E.03633
G1 X157.028 Y79.408 E.01979
G1 X157.652 Y79.435 E.01961
G1 X158.277 Y79.489 E.01965
G1 X158.98 Y79.585 E.02225
G1 X160.116 Y79.811 E.03633
G1 X160.726 Y79.973 E.01979
G1 X161.323 Y80.16 E.01961
G1 X161.911 Y80.373 E.01961
G1 X162.49 Y80.61 E.01961
G1 X163.057 Y80.873 E.01961
G1 X163.613 Y81.16 E.01961
G1 X164.155 Y81.471 E.01961
G1 X164.684 Y81.805 E.01961
G1 X165.198 Y82.161 E.01961
G1 X165.696 Y82.54 E.01961
G1 X166.177 Y82.94 E.01961
G1 X166.64 Y83.36 E.01961
G1 X167.084 Y83.799 E.01961
G1 X167.509 Y84.258 E.01961
G1 X167.914 Y84.735 E.01961
G1 X168.298 Y85.229 E.01961
G1 X168.66 Y85.738 E.01961
G1 X168.999 Y86.264 E.01961
G1 X169.316 Y86.803 E.01961
G1 X169.609 Y87.355 E.01961
G1 X169.877 Y87.92 E.01961
G1 X170.121 Y88.496 E.01961
G1 X170.34 Y89.082 E.01961
G1 X170.533 Y89.677 E.01961
G1 X170.7 Y90.279 E.01961
G1 X170.841 Y90.888 E.01961
G1 X170.955 Y91.503 E.01961
G1 X171.043 Y92.122 E.01961
G1 X171.104 Y92.745 E.01961
G1 X171.137 Y93.369 E.01961
G1 X171.144 Y93.994 E.01961
G1 X171.124 Y94.619 E.01961
G1 X171.033 Y95.592 E.03064
G1 X171.594 Y96.38 E.03031
G1 X172.197 Y97.36 E.03607
G1 X172.567 Y98.041 E.02431
G1 X172.906 Y98.735 E.02421
G1 X173.215 Y99.443 E.02421
G1 X173.493 Y100.163 E.02421
G1 X173.739 Y100.895 E.02421
G1 X173.954 Y101.637 E.02421
G1 X174.136 Y102.387 E.02421
G1 X174.285 Y103.145 E.02421
G1 X174.402 Y103.908 E.02421
G1 X174.485 Y104.676 E.02421
G1 X174.536 Y105.446 E.02421
G1 X174.552 Y106.218 E.02421
G1 X174.536 Y106.99 E.02421
G1 X174.485 Y107.761 E.02421
G1 X174.402 Y108.529 E.02421
G1 X174.285 Y109.292 E.02421
G1 X174.136 Y110.05 E.02421
G1 X173.954 Y110.8 E.02421
G1 X173.739 Y111.542 E.02421
G1 X173.493 Y112.274 E.02421
G1 X173.215 Y112.994 E.02421
G1 X172.906 Y113.702 E.02421
G1 X172.567 Y114.396 E.02421
G1 X172.199 Y115.074 E.02421
G1 X171.801 Y115.735 E.02418
G1 X171.375 Y116.38 E.02425
G1 X171.034 Y116.848 E.01814
G1 X171.124 Y117.817 E.03052
G1 X171.144 Y118.442 E.01961
G1 X171.137 Y119.068 E.01961
G1 X171.104 Y119.692 E.01961
G1 X171.043 Y120.314 E.01961
G1 X170.955 Y120.934 E.01961
G1 X170.841 Y121.548 E.01961
G1 X170.7 Y122.158 E.01961
G1 X170.533 Y122.76 E.01961
G1 X170.34 Y123.355 E.01961
G1 X170.121 Y123.941 E.01961
G1 X169.877 Y124.517 E.01961
G1 X169.609 Y125.081 E.01961
G1 X169.316 Y125.634 E.01961
