; generated by PrusaSlicer 2.4.2+win64 on 2023-02-03 at 10:16:32 UTC

; 

; external perimeters extrusion width = 0.45mm
; perimeters extrusion width = 0.45mm
; infill extrusion width = 0.45mm
; solid infill extrusion width = 0.45mm
; top infill extrusion width = 0.40mm
; support material extrusion width = 0.35mm
; first layer extrusion width = 0.42mm

M73 P0 R112
M73 Q0 S113
M201 X1000 Y1000 Z200 E5000 ; sets maximum accelerations, mm/sec^2
M203 X200 Y200 Z12 E120 ; sets maximum feedrates, mm / sec
M204 P1250 R1250 T1250 ; sets acceleration (P, T) and retract acceleration (R), mm/sec^2
M205 X8.00 Y8.00 Z0.40 E4.50 ; sets the jerk limits, mm/sec
M205 S0 T0 ; sets the minimum extruding and travel feed rate, mm/sec
M107
;TYPE:Custom
M862.3 P "MK3S" ; printer model check
M862.1 P0.4 ; nozzle diameter check
M115 U3.10.1 ; tell printer latest fw version
G90 ; use absolute coordinates
M83 ; extruder relative mode
M104 S215 ; set extruder temp
M140 S60 ; set bed temp
M190 S60 ; wait for bed temp
M109 S215 ; wait for extruder temp
G28 W ; home all without mesh bed level
G80 ; mesh bed leveling
G1 Z0.2 F720
G1 Y-3 F1000 ; go outside print area
G92 E0
G1 X60 E9 F1000 ; intro line
G1 X100 E12.5 F1000 ; intro line
G92 E0
M221 S95

; Don't change E values below. Excessive value can damage the printer.
M907 E430 ; set extruder motor current
G21 ; set units to millimeters
G90 ; use absolute coordinates
M83 ; use relative distances for extrusion
M900 K0.05 ; Filament gcode LA 1.5
M900 K30 ; Filament gcode LA 1.0
M107
;LAYER_CHANGE
;Z:0.2
;HEIGHT:0.2
;BEFORE_LAYER_CHANGE
G92 E0.0
;0.2


G1 E-.8 F2100
G1 Z.4 F720
;AFTER_LAYER_CHANGE
;0.2
G1 X85.449 Y113.741 F10800
G1 Z.2 F720
G1 E.8 F2100
M204 S800
;TYPE:Skirt/Brim
;WIDTH:0.42
G1 F1200
G1 X86.389 Y113.547 E.03008
G1 X143.653 Y113.547 E1.7955
G1 X144.703 Y113.792 E.0338
G1 X150.681 Y116.735 E.20892
G1 X151.681 Y117.664 E.04278
G1 X152.008 Y118.868 E.03912
G1 X152.008 Y144.71 E.81027
G1 X151.617 Y146.017 E.04278
G1 X150.681 Y146.843 E.03912
G1 X144.703 Y149.786 E.20892
G1 X143.653 Y150.031 E.0338
G1 X86.389 Y150.031 E1.7955
G1 X85.082 Y149.639 E.04278
G1 X84.205 Y148.593 E.04278
G1 X84.012 Y147.654 E.03008
G1 X84.012 Y115.924 E.99485
G1 X84.403 Y114.617 E.04278
G1 X85.403 Y113.779 E.0409
M204 S1000
; printing object TLG_BA 1.stl id:0 copy 0
;WIPE_START
G1 F8640
G1 X86.389 Y113.547 E-.23384
G1 X88.667 Y113.547 E-.52616
;WIPE_END
G1 E-.04 F2100
G1 Z.6 F720
G1 X141.126 Y118.868 F10800
G1 Z.2 F720
G1 E.8 F2100
M204 S800
;TYPE:Support material interface
;WIDTH:0.35
G1 F1200
G1 X141.017 Y118.868 E.00279
G1 X141.017 Y144.71 E.65986
G1 X141.28 Y144.71 E.00671
G1 X141.28 Y118.868 E.65986
G1 X141.787 Y118.868 E.01295
G1 X141.787 Y144.71 E.65986
G1 X142.294 Y144.71 E.01295
G1 X142.294 Y118.868 E.65986
G1 X142.801 Y118.868 E.01295
G1 X142.801 Y144.71 E.65986
G1 X143.308 Y144.71 E.01295
G1 X143.308 Y118.868 E.65986
G1 X143.815 Y118.868 E.01295
G1 X143.815 Y123.481 E.1178
G1 X143.773 Y123.525 E.00156
G1 X143.773 Y129.964 E.16441
G1 X143.815 Y130.006 E.00152
M73 Q0 S112
G1 X143.815 Y133.571 E.09103
G1 X143.773 Y133.613 E.00152
G1 X143.773 Y140.052 E.16441
G1 X143.815 Y140.097 E.00156
G1 X143.815 Y144.71 E.1178
G1 X144.322 Y144.71 E.01295
G1 X144.322 Y140.315 E.11224
G1 X144.829 Y140.337 E.01296
G1 X144.829 Y144.71 E.11167
G1 X145.336 Y144.71 E.01295
G1 X145.336 Y140.347 E.11141
G1 X145.844 Y140.348 E.01295
G1 X145.844 Y144.71 E.11139
G1 X146.351 Y144.71 E.01295
G1 X146.351 Y140.087 E.11804
G1 X146.858 Y139.603 E.0179
G1 X146.858 Y144.71 E.1304
G1 X147.365 Y144.71 E.01295
G1 X147.365 Y139.062 E.14421
G1 X147.872 Y138.454 E.02023
G1 X147.872 Y144.71 E.15976
G1 X148.379 Y144.71 E.01295
G1 X148.379 Y137.754 E.17763
G1 X148.81 Y137.061 E.02083
M204 S1000
G1 X149.047 Y136.628 F10800
M204 S800
G1 F1200
G1 X148.886 Y136.927 E.00868
G1 X148.886 Y144.71 E.19872
G1 X149.393 Y144.71 E.01295
G1 X149.393 Y136.096 E.21995
G1 X149.631 Y136.096 E.00608
G1 X149.631 Y136.558 E.01179
M204 S1000
;WIPE_START
G1 F8640
G1 X149.631 Y136.096 E-.10657
G1 X149.393 Y136.096 E-.05498
G1 X149.393 Y138.688 E-.59845
;WIPE_END
G1 E-.04 F2100
G1 Z.6 F720
G1 X144.983 Y133.365 F10800
G1 Z.2 F720
G1 E.8 F2100
M204 S800
G1 F1200
G1 X145.324 Y133.365 E.00871
G1 X145.324 Y130.212 E.08051
G1 X144.829 Y130.212 E.01263
G1 X144.829 Y133.365 E.08051
G1 X144.322 Y133.365 E.01295
G1 X144.322 Y130.212 E.08051
G1 X144.021 Y130.212 E.00769
G1 X143.924 Y130.115 E.00352
M204 S1000
;WIPE_START
G1 F8640
G1 X144.021 Y130.212 E-.03183
G1 X144.322 Y130.212 E-.06951
G1 X144.322 Y133.065 E-.65866
;WIPE_END
G1 E-.04 F2100
G1 Z.6 F720
G1 X149.631 Y119.329 F10800
G1 Z.2 F720
G1 E.8 F2100
M204 S800
G1 F1200
G1 X149.631 Y118.868 E.01179
G1 X149.393 Y118.868 E.00608
G1 X149.393 Y127.482 E.21995
G1 X149.306 Y127.482 E.00223
G1 X148.886 Y126.65 E.02378
G1 X148.886 Y118.868 E.19872
G1 X148.379 Y118.868 E.01295
G1 X148.379 Y125.824 E.17762
G1 X147.872 Y125.124 E.02207
G1 X147.872 Y118.868 E.15976
G1 X147.365 Y118.868 E.01295
G1 X147.365 Y124.515 E.14421
G1 X146.858 Y123.975 E.01893
G1 X146.858 Y118.868 E.1304
G1 X146.351 Y118.868 E.01295
G1 X146.351 Y123.49 E.11804
G1 X146.118 Y123.284 E.00793
G1 X145.976 Y123.231 E.00388
G1 X145.844 Y123.23 E.00339
G1 X145.844 Y118.868 E.11139
G1 X145.336 Y118.868 E.01295
G1 X145.336 Y123.231 E.11141
G1 X144.829 Y123.241 E.01295
G1 X144.829 Y118.868 E.11167
G1 X144.322 Y118.868 E.01295
G1 X144.322 Y123.263 E.11224
G1 X144.005 Y123.28 E.00811
G1 X143.921 Y123.369 E.00314
M204 S1000
;WIPE_START
G1 F8640
G1 X144.005 Y123.28 E-.02836
G1 X144.322 Y123.263 E-.0733
G1 X144.322 Y120.412 E-.65833
;WIPE_END
G1 E-.04 F2100
G1 Z.6 F720
G1 X143.653 Y118.504 F10800
G1 Z.2 F720
G1 E.8 F2100
M204 S800
;TYPE:Support material
;WIDTH:0.42
G1 F1200
G1 X140.653 Y118.504 E.09406
G1 X140.653 Y145.074 E.83308
G1 X143.653 Y145.074 E.09406
G1 X143.653 Y147.654 E.08089
G1 X86.389 Y147.654 E1.7955
G1 X86.389 Y115.924 E.99485
G1 X143.653 Y115.924 E1.7955
G1 X143.653 Y118.447 E.07911
M204 S1000
;WIPE_START
G1 F8640
G1 X143.653 Y115.924 E-.58262
G1 X142.885 Y115.924 E-.17738
;WIPE_END
G1 E-.04 F2100
G1 Z.6 F720
G1 X143.179 Y147.484 F10800
G1 Z.2 F720
G1 E.8 F2100
M204 S800
G1 F1200
G1 X143.179 Y145.413 E.06493
G1 X142.76 Y145.413 E.01314
G1 X142.76 Y147.314 E.05961
G1 X142.341 Y147.314 E.01314
G1 X142.341 Y145.413 E.05961
G1 X141.922 Y145.413 E.01314
G1 X141.922 Y147.314 E.05961
G1 X141.503 Y147.314 E.01314
G1 X141.503 Y145.413 E.05961
G1 X141.084 Y145.413 E.01314
G1 X141.084 Y147.314 E.05961
G1 X140.665 Y147.314 E.01314
G1 X140.665 Y145.413 E.05961
G1 X140.314 Y145.413 E.01101
G1 X140.314 Y123.021 E.70208
G1 X140.314 Y118.165 E.15227
G1 X140.665 Y118.165 E.01101
G1 X140.665 Y116.264 E.05961
G1 X141.084 Y116.264 E.01314
G1 X141.084 Y118.165 E.05961
G1 X141.503 Y118.165 E.01314
G1 X141.503 Y116.264 E.05961
G1 X141.922 Y116.264 E.01314
G1 X141.922 Y118.165 E.05961
G1 X142.341 Y118.165 E.01314
G1 X142.341 Y116.264 E.05961
G1 X142.76 Y116.264 E.01314
G1 X142.76 Y118.165 E.05961
G1 X143.179 Y118.165 E.01314
G1 X143.179 Y116.094 E.06493
M204 S1000
;WIPE_START
G1 F8640
G1 X143.179 Y118.165 E-.47814
G1 X142.76 Y118.165 E-.09674
G1 X142.76 Y117.363 E-.18512
;WIPE_END
G1 E-.04 F2100
G1 Z.6 F720
G1 X140.246 Y147.484 F10800
G1 Z.2 F720
M73 P0 R111
G1 E.8 F2100
M204 S800
G1 F1200
G1 X140.246 Y116.264 E.97889
G1 X139.827 Y116.264 E.01314
G1 X139.827 Y147.314 E.97357
G1 X139.408 Y147.314 E.01314
G1 X139.408 Y116.264 E.97357
G1 X138.989 Y116.264 E.01314
G1 X138.989 Y147.314 E.97357
G1 X138.57 Y147.314 E.01314
G1 X138.57 Y116.264 E.97357
G1 X138.151 Y116.264 E.01314
G1 X138.151 Y147.314 E.97357
G1 X137.732 Y147.314 E.01314
G1 X137.732 Y116.264 E.97357
G1 X137.313 Y116.264 E.01314
G1 X137.313 Y147.314 E.97357
G1 X136.894 Y147.314 E.01314
G1 X136.894 Y116.264 E.97357
G1 X136.475 Y116.264 E.01314
G1 X136.475 Y147.314 E.97357
G1 X136.056 Y147.314 E.01314
G1 X136.056 Y116.264 E.97357
G1 X135.637 Y116.264 E.01314
M73 P1 R111
M73 Q1 S112
G1 X135.637 Y147.314 E.97357
G1 X135.218 Y147.314 E.01314
G1 X135.218 Y116.264 E.97357
G1 X134.799 Y116.264 E.01314
G1 X134.799 Y147.314 E.97357
G1 X134.38 Y147.314 E.01314
G1 X134.38 Y116.264 E.97357
G1 X133.961 Y116.264 E.01314
G1 X133.961 Y147.314 E.97357
G1 X133.542 Y147.314 E.01314
G1 X133.542 Y116.264 E.97357
G1 X133.123 Y116.264 E.01314
G1 X133.123 Y147.314 E.97357
G1 X132.704 Y147.314 E.01314
G1 X132.704 Y116.264 E.97357
G1 X132.286 Y116.264 E.01314
G1 X132.286 Y147.314 E.97357
G1 X131.867 Y147.314 E.01314
G1 X131.867 Y116.264 E.97357
G1 X131.448 Y116.264 E.01314
G1 X131.448 Y147.314 E.97357
G1 X131.029 Y147.314 E.01314
G1 X131.029 Y116.264 E.97357
G1 X130.61 Y116.264 E.01314
M73 Q1 S111
G1 X130.61 Y147.314 E.97357
G1 X130.191 Y147.314 E.01314
G1 X130.191 Y116.264 E.97357
G1 X129.772 Y116.264 E.01314
G1 X129.772 Y147.314 E.97357
G1 X129.353 Y147.314 E.01314
G1 X129.353 Y116.264 E.97357
G1 X128.934 Y116.264 E.01314
G1 X128.934 Y147.314 E.97357
G1 X128.515 Y147.314 E.01314
G1 X128.515 Y116.264 E.97357
G1 X128.096 Y116.264 E.01314
G1 X128.096 Y147.314 E.97357
G1 X127.677 Y147.314 E.01314
G1 X127.677 Y116.264 E.97357
G1 X127.258 Y116.264 E.01314
G1 X127.258 Y147.314 E.97357
G1 X126.839 Y147.314 E.01314
G1 X126.839 Y116.264 E.97357
G1 X126.42 Y116.264 E.01314
G1 X126.42 Y147.314 E.97357
G1 X126.001 Y147.314 E.01314
G1 X126.001 Y116.264 E.97357
G1 X125.582 Y116.264 E.01314
G1 X125.582 Y147.314 E.97357
G1 X125.163 Y147.314 E.01314
G1 X125.163 Y116.264 E.97357
G1 X124.744 Y116.264 E.01314
G1 X124.744 Y147.314 E.97357
G1 X124.325 Y147.314 E.01314
M73 P1 R110
G1 X124.325 Y116.264 E.97357
G1 X123.906 Y116.264 E.01314
G1 X123.906 Y147.314 E.97357
G1 X123.487 Y147.314 E.01314
G1 X123.487 Y116.264 E.97357
G1 X123.068 Y116.264 E.01314
G1 X123.068 Y147.314 E.97357
G1 X122.649 Y147.314 E.01314
G1 X122.649 Y116.264 E.97357
G1 X122.23 Y116.264 E.01314
G1 X122.23 Y147.314 E.97357
G1 X121.811 Y147.314 E.01314
G1 X121.811 Y116.264 E.97357
G1 X121.392 Y116.264 E.01314
G1 X121.392 Y147.314 E.97357
G1 X120.973 Y147.314 E.01314
G1 X120.973 Y116.264 E.97357
G1 X120.554 Y116.264 E.01314
G1 X120.554 Y147.314 E.97357
G1 X120.135 Y147.314 E.01314
G1 X120.135 Y116.264 E.97357
G1 X119.716 Y116.264 E.01314
G1 X119.716 Y147.314 E.97357
G1 X119.297 Y147.314 E.01314
G1 X119.297 Y116.264 E.97357
G1 X118.878 Y116.264 E.01314
G1 X118.878 Y147.314 E.97357
G1 X118.459 Y147.314 E.01314
G1 X118.459 Y116.264 E.97357
G1 X118.04 Y116.264 E.01314
G1 X118.04 Y147.314 E.97357
G1 X117.621 Y147.314 E.01314
M73 P2 R110
M73 Q2 S111
G1 X117.621 Y116.264 E.97357
G1 X117.202 Y116.264 E.01314
G1 X117.202 Y147.314 E.97357
G1 X116.783 Y147.314 E.01314
G1 X116.783 Y116.264 E.97357
G1 X116.364 Y116.264 E.01314
G1 X116.364 Y147.314 E.97357
G1 X115.945 Y147.314 E.01314
G1 X115.945 Y116.264 E.97357
G1 X115.526 Y116.264 E.01314
G1 X115.526 Y147.314 E.97357
G1 X115.107 Y147.314 E.01314
G1 X115.107 Y116.264 E.97357
G1 X114.688 Y116.264 E.01314
M73 Q2 S110
G1 X114.688 Y147.314 E.97357
G1 X114.27 Y147.314 E.01314
G1 X114.27 Y116.264 E.97357
G1 X113.851 Y116.264 E.01314
G1 X113.851 Y147.314 E.97357
G1 X113.432 Y147.314 E.01314
G1 X113.432 Y116.264 E.97357
G1 X113.013 Y116.264 E.01314
G1 X113.013 Y147.314 E.97357
G1 X112.594 Y147.314 E.01314
G1 X112.594 Y116.264 E.97357
G1 X112.175 Y116.264 E.01314
G1 X112.175 Y147.314 E.97357
G1 X111.756 Y147.314 E.01314
G1 X111.756 Y116.264 E.97357
G1 X111.337 Y116.264 E.01314
G1 X111.337 Y147.314 E.97357
G1 X110.918 Y147.314 E.01314
G1 X110.918 Y116.264 E.97357
G1 X110.499 Y116.264 E.01314
G1 X110.499 Y147.314 E.97357
G1 X110.08 Y147.314 E.01314
G1 X110.08 Y116.264 E.97357
G1 X109.661 Y116.264 E.01314
G1 X109.661 Y147.314 E.97357
G1 X109.242 Y147.314 E.01314
G1 X109.242 Y116.264 E.97357
G1 X108.823 Y116.264 E.01314
G1 X108.823 Y147.314 E.97357
G1 X108.404 Y147.314 E.01314
M73 P2 R109
G1 X108.404 Y116.264 E.97357
G1 X107.985 Y116.264 E.01314
G1 X107.985 Y147.314 E.97357
G1 X107.566 Y147.314 E.01314
G1 X107.566 Y116.264 E.97357
G1 X107.147 Y116.264 E.01314
G1 X107.147 Y147.314 E.97357
G1 X106.728 Y147.314 E.01314
G1 X106.728 Y116.264 E.97357
G1 X106.309 Y116.264 E.01314
G1 X106.309 Y147.314 E.97357
G1 X105.89 Y147.314 E.01314
G1 X105.89 Y116.264 E.97357
G1 X105.471 Y116.264 E.01314
G1 X105.471 Y147.314 E.97357
G1 X105.052 Y147.314 E.01314
G1 X105.052 Y116.264 E.97357
G1 X104.633 Y116.264 E.01314
G1 X104.633 Y147.314 E.97357
G1 X104.214 Y147.314 E.01314
G1 X104.214 Y116.264 E.97357
G1 X103.795 Y116.264 E.01314
G1 X103.795 Y147.314 E.97357
G1 X103.376 Y147.314 E.01314
G1 X103.376 Y116.264 E.97357
G1 X102.957 Y116.264 E.01314
G1 X102.957 Y147.314 E.97357
G1 X102.538 Y147.314 E.01314
G1 X102.538 Y116.264 E.97357
G1 X102.119 Y116.264 E.01314
G1 X102.119 Y147.314 E.97357
G1 X101.7 Y147.314 E.01314
G1 X101.7 Y116.264 E.97357
G1 X101.281 Y116.264 E.01314
G1 X101.281 Y147.314 E.97357
G1 X100.862 Y147.314 E.01314
G1 X100.862 Y116.264 E.97357
G1 X100.443 Y116.264 E.01314
G1 X100.443 Y147.314 E.97357
G1 X100.024 Y147.314 E.01314
M73 P3 R109
M73 Q3 S110
G1 X100.024 Y116.264 E.97357
G1 X99.605 Y116.264 E.01314
G1 X99.605 Y147.314 E.97357
G1 X99.186 Y147.314 E.01314
M73 Q3 S109
G1 X99.186 Y116.264 E.97357
G1 X98.767 Y116.264 E.01314
G1 X98.767 Y147.314 E.97357
G1 X98.348 Y147.314 E.01314
G1 X98.348 Y116.264 E.97357
G1 X97.929 Y116.264 E.01314
G1 X97.929 Y147.314 E.97357
G1 X97.51 Y147.314 E.01314
G1 X97.51 Y116.264 E.97357
G1 X97.091 Y116.264 E.01314
G1 X97.091 Y147.314 E.97357
G1 X96.672 Y147.314 E.01314
G1 X96.672 Y116.264 E.97357
G1 X96.253 Y116.264 E.01314
G1 X96.253 Y147.314 E.97357
G1 X95.835 Y147.314 E.01314
G1 X95.835 Y116.264 E.97357
G1 X95.416 Y116.264 E.01314
G1 X95.416 Y147.314 E.97357
G1 X94.997 Y147.314 E.01314
G1 X94.997 Y116.264 E.97357
G1 X94.578 Y116.264 E.01314
G1 X94.578 Y147.314 E.97357
G1 X94.159 Y147.314 E.01314
G1 X94.159 Y116.264 E.97357
G1 X93.74 Y116.264 E.01314
G1 X93.74 Y147.314 E.97357
G1 X93.321 Y147.314 E.01314
G1 X93.321 Y116.264 E.97357
G1 X92.902 Y116.264 E.01314
G1 X92.902 Y147.314 E.97357
G1 X92.483 Y147.314 E.01314
M73 P3 R108
G1 X92.483 Y116.264 E.97357
G1 X92.064 Y116.264 E.01314
G1 X92.064 Y147.314 E.97357
G1 X91.645 Y147.314 E.01314
G1 X91.645 Y116.264 E.97357
G1 X91.226 Y116.264 E.01314
G1 X91.226 Y147.314 E.97357
G1 X90.807 Y147.314 E.01314
G1 X90.807 Y116.264 E.97357
G1 X90.388 Y116.264 E.01314
G1 X90.388 Y147.314 E.97357
G1 X89.969 Y147.314 E.01314
G1 X89.969 Y116.264 E.97357
G1 X89.55 Y116.264 E.01314
G1 X89.55 Y147.314 E.97357
G1 X89.131 Y147.314 E.01314
G1 X89.131 Y116.264 E.97357
G1 X88.712 Y116.264 E.01314
G1 X88.712 Y147.314 E.97357
G1 X88.293 Y147.314 E.01314
G1 X88.293 Y116.264 E.97357
G1 X87.874 Y116.264 E.01314
G1 X87.874 Y147.314 E.97357
G1 X87.455 Y147.314 E.01314
G1 X87.455 Y116.264 E.97357
G1 X87.036 Y116.264 E.01314
G1 X87.036 Y147.484 E.97889
M204 S1000
;WIPE_START
G1 F8640
G1 X87.036 Y144.192 E-.76
;WIPE_END
G1 E-.04 F2100
G1 Z.6 F720
G1 X145.259 Y138.766 F10800
G1 Z.2 F720
G1 E.8 F2100
M204 S800
;TYPE:Perimeter
G1 F1200
G1 X145.259 Y134.576 E.13139
G1 X147.845 Y134.577 E.08107
G1 X148.286 Y135.04 E.02007
G1 X147.936 Y135.854 E.02778
G1 X147.585 Y136.511 E.02336
G1 X147.04 Y137.351 E.03139
G1 X146.566 Y137.966 E.02435
G1 X146.229 Y138.354 E.0161
G1 X145.838 Y138.758 E.01764
G1 X145.319 Y138.766 E.01627
M204 S1000
G1 X144.882 Y139.149 F10800
M204 S800
;TYPE:External perimeter
G1 F1200
G1 X144.882 Y134.199 E.1552
G1 X148.006 Y134.199 E.09796
G1 X148.721 Y134.95 E.03248
G1 X148.584 Y135.322 E.01244
G1 X148.275 Y136.02 E.02391
G1 X147.912 Y136.699 E.02416
G1 X147.641 Y137.14 E.01624
G1 X147.345 Y137.573 E.01642
G1 X146.858 Y138.205 E.02503
G1 X146.508 Y138.609 E.01677
G1 X146 Y139.133 E.02288
G1 X144.942 Y139.148 E.03317
M204 S1000
G1 X145.044 Y138.783 F10800
;WIPE_START
G1 F8640
G1 X144.902 Y135.857 E-.76
;WIPE_END
G1 E-.04 F2100
G1 Z.6 F720
G1 X147.017 Y134.689 F10800
G1 Z.2 F720
G1 E.8 F2100
M204 S800
;TYPE:Solid infill
;WIDTH:0.423058
G1 F1200
G1 X147.795 Y135.468 E.03478
G1 X147.625 Y135.836 E.01281
G1 X146.649 Y134.859 E.04366
G1 X146.111 Y134.859 E.017
G1 X147.438 Y136.186 E.05932
