; generated by PrusaSlicer 2.4.2+win64 on 2023-03-02 at 15:26:29 UTC

; 

; external perimeters extrusion width = 0.45mm
; perimeters extrusion width = 0.45mm
; infill extrusion width = 0.45mm
; solid infill extrusion width = 0.45mm
; top infill extrusion width = 0.40mm
; first layer extrusion width = 0.42mm

M73 P0 R40
M73 Q0 S40
M201 X1000 Y1000 Z200 E5000 ; sets maximum accelerations, mm/sec^2
M203 X200 Y200 Z12 E120 ; sets maximum feedrates, mm / sec
M204 P1250 R1250 T1250 ; sets acceleration (P, T) and retract acceleration (R), mm/sec^2
M205 X8.00 Y8.00 Z0.40 E4.50 ; sets the jerk limits, mm/sec
M205 S0 T0 ; sets the minimum extruding and travel feed rate, mm/sec
M107
;TYPE:Custom
M862.3 P "MK3S" ; printer model check
M862.1 P0.4 ; nozzle diameter check
M115 U3.10.1 ; tell printer latest fw version
G90 ; use absolute coordinates
M83 ; extruder relative mode
M104 S215 ; set extruder temp
M140 S55 ; set bed temp
M190 S55 ; wait for bed temp
M109 S215 ; wait for extruder temp
G28 W ; home all without mesh bed level
G80 ; mesh bed leveling
G1 Z0.2 F720
G1 Y-3 F1000 ; go outside print area
G92 E0
G1 X60 E9 F1000 ; intro line
G1 X100 E12.5 F1000 ; intro line
G92 E0
M221 S95

; Don't change E values below. Excessive value can damage the printer.
M907 E430 ; set extruder motor current
G21 ; set units to millimeters
G90 ; use absolute coordinates
M83 ; use relative distances for extrusion
M900 K0.05 ; Filament gcode LA 1.5
M900 K30 ; Filament gcode LA 1.0
M107
;LAYER_CHANGE
;Z:0.2
;HEIGHT:0.2
;BEFORE_LAYER_CHANGE
G92 E0.0
;0.2


G1 E-.8 F2100
G1 Z.4 F720
;AFTER_LAYER_CHANGE
;0.2
G1 X118.035 Y92.583 F10800
G1 Z.2 F720
G1 E.8 F2100
M204 S800
;TYPE:Skirt/Brim
;WIDTH:0.42
G1 F1200
G1 X118.763 Y91.783 E.03391
G1 X119.385 Y91.366 E.02346
G1 X120.234 Y90.967 E.02942
G1 X121.116 Y90.767 E.02838
G1 X137.872 Y90.746 E.52534
G1 X138.54 Y90.817 E.02108
G1 X139.217 Y91.013 E.02208
G1 X139.877 Y91.328 E.02294
G1 X140.564 Y91.783 E.02582
G1 X141.471 Y92.94 E.04612
G1 X141.683 Y93.999 E.03384
G1 X141.684 Y116 E.68983
G1 X141.292 Y117.417 E.04612
G1 X140.566 Y118.216 E.03382
G1 X139.844 Y118.69 E.02708
G1 X138.941 Y119.083 E.03088
G1 X138.014 Y119.249 E.02952
G1 X121.33 Y119.249 E.52311
G1 X120.211 Y119.025 E.03581
G1 X119.015 Y118.398 E.04233
G1 X118.763 Y118.217 E.00973
G1 X117.855 Y117.061 E.04612
G1 X117.642 Y116 E.03391
G1 X117.642 Y94 E.68979
G1 X118.019 Y92.64 E.04424
M204 S1000
G1 X118.393 Y92.752 F10800
M204 S800
G1 F1200
G1 X118.411 Y92.693 E.00195
G1 X118.986 Y92.086 E.02623
G1 X119.705 Y91.617 E.0269
G1 X120.47 Y91.286 E.02615
G1 X121.278 Y91.131 E.02578
G1 X137.863 Y91.123 E.52003
G1 X138.496 Y91.192 E.01994
G1 X139.1 Y91.372 E.01976
G1 X140.34 Y92.086 E.04487
G1 X141.159 Y93.177 E.04278
G1 X141.306 Y93.999 E.02616
G1 X141.307 Y116 E.68983
G1 X140.916 Y117.307 E.04278
G1 X140.342 Y117.912 E.02615
G1 X139.513 Y118.44 E.03081
G1 X138.723 Y118.753 E.02665
G1 X137.907 Y118.876 E.02588
G1 X121.351 Y118.873 E.51908
G1 X120.244 Y118.635 E.03552
G1 X119.183 Y118.056 E.03789
G1 X118.986 Y117.914 E.0076
G1 X118.166 Y116.823 E.04278
G1 X118.019 Y116 E.02623
G1 X118.019 Y94 E.68979
G1 X118.376 Y92.81 E.03895
M204 S1000
; printing object TLG_BA 3.stl id:0 copy 0
;WIPE_START
G1 F8640
G1 X118.411 Y92.693 E-.0282
G1 X118.986 Y92.086 E-.19313
G1 X119.705 Y91.617 E-.19806
G1 X120.47 Y91.286 E-.19259
G1 X121.1 Y91.165 E-.14802
;WIPE_END
G1 E-.04 F2100
G1 Z.6 F720
G1 X121.763 Y94.687 F10800
G1 Z.2 F720
G1 E.8 F2100
M204 S800
;TYPE:Perimeter
G1 F1200
G1 X137.563 Y94.688 E.49538
G1 X137.561 Y98.27 E.1123
G1 X135.776 Y98.406 E.05614
G1 X135.776 Y111.593 E.41347
G1 X137.561 Y111.73 E.05613
G1 X137.563 Y115.313 E.11233
G1 X121.763 Y115.313 E.49538
G1 X121.763 Y94.747 E.64483
M204 S1000
G1 X121.386 Y94.33 F10800
M204 S800
;TYPE:External perimeter
M73 P0 R39
G1 F1200
G1 X121.531 Y94.31 E.00456
G1 X137.847 Y94.311 E.51158
G1 X137.94 Y94.326 E.00297
G1 X137.938 Y98.602 E.13407
G1 X137.826 Y98.628 E.00359
G1 X136.153 Y98.756 E.05262
G1 X136.153 Y111.244 E.39157
G1 X137.836 Y111.373 E.05294
M73 Q0 S39
G1 X137.938 Y111.397 E.00326
G1 X137.94 Y115.67 E.13397
G1 X137.796 Y115.69 E.00458
G1 X121.531 Y115.69 E.50998
G1 X121.386 Y115.67 E.00456
M73 Q1 S39
G1 X121.386 Y94.39 E.66723
M204 S1000
G1 X121.519 Y94.39 F10800
;WIPE_START
M73 P1 R39
G1 F8640
G1 X121.531 Y94.31 E-.03804
G1 X124.657 Y94.31 E-.72196
;WIPE_END
G1 E-.04 F2100
G1 Z.6 F720
G1 X136.68 Y94.801 F10800
G1 Z.2 F720
G1 E.8 F2100
M204 S800
;TYPE:Solid infill
;WIDTH:0.423355
G1 F1200
G1 X137.28 Y95.401 E.02681
G1 X137.279 Y95.938 E.01701
G1 X136.312 Y94.971 E.04328
G1 X135.774 Y94.971 E.01702
G1 X137.279 Y96.476 E.06733
G1 X137.279 Y97.014 E.01701
G1 X135.236 Y94.971 E.09139
G1 X134.698 Y94.971 E.01702
G1 X137.278 Y97.551 E.11545
G1 X137.278 Y98.008 E.01444
G1 X137.203 Y98.014 E.0024
G1 X134.16 Y94.971 E.13613
G1 X133.622 Y94.971 E.01702
G1 X136.703 Y98.052 E.13784
G1 X136.203 Y98.09 E.01586
G1 X133.084 Y94.971 E.13955
G1 X132.546 Y94.971 E.01702
G1 X135.703 Y98.128 E.14126
G1 X135.493 Y98.144 E.00668
G1 X135.493 Y98.456 E.00985
G1 X132.008 Y94.971 E.15592
G1 X131.47 Y94.971 E.01702
G1 X135.493 Y98.994 E.17999
G1 X135.493 Y99.532 E.01702
G1 X130.932 Y94.971 E.20406
G1 X130.393 Y94.971 E.01702
G1 X135.493 Y100.07 E.22813
G1 X135.493 Y100.608 E.01702
G1 X129.855 Y94.97 E.2522
G1 X129.317 Y94.97 E.01702
G1 X135.493 Y101.146 E.27627
G1 X135.493 Y101.684 E.01702
G1 X128.779 Y94.97 E.30034
G1 X128.241 Y94.97 E.01702
G1 X135.493 Y102.222 E.32441
G1 X135.493 Y102.76 E.01702
G1 X127.703 Y94.97 E.34848
G1 X127.165 Y94.97 E.01702
G1 X135.493 Y103.298 E.37255
G1 X135.493 Y103.836 E.01702
G1 X126.627 Y94.97 E.39662
G1 X126.089 Y94.97 E.01702
G1 X135.493 Y104.374 E.42069
G1 X135.493 Y104.912 E.01702
G1 X125.551 Y94.97 E.44476
G1 X125.013 Y94.97 E.01702
G1 X135.493 Y105.45 E.46883
G1 X135.493 Y105.988 E.01702
G1 X124.475 Y94.97 E.4929
G1 X123.937 Y94.97 E.01702
G1 X135.493 Y106.526 E.51697
G1 X135.493 Y107.064 E.01702
G1 X123.399 Y94.97 E.54105
G1 X122.861 Y94.97 E.01702
G1 X135.493 Y107.602 E.56512
G1 X135.493 Y108.14 E.01702
G1 X122.323 Y94.97 E.58919
G1 X122.046 Y94.97 E.00874
G1 X122.046 Y95.232 E.00828
G1 X135.493 Y108.678 E.60155
G1 X135.493 Y109.216 E.01702
G1 X122.046 Y95.77 E.60155
G1 X122.046 Y96.308 E.01702
G1 X135.493 Y109.754 E.60155
G1 X135.493 Y110.292 E.01702
G1 X122.046 Y96.846 E.60155
G1 X122.046 Y97.384 E.01702
G1 X135.663 Y111 E.60914
M204 S1000
;WIPE_START
G1 F8640
G1 X133.335 Y108.673 E-.76
;WIPE_END
G1 E-.04 F2100
G1 Z.6 F720
G1 X137.002 Y111.801 F10800
G1 Z.2 F720
G1 E.8 F2100
M204 S800
G1 F1200
G1 X137.278 Y112.077 E.01237
G1 X137.278 Y112.616 E.01703
G1 X136.419 Y111.756 E.03846
M204 S1000
;WIPE_START
G1 F8640
G1 X137.278 Y112.616 E-.2807
G1 X137.278 Y112.077 E-.12431
G1 X137.002 Y111.801 E-.0903
;WIPE_END
G1 E-.30469 F2100
G1 Z.6 F720
G1 X137.449 Y113.324 F10800
G1 Z.2 F720
G1 E.8 F2100
M204 S800
G1 F1200
G1 X136.02 Y111.896 E.06389
G1 X135.493 Y111.855 E.01674
G1 X135.493 Y111.368 E.01541
G1 X122.046 Y97.922 E.60155
G1 X122.046 Y98.46 E.01702
G1 X137.279 Y113.693 E.68146
G1 X137.28 Y114.231 E.01703
G1 X122.046 Y98.998 E.68148
G1 X122.046 Y99.536 E.01702
M73 P2 R39
M73 Q2 S39
G1 X137.28 Y114.769 E.68149
G1 X137.28 Y115.03 E.00825
G1 X137.003 Y115.03 E.00877
G1 X122.046 Y100.074 E.66909
G1 X122.046 Y100.612 E.01702
G1 X136.465 Y115.03 E.64502
G1 X135.927 Y115.03 E.01702
G1 X122.046 Y101.15 E.62096
G1 X122.046 Y101.688 E.01702
G1 X135.389 Y115.03 E.59689
G1 X134.851 Y115.03 E.01702
G1 X122.046 Y102.226 E.57282
G1 X122.046 Y102.764 E.01702
G1 X134.313 Y115.03 E.54875
G1 X133.775 Y115.03 E.01702
G1 X122.046 Y103.302 E.52468
G1 X122.046 Y103.84 E.01702
G1 X133.237 Y115.03 E.50061
G1 X132.699 Y115.03 E.01702
G1 X122.046 Y104.378 E.47654
G1 X122.046 Y104.916 E.01702
G1 X132.161 Y115.03 E.45247
G1 X131.623 Y115.03 E.01702
G1 X122.046 Y105.454 E.42841
G1 X122.046 Y105.992 E.01702
G1 X131.085 Y115.03 E.40434
G1 X130.546 Y115.03 E.01702
G1 X122.046 Y106.53 E.38027
G1 X122.046 Y107.068 E.01702
G1 X130.008 Y115.03 E.3562
G1 X129.47 Y115.03 E.01702
G1 X122.046 Y107.606 E.33213
G1 X122.046 Y108.144 E.01702
G1 X128.932 Y115.03 E.30806
G1 X128.394 Y115.03 E.01702
G1 X122.046 Y108.682 E.28399
G1 X122.046 Y109.22 E.01702
G1 X127.856 Y115.03 E.25992
G1 X127.318 Y115.03 E.01702
G1 X122.046 Y109.758 E.23585
G1 X122.046 Y110.296 E.01702
G1 X126.78 Y115.03 E.21179
G1 X126.242 Y115.03 E.01702
G1 X122.046 Y110.834 E.18772
G1 X122.046 Y111.372 E.01702
G1 X125.704 Y115.03 E.16365
G1 X125.166 Y115.03 E.01702
G1 X122.046 Y111.91 E.13958
G1 X122.046 Y112.448 E.01702
G1 X124.628 Y115.03 E.11551
G1 X124.09 Y115.03 E.01702
G1 X122.046 Y112.986 E.09144
G1 X122.046 Y113.524 E.01702
G1 X123.552 Y115.03 E.06737
G1 X123.014 Y115.03 E.01702
G1 X122.046 Y114.062 E.0433
G1 X122.046 Y114.6 E.01702
G1 X122.646 Y115.2 E.02683
M204 S1000
; stop printing object TLG_BA 3.stl id:0 copy 0
M106 S84.15
;LAYER_CHANGE
;Z:0.4
;HEIGHT:0.2
;BEFORE_LAYER_CHANGE
G92 E0.0
;0.4


;WIPE_START
G1 F8640
G1 X122.046 Y114.6 E-.19581
G1 X122.046 Y114.062 E-.12423
G1 X123.014 Y115.03 E-.31609
G1 X123.551 Y115.03 E-.12387
;WIPE_END
G1 E-.04 F2100
G1 Z.6 F720
;AFTER_LAYER_CHANGE
;0.4
M104 S205 ; set temperature
G1 X123.551 Y119.249 F10800
G1 Z.4 F720
G1 E.8 F2100
;TYPE:Skirt/Brim
;WIDTH:0.42
G1 F3000
G1 X121.33 Y119.249 E.06962
G1 X120.211 Y119.025 E.03581
G1 X119.015 Y118.398 E.04233
G1 X118.763 Y118.217 E.00973
G1 X117.855 Y117.061 E.04612
G1 X117.642 Y116 E.03391
G1 X117.642 Y94 E.68979
G1 X118.035 Y92.583 E.04612
G1 X118.763 Y91.783 E.03391
G1 X119.385 Y91.366 E.02346
G1 X120.234 Y90.967 E.02942
G1 X121.116 Y90.767 E.02838
G1 X137.872 Y90.746 E.52534
G1 X138.54 Y90.817 E.02108
G1 X139.217 Y91.013 E.02208
G1 X139.877 Y91.328 E.02294
G1 X140.564 Y91.783 E.02582
G1 X141.471 Y92.94 E.04612
G1 X141.683 Y93.999 E.03384
G1 X141.684 Y116 E.68983
G1 X141.292 Y117.417 E.04612
G1 X140.566 Y118.216 E.03382
G1 X139.844 Y118.69 E.02708
G1 X138.941 Y119.083 E.03088
G1 X138.014 Y119.249 E.02952
G1 X123.611 Y119.249 E.45161
G1 X123.611 Y118.873 F10800
G1 F3000
G1 X121.351 Y118.873 E.07085
G1 X120.244 Y118.635 E.03552
G1 X119.183 Y118.056 E.03789
G1 X118.986 Y117.914 E.0076
G1 X118.166 Y116.823 E.04278
G1 X118.019 Y116 E.02623
G1 X118.019 Y94 E.68979
G1 X118.411 Y92.693 E.04278
G1 X118.986 Y92.086 E.02623
G1 X119.705 Y91.617 E.0269
G1 X120.47 Y91.286 E.02615
G1 X121.278 Y91.131 E.02578
G1 X137.863 Y91.123 E.52003
G1 X138.496 Y91.192 E.01994
G1 X139.1 Y91.372 E.01976
G1 X140.34 Y92.086 E.04487
G1 X141.159 Y93.177 E.04278
G1 X141.306 Y93.999 E.02616
G1 X141.307 Y116 E.68983
G1 X140.916 Y117.307 E.04278
G1 X140.342 Y117.912 E.02615
G1 X139.513 Y118.44 E.03081
G1 X138.723 Y118.753 E.02665
G1 X137.907 Y118.876 E.02588
G1 X123.671 Y118.873 E.44635
; printing object TLG_BA 3.stl id:0 copy 0
;WIPE_START
G1 F8640
G1 X121.351 Y118.873 E-.53564
G1 X120.401 Y118.669 E-.22436
;WIPE_END
G1 E-.04 F2100
G1 Z.8 F720
G1 X136.033 Y98.733 F10800
G1 Z.4 F720
G1 E.8 F2100
M204 S800
;TYPE:Perimeter
;WIDTH:0.45
G1 F2700
G1 X136.033 Y111.267 E.42424
G1 X137.958 Y111.414 E.06536
G1 X138.076 Y111.463 E.00431
G1 X138.08 Y115.609 E.14033
G1 X137.915 Y115.657 E.00581
G1 X137.785 Y115.668 E.00441
G1 X121.541 Y115.668 E.54984
G1 X121.413 Y115.657 E.00434
M73 Q3 S39
G1 X121.246 Y115.608 E.00589
G1 X121.246 Y94.392 E.71813
G1 X121.413 Y94.343 E.00589
M73 P3 R39
G1 X121.541 Y94.332 E.00434
G1 X137.821 Y94.333 E.55106
G1 X138.044 Y94.378 E.0077
G1 X138.08 Y94.395 E.00134
G1 X138.076 Y98.537 E.1402
G1 X137.958 Y98.586 E.00431
G1 X136.092 Y98.729 E.06333
M204 S1000
G1 X136.44 Y99.111 F10800
M204 S800
;TYPE:External perimeter
G1 F1500
G1 X136.44 Y110.889 E.3987
G1 X138.055 Y111.013 E.05482
G1 X138.29 Y111.111 E.00863
G1 X138.482 Y111.228 E.00762
G1 X138.487 Y115.866 E.157
G1 X138.172 Y116.011 E.01172
G1 X137.983 Y116.059 E.00661
G1 X137.802 Y116.075 E.00615
G1 X121.524 Y116.075 E.55102
G1 X121.346 Y116.06 E.00605
G1 X121.161 Y116.013 E.00645
G1 X120.839 Y115.867 E.01196
G1 X120.839 Y94.133 E.73564
G1 X121.161 Y93.987 E.01196
G1 X121.346 Y93.94 E.00645
G1 X121.524 Y93.925 E.00604
G1 X137.844 Y93.926 E.55244
G1 X138.006 Y93.945 E.00551
G1 X138.189 Y93.995 E.00642
G1 X138.487 Y94.141 E.01123
G1 X138.482 Y98.772 E.15678
G1 X138.29 Y98.889 E.00762
G1 X138.055 Y98.987 E.00863
G1 X136.499 Y99.106 E.05279
M204 S1000
G1 X136.04 Y99.126 F10800
;WIPE_START
G1 F8640
G1 X136.483 Y102.397 E-.76
;WIPE_END
G1 E-.04 F2100
G1 Z.8 F720
G1 X137.11 Y115.546 F10800
G1 Z.4 F720
G1 E.8 F2100
;TYPE:Solid infill
;WIDTH:0.453346
G1 F4800
G1 X137.774 Y114.883 E.03201
G1 X137.773 Y114.303 E.01979
G1 X136.713 Y115.363 E.05115
G1 X136.133 Y115.363 E.01981
G1 X137.772 Y113.723 E.07914
G1 X137.772 Y113.143 E.01979
G1 X135.552 Y115.363 E.10713
G1 X134.972 Y115.363 E.01981
G1 X137.771 Y112.563 E.13511
G1 X137.771 Y111.983 E.01979
G1 X134.391 Y115.363 E.1631
G1 X133.811 Y115.363 E.01981
G1 X137.489 Y111.684 E.17753
G1 X136.95 Y111.643 E.01846
G1 X133.23 Y115.363 E.17952
G1 X132.65 Y115.363 E.01981
G1 X136.411 Y111.602 E.18151
G1 X135.872 Y111.561 E.01846
G1 X132.07 Y115.363 E.1835
G1 X131.489 Y115.363 E.01981
G1 X135.727 Y111.125 E.20454
G1 X135.727 Y110.544 E.01981
G1 X130.909 Y115.363 E.23256
G1 X130.328 Y115.363 E.01981
G1 X135.727 Y109.964 E.26057
G1 X135.727 Y109.383 E.01981
G1 X129.748 Y115.363 E.28858
G1 X129.167 Y115.363 E.01981
G1 X135.727 Y108.803 E.3166
G1 X135.727 Y108.222 E.01981
G1 X128.587 Y115.363 E.34461
G1 X128.007 Y115.363 E.01981
G1 X135.727 Y107.642 E.37262
G1 X135.727 Y107.062 E.01981
M73 P3 R38
G1 X127.426 Y115.363 E.40064
G1 X126.846 Y115.363 E.01981
G1 X135.727 Y106.481 E.42865
G1 X135.727 Y105.901 E.01981
G1 X126.265 Y115.363 E.45666
G1 X125.685 Y115.363 E.01981
G1 X135.727 Y105.32 E.48468
G1 X135.727 Y104.74 E.01981
G1 X125.104 Y115.363 E.51269
G1 X124.524 Y115.363 E.01981
G1 X135.727 Y104.159 E.5407
G1 X135.727 Y103.579 E.01981
G1 X123.944 Y115.363 E.56872
G1 X123.363 Y115.363 E.01981
G1 X135.727 Y102.999 E.59673
G1 X135.727 Y102.418 E.01981
G1 X122.783 Y115.363 E.62474
G1 X122.202 Y115.363 E.01981
M73 Q3 S38
G1 X135.727 Y101.838 E.65276
G1 X135.727 Y101.257 E.01981
G1 X121.622 Y115.363 E.68077
G1 X121.552 Y115.362 E.00239
G1 X121.552 Y114.852 E.01741
G1 X135.727 Y100.677 E.68415
G1 X135.727 Y100.096 E.01981
G1 X121.552 Y114.272 E.68415
G1 X121.552 Y113.691 E.01981
G1 X135.91 Y99.333 E.693
;WIPE_START
G1 F8640
G1 X133.583 Y101.66 E-.76
;WIPE_END
G1 E-.04 F2100
G1 Z.8 F720
G1 X137.31 Y98.513 F10800
G1 Z.4 F720
G1 E.8 F2100
G1 F4800
G1 X137.771 Y98.053 E.02221
G1 X137.771 Y97.472 E.01983
G1 X136.682 Y98.561 E.05257
;WIPE_START
G1 F8640
G1 X137.771 Y97.472 E-.3557
G1 X137.771 Y98.053 E-.13415
G1 X137.31 Y98.513 E-.15029
;WIPE_END
G1 E-.15985 F2100
G1 Z.8 F720
G1 X137.955 Y96.708 F10800
G1 Z.4 F720
G1 E.8 F2100
G1 F4800
G1 X136.252 Y98.41 E.08218
G1 X135.727 Y98.451 E.01797
G1 X135.727 Y98.935 E.01655
G1 X121.552 Y113.111 E.68415
G1 X121.552 Y112.531 E.01981
G1 X137.772 Y96.31 E.78286
G1 X137.773 Y95.729 E.01983
G1 X121.552 Y111.95 E.78288
G1 X121.552 Y111.37 E.01981
G1 X137.774 Y95.148 E.78291
G1 X137.774 Y94.638 E.01739
G1 X137.703 Y94.638 E.00243
G1 X121.552 Y110.789 E.77949
G1 X121.552 Y110.209 E.01981
G1 X137.122 Y94.638 E.75148
G1 X136.542 Y94.638 E.01981
G1 X121.552 Y109.628 E.72347
G1 X121.552 Y109.048 E.01981
G1 X135.962 Y94.638 E.69546
G1 X135.381 Y94.638 E.01981
G1 X121.552 Y108.468 E.66745
G1 X121.552 Y107.887 E.01981
G1 X134.801 Y94.638 E.63944
G1 X134.22 Y94.638 E.01981
G1 X121.552 Y107.307 E.61142
G1 X121.552 Y106.726 E.01981
G1 X133.64 Y94.638 E.58341
G1 X133.06 Y94.638 E.01981
G1 X121.552 Y106.146 E.5554
G1 X121.552 Y105.565 E.01981
G1 X132.479 Y94.638 E.52739
G1 X131.899 Y94.638 E.01981
G1 X121.552 Y104.985 E.49938
G1 X121.552 Y104.405 E.01981
G1 X131.318 Y94.638 E.47137
G1 X130.738 Y94.638 E.01981
G1 X121.552 Y103.824 E.44335
G1 X121.552 Y103.244 E.01981
G1 X130.158 Y94.638 E.41534
G1 X129.577 Y94.638 E.01981
G1 X121.552 Y102.663 E.38733
G1 X121.552 Y102.083 E.01981
G1 X128.997 Y94.638 E.35932
G1 X128.416 Y94.638 E.01981
G1 X121.552 Y101.502 E.33131
