; generated by PrusaSlicer 2.4.2+win64 on 2023-02-03 at 10:16:52 UTC

; 

; external perimeters extrusion width = 0.45mm
; perimeters extrusion width = 0.45mm
; infill extrusion width = 0.45mm
; solid infill extrusion width = 0.45mm
; top infill extrusion width = 0.40mm
; support material extrusion width = 0.35mm
; first layer extrusion width = 0.42mm

M73 P0 R31
M73 Q0 S32
M201 X1000 Y1000 Z200 E5000 ; sets maximum accelerations, mm/sec^2
M203 X200 Y200 Z12 E120 ; sets maximum feedrates, mm / sec
M204 P1250 R1250 T1250 ; sets acceleration (P, T) and retract acceleration (R), mm/sec^2
M205 X8.00 Y8.00 Z0.40 E4.50 ; sets the jerk limits, mm/sec
M205 S0 T0 ; sets the minimum extruding and travel feed rate, mm/sec
M107
;TYPE:Custom
M862.3 P "MK3S" ; printer model check
M862.1 P0.4 ; nozzle diameter check
M115 U3.10.1 ; tell printer latest fw version
G90 ; use absolute coordinates
M83 ; extruder relative mode
M104 S215 ; set extruder temp
M140 S60 ; set bed temp
M190 S60 ; wait for bed temp
M109 S215 ; wait for extruder temp
G28 W ; home all without mesh bed level
G80 ; mesh bed leveling
G1 Z0.2 F720
G1 Y-3 F1000 ; go outside print area
G92 E0
G1 X60 E9 F1000 ; intro line
G1 X100 E12.5 F1000 ; intro line
G92 E0
M221 S95

; Don't change E values below. Excessive value can damage the printer.
M907 E430 ; set extruder motor current
G21 ; set units to millimeters
G90 ; use absolute coordinates
M83 ; use relative distances for extrusion
M900 K0.05 ; Filament gcode LA 1.5
M900 K30 ; Filament gcode LA 1.0
M107
;LAYER_CHANGE
;Z:0.2
;HEIGHT:0.2
;BEFORE_LAYER_CHANGE
G92 E0.0
;0.2


M73 Q0 S31
G1 E-.8 F2100
G1 Z.4 F720
;AFTER_LAYER_CHANGE
;0.2
G1 X123.811 Y122.646 F10800
G1 Z.2 F720
G1 E.8 F2100
M204 S800
;TYPE:Skirt/Brim
;WIDTH:0.42
G1 F1200
G1 X124.281 Y122.172 E.02093
G1 X125.13 Y121.453 E.03488
G1 X126.14 Y120.746 E.03865
G1 X127.497 Y120.001 E.04855
G1 X128.523 Y119.57 E.03489
G1 X129.699 Y119.2 E.03865
G1 X130.786 Y118.964 E.03488
G1 X132.214 Y118.803 E.04506
G1 X133.438 Y118.79 E.03837
G1 X134.666 Y118.897 E.03865
G1 X135.76 Y119.096 E.03489
G1 X137.247 Y119.529 E.04855
G1 X138.277 Y119.95 E.03489
G1 X139.37 Y120.519 E.03865
G1 X140.306 Y121.121 E.03488
G1 X141.43 Y122.017 E.04506
G1 X142.304 Y122.873 E.03837
G1 X143.096 Y123.818 E.03865
G1 X143.73 Y124.732 E.03488
G1 X144.282 Y125.698 E.03489
G1 X144.905 Y127.115 E.04855
G1 X145.245 Y128.175 E.03489
G1 X145.512 Y129.378 E.03865
G1 X145.652 Y130.482 E.03489
G1 X145.686 Y132.03 E.04855
G1 X145.594 Y133.139 E.03489
G1 X145.38 Y134.353 E.03865
G1 X144.947 Y135.839 E.04855
G1 X144.526 Y136.869 E.03489
G1 X143.957 Y137.963 E.03865
G1 X143.354 Y138.898 E.03489
G1 X142.4 Y140.089 E.04785
G1 X141.602 Y140.896 E.03558
G1 X140.753 Y141.615 E.03489
G1 X139.744 Y142.322 E.03865
G1 X138.406 Y143.057 E.04786
G1 X137.36 Y143.498 E.03557
G1 X136.185 Y143.868 E.03865
G1 X135.097 Y144.104 E.03488
G1 X133.58 Y144.271 E.04786
G1 X132.446 Y144.278 E.03558
G1 X131.337 Y144.186 E.03488
G1 X130.123 Y143.972 E.03865
G1 X128.657 Y143.546 E.04786
G1 X127.606 Y143.118 E.03557
G1 X126.513 Y142.549 E.03865
G1 X125.578 Y141.947 E.03489
G1 X124.387 Y140.992 E.04785
G1 X123.58 Y140.195 E.03558
G1 X122.86 Y139.346 E.03488
G1 X122.153 Y138.336 E.03865
G1 X121.602 Y137.37 E.03489
G1 X120.978 Y135.953 E.04855
G1 X120.607 Y134.777 E.03865
G1 X120.372 Y133.69 E.03489
G1 X120.204 Y132.173 E.04785
G1 X120.198 Y131.038 E.03558
G1 X120.289 Y129.929 E.03489
G1 X120.503 Y128.715 E.03865
G1 X120.937 Y127.229 E.04855
G1 X121.358 Y126.199 E.03489
G1 X121.927 Y125.105 E.03865
G1 X122.529 Y124.17 E.03489
G1 X123.498 Y122.962 E.04855
G1 X123.769 Y122.689 E.01208
M204 S1000
G1 X124.041 Y122.955 F10800
M204 S800
G1 F1200
G1 X124.542 Y122.444 E.02243
G1 X125.366 Y121.747 E.03385
G1 X126.335 Y121.068 E.0371
G1 X127.664 Y120.339 E.04752
G1 X128.66 Y119.922 E.03385
G1 X129.688 Y119.593 E.03385
G1 X130.843 Y119.337 E.0371
G1 X132.239 Y119.179 E.04403
G1 X133.43 Y119.167 E.03734
G1 X134.505 Y119.257 E.03385
G1 X135.671 Y119.462 E.0371
G1 X137.126 Y119.886 E.04752
G1 X138.125 Y120.295 E.03385
G1 X139.175 Y120.841 E.0371
G1 X140.083 Y121.425 E.03385
G1 X141.181 Y122.301 E.04403
G1 X142.031 Y123.134 E.03734
G1 X142.729 Y123.958 E.03385
G1 X143.408 Y124.928 E.0371
G1 X143.944 Y125.865 E.03385
G1 X144.554 Y127.252 E.04751
G1 X144.883 Y128.28 E.03385
G1 X145.139 Y129.436 E.0371
G1 X145.276 Y130.507 E.03386
G1 X145.309 Y132.022 E.04752
G1 X145.219 Y133.098 E.03385
G1 X145.014 Y134.263 E.0371
G1 X144.59 Y135.718 E.04751
G1 X144.181 Y136.717 E.03386
G1 X143.634 Y137.767 E.0371
G1 X143.05 Y138.675 E.03385
G1 X142.116 Y139.84 E.04682
G1 X141.342 Y140.624 E.03455
G1 X140.435 Y141.384 E.0371
G1 X139.548 Y142 E.03385
G1 X138.239 Y142.719 E.04683
G1 X137.224 Y143.146 E.03454
G1 X136.195 Y143.475 E.03385
G1 X135.04 Y143.731 E.0371
G1 X133.556 Y143.895 E.04683
G1 X132.454 Y143.901 E.03454
G1 X131.378 Y143.811 E.03385
G1 X130.213 Y143.606 E.0371
G1 X128.778 Y143.189 E.04683
G1 X127.758 Y142.773 E.03454
G1 X126.709 Y142.227 E.0371
G1 X125.801 Y141.643 E.03385
G1 X124.635 Y140.709 E.04682
G1 X123.852 Y139.934 E.03455
G1 X123.154 Y139.11 E.03385
G1 X122.476 Y138.14 E.0371
G1 X121.747 Y136.812 E.04751
G1 X121.329 Y135.816 E.03385
G1 X120.974 Y134.687 E.0371
G1 X120.744 Y133.632 E.03385
G1 X120.581 Y132.148 E.04682
G1 X120.575 Y131.046 E.03454
G1 X120.664 Y129.97 E.03386
G1 X120.87 Y128.805 E.0371
G1 X121.294 Y127.35 E.04752
G1 X121.703 Y126.351 E.03385
G1 X122.249 Y125.301 E.0371
G1 X122.833 Y124.393 E.03385
G1 X123.708 Y123.295 E.04403
G1 X123.999 Y122.998 E.01302
M204 S1000
; printing object TLG_BA 2.stl id:0 copy 0
;WIPE_START
G1 F8640
G1 X124.542 Y122.444 E-.17906
G1 X125.366 Y121.747 E-.24931
G1 X126.335 Y121.068 E-.27323
G1 X126.557 Y120.946 E-.05841
;WIPE_END
G1 E-.04 F2100
G1 Z.6 F720
G1 X130.294 Y125.03 F10800
G1 Z.2 F720
G1 E.8 F2100
M204 S800
;TYPE:Support material interface
;WIDTH:0.35
G1 F1200
G1 X130.146 Y125.178 E.00534
G1 X130.149 Y126.294 E.02848
G1 X130.174 Y126.558 E.00677
G1 X130.219 Y126.768 E.0055
G1 X130.297 Y126.98 E.00576
G1 X130.406 Y127.167 E.00552
G1 X130.406 Y127.757 E.01507
G1 X130.251 Y127.559 E.00641
G1 X130.133 Y127.339 E.00638
G1 X130.035 Y127.051 E.00777
G1 X129.98 Y126.764 E.00747
G1 X129.952 Y126.377 E.0099
G1 X129.952 Y124.516 E.04753
G1 X130.406 Y124.516 E.01161
G1 X130.406 Y124.93 E.01059
G1 X130.913 Y124.93 E.01295
G1 X130.913 Y124.516 E.01059
G1 X131.421 Y124.516 E.01295
G1 X131.421 Y124.93 E.01059
G1 X131.928 Y124.93 E.01295
G1 X131.928 Y124.516 E.01059
G1 X132.435 Y124.515 E.01295
G1 X132.435 Y125.069 E.01413
G1 X132.544 Y125.178 E.00395
G1 X132.544 Y126.136 E.02445
G1 X132.521 Y126.508 E.00951
G1 X132.435 Y126.871 E.00954
G1 X132.435 Y127.064 E.00492
G1 X132.499 Y127.013 E.00209
G1 X132.839 Y127.013 E.00869
G1 X132.942 Y127.099 E.00341
G1 X132.788 Y126.773 E.00921
G1 X132.716 Y126.431 E.00892
G1 X132.697 Y126.091 E.00869
G1 X132.697 Y125.178 E.02332
G1 X132.942 Y124.934 E.00884
G1 X132.942 Y124.515 E.01067
G1 X133.295 Y124.515 E.00903
M204 S1000
G1 X133.094 Y124.93 F10800
M204 S800
G1 F1200
G1 X133.449 Y124.93 E.00906
G1 X133.449 Y124.515 E.01059
G1 X133.956 Y124.515 E.01295
G1 X133.956 Y124.93 E.01059
G1 X134.463 Y124.93 E.01295
G1 X134.463 Y124.515 E.01059
G1 X134.97 Y124.515 E.01295
G1 X134.97 Y126.962 E.06246
G1 X134.875 Y127.311 E.00924
G1 X134.766 Y127.544 E.00656
G1 X134.632 Y127.712 E.0055
G1 X134.463 Y127.83 E.00525
G1 X134.463 Y127.258 E.0146
G1 X134.574 Y127.146 E.00402
G1 X134.679 Y126.989 E.00483
G1 X134.757 Y126.814 E.00489
G1 X134.81 Y126.626 E.00499
M204 S1000
G1 X134.338 Y127.347 F10800
M204 S800
G1 F1200
G1 X134.168 Y127.425 E.00478
G1 X133.956 Y127.473 E.00554
G1 X133.956 Y127.928 E.01164
G1 X133.841 Y127.924 E.00293
G1 X133.633 Y127.891 E.0054
G1 X133.449 Y127.823 E.005
G1 X133.449 Y127.435 E.00991
G1 X133.239 Y127.348 E.0058
G1 X133.08 Y127.236 E.00496
G1 X133.154 Y127.534 E.00783
G1 X133.226 Y127.648 E.00345
G1 X133.32 Y127.74 E.00335
M204 S1000
;WIPE_START
G1 F8640
G1 X133.226 Y127.648 E-.0303
G1 X133.154 Y127.534 E-.03118
G1 X133.08 Y127.236 E-.07081
G1 X133.239 Y127.348 E-.04489
G1 X133.449 Y127.435 E-.05243
G1 X133.449 Y127.823 E-.0896
G1 X133.633 Y127.891 E-.04521
G1 X133.841 Y127.924 E-.04883
G1 X133.956 Y127.928 E-.02647
G1 X133.956 Y127.473 E-.10525
G1 X134.168 Y127.425 E-.05011
G1 X134.338 Y127.347 E-.04324
;WIPE_END
G1 E-.16168 F2100
G1 Z.6 F720
G1 X132.375 Y127.013 F10800
G1 Z.2 F720
G1 E.8 F2100
M204 S800
G1 F1200
G1 X132.286 Y127.165 E.00451
G1 X132.174 Y127.302 E.00451
G1 X131.928 Y127.487 E.00788
G1 X131.928 Y127.908 E.01073
G1 X131.796 Y127.984 E.00388
G1 X131.609 Y128.044 E.00501
G1 X131.421 Y128.073 E.00488
G1 X131.421 Y127.615 E.01168
G1 X131.133 Y127.597 E.00735
G1 X130.913 Y127.542 E.00579
G1 X130.913 Y128.042 E.01278
G1 X130.717 Y127.976 E.00529
G1 X130.521 Y127.859 E.00584
M204 S1000
;WIPE_START
G1 F8640
G1 X130.717 Y127.976 E-.05282
G1 X130.913 Y128.042 E-.04787
G1 X130.913 Y127.542 E-.11557
G1 X131.133 Y127.597 E-.05235
G1 X131.421 Y127.615 E-.06644
G1 X131.421 Y128.073 E-.10565
G1 X131.609 Y128.044 E-.04409
G1 X131.796 Y127.984 E-.04527
G1 X131.928 Y127.908 E-.03513
G1 X131.928 Y127.487 E-.09706
G1 X132.174 Y127.302 E-.07127
G1 X132.247 Y127.213 E-.0265
;WIPE_END
G1 E-.04 F2100
G1 Z.6 F720
G1 X130.259 Y130.081 F10800
G1 Z.2 F720
G1 E.8 F2100
M204 S800
G1 F1200
G1 X129.952 Y129.988 E.00821
G1 X129.952 Y129.54 E.01143
G1 X130.406 Y129.7 E.0123
G1 X130.406 Y130.126 E.01088
G1 X130.913 Y130.28 E.01353
G1 X130.913 Y129.878 E.01027
M73 Q1 S31
G1 X131.421 Y130.056 E.01372
G1 X131.421 Y133.575 E.08985
G1 X130.913 Y133.754 E.01373
G1 X130.913 Y133.354 E.01022
G1 X130.406 Y133.508 E.01353
G1 X130.406 Y133.933 E.01085
G1 X129.952 Y134.094 E.01231
G1 X129.952 Y133.647 E.01141
G1 X130.259 Y133.553 E.00821
M204 S1000
;WIPE_START
M73 P1 R31
G1 F8640
G1 X129.952 Y133.647 E-.07425
G1 X129.952 Y134.094 E-.1032
G1 X130.406 Y133.933 E-.11129
G1 X130.406 Y133.508 E-.0981
G1 X130.913 Y133.354 E-.12239
G1 X130.913 Y133.754 E-.0924
G1 X131.421 Y133.575 E-.12416
G1 X131.421 Y133.427 E-.03422
;WIPE_END
G1 E-.04 F2100
G1 Z.6 F720
G1 X131.666 Y132.878 F10800
G1 Z.2 F720
G1 E.8 F2100
M204 S800
G1 F1200
G1 X131.928 Y133.066 E.00822
G1 X131.928 Y133.396 E.00843
G1 X132.435 Y133.218 E.01373
G1 X132.435 Y132.909 E.00787
G1 X132.942 Y132.752 E.01356
G1 X132.942 Y133.039 E.00732
G1 X133.449 Y132.86 E.01373
G1 X133.449 Y132.595 E.00677
G1 X133.956 Y132.438 E.01355
G1 X133.956 Y132.681 E.00619
G1 X134.463 Y132.502 E.01373
G1 X134.463 Y132.286 E.00551
G1 X134.82 Y132.198 E.0094
M204 S1000
G1 X135.007 Y131.613 F10800
M204 S800
G1 F1200
G1 X134.992 Y132.159 E.01393
G1 X134.97 Y132.164 E.00058
G1 X134.97 Y132.323 E.00406
G1 X135.079 Y132.284 E.00294
G1 X135.079 Y131.342 E.02405
G1 X134.97 Y131.304 E.00294
G1 X134.97 Y131.49 E.00474
G1 X134.463 Y131.345 E.01346
G1 X134.463 Y131.126 E.0056
G1 X133.956 Y130.948 E.01372
G1 X133.956 Y131.201 E.00646
G1 X133.449 Y131.048 E.01352
G1 X133.449 Y130.77 E.00711
G1 X132.942 Y130.591 E.01372
G1 X132.942 Y130.894 E.00773
G1 X132.435 Y130.74 E.01353
G1 X132.435 Y130.413 E.00834
G1 X131.928 Y130.235 E.01372
G1 X131.928 Y130.584 E.00892
G1 X131.666 Y130.772 E.00822
M204 S1000
;WIPE_START
G1 F8640
G1 X131.928 Y130.584 E-.07433
G1 X131.928 Y130.235 E-.08067
G1 X132.435 Y130.413 E-.12411
G1 X132.435 Y130.74 E-.07545
G1 X132.942 Y130.894 E-.12237
G1 X132.942 Y130.591 E-.06987
G1 X133.449 Y130.77 E-.12411
G1 X133.449 Y131.048 E-.06428
G1 X133.552 Y131.079 E-.02481
;WIPE_END
G1 E-.04 F2100
G1 Z.6 F720
G1 X130.297 Y135.516 F10800
G1 Z.2 F720
G1 E.8 F2100
M204 S800
G1 F1200
G1 X130.229 Y135.449 E.00244
G1 X129.952 Y135.449 E.00708
G1 X129.952 Y138.761 E.08456
G1 X130.163 Y138.761 E.0054
G1 X130.163 Y136.417 E.05986
G1 X130.406 Y136.174 E.00877
G1 X130.406 Y135.624 E.01402
G1 X130.804 Y136.018 E.0143
M204 S1000
G1 X130.558 Y136.168 F10800
M204 S800
G1 F1200
G1 X130.731 Y136.168 E.00441
G1 X130.913 Y136.261 E.00524
G1 X130.913 Y136.126 E.00345
G1 X131.421 Y136.628 E.01822
G1 X131.421 Y136.801 E.0044
G1 X131.928 Y137.338 E.01887
G1 X131.928 Y137.117 E.00566
G1 X132.435 Y137.588 E.01768
G1 X132.435 Y137.854 E.00679
G1 X132.859 Y138.211 E.01417
G1 X132.942 Y138.267 E.00255
G1 X132.942 Y137.954 E.00798
G1 X133.187 Y138.074 E.00696
G1 X133.449 Y138.154 E.007
G1 X133.449 Y138.519 E.00932
G1 X133.661 Y138.571 E.00557
G1 X133.956 Y138.594 E.00756
G1 X133.956 Y138.185 E.01044
G1 X134.23 Y138.129 E.00714
G1 X134.463 Y138.017 E.00661
G1 X134.463 Y138.481 E.01183
G1 X134.607 Y138.393 E.0043
G1 X134.742 Y138.278 E.00452
G1 X134.864 Y138.131 E.00487
G1 X134.97 Y137.949 E.00539
G1 X134.97 Y136.161 E.04566
G1 X134.811 Y135.841 E.00912
M204 S1000
;WIPE_START
G1 F8640
G1 X134.97 Y136.161 E-.0825
G1 X134.97 Y137.949 E-.41293
G1 X134.864 Y138.131 E-.04875
G1 X134.742 Y138.278 E-.04402
G1 X134.607 Y138.393 E-.04091
G1 X134.463 Y138.481 E-.03891
G1 X134.463 Y138.082 E-.09198
;WIPE_END
G1 E-.04 F2100
G1 Z.6 F720
G1 X135.124 Y136.814 F10800
G1 Z.2 F720
G1 E.8 F2100
M204 S800
G1 F1200
G1 X135.13 Y137.342 E.01348
M204 S1000
;WIPE_START
G1 F8640
G1 X135.124 Y136.814 E-.12189
;WIPE_END
G1 E-.67811 F2100
G1 Z.6 F720
G1 X129.81 Y134.816 F10800
G1 Z.2 F720
G1 E.8 F2100
M204 S800
;TYPE:External perimeter
;WIDTH:0.42
G1 F1200
G1 X130.467 Y134.816 E.0206
G1 X131.25 Y135.338 E.02953
G1 X131.587 Y135.628 E.01393
G1 X132.877 Y136.867 E.05607
G1 X133.106 Y137.062 E.00942
G1 X133.318 Y137.209 E.00812
G1 X133.495 Y137.298 E.0062
G1 X133.625 Y137.339 E.00427
G1 X133.791 Y137.357 E.00524
G1 X134.006 Y137.317 E.00685
G1 X134.085 Y137.177 E.00507
G1 X134.097 Y136.954 E.007
G1 X134.058 Y136.742 E.00677
G1 X133.942 Y136.47 E.00926
G1 X133.774 Y136.201 E.00994
G1 X133.335 Y135.635 E.02243
G1 X134.766 Y134.428 E.05871
G1 X135.354 Y135.156 E.02935
G1 X135.573 Y135.49 E.01252
G1 X135.756 Y135.879 E.01348
G1 X135.878 Y136.273 E.01294
G1 X135.945 Y136.65 E.012
G1 X135.969 Y136.956 E.00961
G1 X135.962 Y137.401 E.01398
G1 X135.908 Y137.766 E.01154
G1 X135.788 Y138.163 E.01302
G1 X135.643 Y138.46 E.01035
G1 X135.444 Y138.744 E.01088
G1 X135.22 Y138.971 E.01001
G1 X135.009 Y139.128 E.00824
G1 X134.742 Y139.271 E.0095
G1 X134.45 Y139.369 E.00966
G1 X134.129 Y139.421 E.01021
G1 X133.736 Y139.42 E.01232
G1 X133.422 Y139.374 E.00994
G1 X133.133 Y139.294 E.0094
G1 X132.822 Y139.162 E.01059
G1 X132.374 Y138.889 E.01647
G1 X131.88 Y138.471 E.02028
G1 X131.581 Y138.136 E.01407
G1 X131.361 Y137.801 E.01258
G1 X131.191 Y137.481 E.01136
G1 X130.797 Y137.062 E.01803
G1 X130.797 Y137.437 E.01176
G1 X130.951 Y138.293 E.02725
G1 X130.99 Y138.742 E.01415
G1 X130.999 Y139.594 E.02671
G1 X129.118 Y139.595 E.05898
G1 X129.129 Y136.399 E.1002
G1 X129.188 Y135.908 E.01551
G1 X129.318 Y135.458 E.01468
G1 X129.318 Y134.816 E.02014
G1 X129.346 Y134.816 E.00086
G1 X129.188 Y134.282 E.01745
G1 X129.129 Y133.801 E.0152
G1 X129.116 Y133.03 E.02415
G1 X130.535 Y132.598 E.0465
G1 X130.535 Y131.036 E.04897
G1 X129.115 Y130.604 E.04654
G1 X129.145 Y129.308 E.04065
G1 X129.225 Y128.454 E.02689
G1 X130.089 Y128.856 E.0299
G1 X130.528 Y129.027 E.01475
G1 X130.983 Y129.154 E.01483
G1 X131.941 Y129.377 E.03084
G1 X132.417 Y129.526 E.01564
G1 X135.912 Y130.752 E.11613
G1 X135.912 Y132.874 E.06655
G1 X131.954 Y134.264 E.13155
G1 X131.467 Y134.4 E.01585
G1 X130.501 Y134.572 E.03075
G1 X129.866 Y134.796 E.0211
M204 S1000
G1 X130.209 Y134.783 F10800
G1 X128.941 Y134.777
M204 S800
;TYPE:Perimeter
G1 F1200
G1 X128.941 Y135.405 E.01967
G1 X128.818 Y135.832 E.01397
G1 X128.752 Y136.376 E.01715
G1 X128.74 Y139.723 E.10495
G1 X128.336 Y139.512 E.0143
G1 X127.652 Y139.077 E.0254
G1 X127.339 Y138.847 E.0122
G1 X126.718 Y138.326 E.0254
G1 X126.15 Y137.758 E.0252
G1 X125.633 Y137.142 E.0252
G1 X125.172 Y136.484 E.0252
G1 X124.767 Y135.782 E.0254
G1 X124.595 Y135.433 E.0122
G1 X124.285 Y134.685 E.0254
G1 X124.041 Y133.912 E.0254
G1 X123.949 Y133.534 E.01221
G1 X123.811 Y132.754 E.02486
G1 X123.738 Y131.936 E.02575
G1 X123.738 Y131.132 E.02519
G1 X123.809 Y130.325 E.0254
G1 X123.868 Y129.941 E.0122
G1 X124.039 Y129.167 E.02485
G1 X124.285 Y128.383 E.02575
