; generated by PrusaSlicer 2.4.2+win64 on 2023-03-01 at 16:04:08 UTC

; 

; external perimeters extrusion width = 0.45mm
; perimeters extrusion width = 0.45mm
; infill extrusion width = 0.45mm
; solid infill extrusion width = 0.45mm
; top infill extrusion width = 0.40mm
; support material extrusion width = 0.35mm
; first layer extrusion width = 0.42mm

M73 P0 R48
M73 Q0 S48
M201 X1000 Y1000 Z200 E5000 ; sets maximum accelerations, mm/sec^2
M203 X200 Y200 Z12 E120 ; sets maximum feedrates, mm / sec
M204 P1250 R1250 T1250 ; sets acceleration (P, T) and retract acceleration (R), mm/sec^2
M205 X8.00 Y8.00 Z0.40 E4.50 ; sets the jerk limits, mm/sec
M205 S0 T0 ; sets the minimum extruding and travel feed rate, mm/sec
M107
;TYPE:Custom
M862.3 P "MK3S" ; printer model check
M862.1 P0.4 ; nozzle diameter check
M115 U3.10.1 ; tell printer latest fw version
G90 ; use absolute coordinates
M83 ; extruder relative mode
M104 S215 ; set extruder temp
M140 S55 ; set bed temp
M190 S55 ; wait for bed temp
M109 S215 ; wait for extruder temp
G28 W ; home all without mesh bed level
G80 ; mesh bed leveling
G1 Z0.2 F720
G1 Y-3 F1000 ; go outside print area
G92 E0
G1 X60 E9 F1000 ; intro line
G1 X100 E12.5 F1000 ; intro line
G92 E0
M221 S95

; Don't change E values below. Excessive value can damage the printer.
M907 E430 ; set extruder motor current
G21 ; set units to millimeters
G90 ; use absolute coordinates
M83 ; use relative distances for extrusion
M900 K0.05 ; Filament gcode LA 1.5
M900 K30 ; Filament gcode LA 1.0
M107
;LAYER_CHANGE
;Z:0.2
;HEIGHT:0.2
;BEFORE_LAYER_CHANGE
G92 E0.0
;0.2


G1 E-.8 F2100
G1 Z.4 F720
;AFTER_LAYER_CHANGE
;0.2
G1 X108.84 Y84.226 F10800
G1 Z.2 F720
G1 E.8 F2100
M204 S800
;TYPE:Skirt/Brim
;WIDTH:0.42
G1 F1200
G1 X111.147 Y81.919 E.1023
G1 X112.828 Y81.223 E.05704
G1 X137.172 Y81.223 E.76327
G1 X138.853 Y81.919 E.05704
G1 X141.16 Y84.226 E.1023
G1 X141.856 Y85.907 E.05704
G1 X141.856 Y126.4 E1.26963
G1 X141.464 Y127.707 E.04278
G1 X140.419 Y128.584 E.04278
G1 X139.479 Y128.777 E.03008
G1 X110.521 Y128.777 E.90795
G1 X109.214 Y128.386 E.04278
G1 X108.338 Y127.34 E.04278
G1 X108.144 Y126.4 E.03008
G1 X108.144 Y85.907 E1.26963
G1 X108.817 Y84.282 E.05516
M204 S1000
; printing object TLG_PA 1.stl id:0 copy 0
;WIPE_START
G1 F8640
G1 X111.129 Y81.938 E-.76
;WIPE_END
G1 E-.04 F2100
G1 Z.6 F720
G1 X121.556 Y109.281 F10800
G1 Z.2 F720
G1 E.8 F2100
M204 S800
;TYPE:Support material
G1 F1200
G1 X121.753 Y109.329 E.00636
G1 X121.9 Y109.432 E.00566
G1 X122.004 Y109.58 E.00566
G1 X122.052 Y109.777 E.00636
G1 X122.053 Y119.228 E.29633
G1 X117.31 Y119.228 E.14872
G1 X117.31 Y109.805 E.29546
G1 X117.349 Y109.601 E.00652
G1 X117.417 Y109.484 E.00426
G1 X117.513 Y109.388 E.00426
G1 X117.652 Y109.311 E.00496
G1 X117.784 Y109.282 E.00425
G1 X121.499 Y109.28 E.11647
M204 S1000
G1 X121.648 Y119.059 F10800
M204 S800
G1 F1200
G1 X121.648 Y109.661 E.29465
G1 X121.524 Y109.619 E.00411
G1 X121.229 Y109.619 E.00924
G1 X121.229 Y118.889 E.29064
G1 X120.81 Y118.889 E.01314
G1 X120.81 Y109.619 E.29064
G1 X120.391 Y109.619 E.01314
G1 X120.391 Y118.889 E.29064
G1 X119.972 Y118.889 E.01314
G1 X119.972 Y109.619 E.29064
G1 X119.553 Y109.619 E.01314
G1 X119.553 Y118.889 E.29064
G1 X119.134 Y118.889 E.01314
G1 X119.134 Y109.619 E.29064
G1 X118.715 Y109.619 E.01314
G1 X118.715 Y118.889 E.29064
G1 X118.296 Y118.889 E.01314
G1 X118.296 Y109.619 E.29064
G1 X117.877 Y109.619 E.01314
G1 X117.877 Y119.059 E.29596
M204 S1000
;WIPE_START
G1 F8640
G1 X117.877 Y115.767 E-.76
;WIPE_END
G1 E-.04 F2100
G1 Z.6 F720
G1 X126.52 Y107.52 F10800
G1 Z.2 F720
G1 E.8 F2100
M204 S800
G1 F1200
G1 X123.48 Y107.52 E.0953
G1 X123.48 Y104.364 E.09897
G1 X126.52 Y104.364 E.0953
G1 X126.52 Y107.463 E.09719
M204 S1000
G1 X125.838 Y107.35 F10800
M204 S800
G1 F1200
G1 X125.838 Y104.703 E.083
G1 X125.419 Y104.703 E.01314
G1 X125.419 Y107.181 E.07768
G1 X125 Y107.181 E.01314
G1 X125 Y104.703 E.07768
G1 X124.581 Y104.703 E.01314
G1 X124.581 Y107.181 E.07768
G1 X124.162 Y107.181 E.01314
G1 X124.162 Y104.533 E.083
M204 S1000
;WIPE_START
G1 F8640
G1 X124.162 Y107.181 E-.61127
G1 X124.581 Y107.181 E-.09674
G1 X124.581 Y106.955 E-.05199
;WIPE_END
G1 E-.04 F2100
G1 Z.6 F720
G1 X132.193 Y109.281 F10800
G1 Z.2 F720
G1 E.8 F2100
M204 S800
G1 F1200
G1 X132.369 Y109.32 E.00566
G1 X132.538 Y109.432 E.00636
G1 X132.642 Y109.58 E.00566
G1 X132.69 Y109.777 E.00636
G1 X132.69 Y119.228 E.29633
G1 X127.947 Y119.228 E.14872
G1 X127.947 Y109.805 E.29546
G1 X127.987 Y109.601 E.00652
G1 X128.069 Y109.466 E.00496
G1 X128.169 Y109.374 E.00426
G1 X128.289 Y109.311 E.00425
G1 X128.422 Y109.282 E.00425
G1 X132.136 Y109.28 E.11647
M204 S1000
G1 X132.123 Y119.059 F10800
M204 S800
G1 F1200
G1 X132.123 Y109.619 E.29596
G1 X131.704 Y109.619 E.01314
G1 X131.704 Y118.889 E.29064
G1 X131.285 Y118.889 E.01314
G1 X131.285 Y109.619 E.29064
G1 X130.866 Y109.619 E.01314
G1 X130.866 Y118.889 E.29064
G1 X130.447 Y118.889 E.01314
G1 X130.447 Y109.619 E.29064
G1 X130.028 Y109.619 E.01314
G1 X130.028 Y118.889 E.29064
G1 X129.609 Y118.889 E.01314
M73 P1 R48
M73 Q1 S48
G1 X129.609 Y109.619 E.29064
G1 X129.19 Y109.619 E.01314
G1 X129.19 Y118.889 E.29064
G1 X128.771 Y118.889 E.01314
G1 X128.771 Y109.619 E.29064
G1 X128.451 Y109.62 E.01001
G1 X128.352 Y109.661 E.00338
G1 X128.352 Y119.059 E.29465
M204 S1000
;WIPE_START
G1 F8640
G1 X128.352 Y115.767 E-.76
;WIPE_END
G1 E-.04 F2100
G1 Z.6 F720
G1 X137.172 Y85.907 F10800
G1 Z.2 F720
G1 E.8 F2100
M204 S800
G1 F1200
G1 X139.479 Y85.907 E.07234
G1 X139.479 Y126.4 E1.26963
G1 X110.521 Y126.4 E.90795
M73 P1 R47
G1 X110.521 Y85.907 E1.26963
G1 X112.828 Y85.907 E.07234
G1 X112.828 Y83.6 E.07234
G1 X137.172 Y83.6 E.76327
G1 X137.172 Y85.85 E.07056
M204 S1000
G1 X118.997 Y88.42 F10800
M204 S800
G1 F1200
G1 X118.596 Y88.438 E.01261
G1 X118.2 Y88.49 E.01253
G1 X117.81 Y88.577 E.01253
G1 X117.429 Y88.698 E.01253
G1 X117.06 Y88.851 E.01253
G1 X116.705 Y89.036 E.01253
G1 X116.369 Y89.251 E.01253
G1 X116.052 Y89.495 E.01253
G1 X115.758 Y89.765 E.01253
G1 X115.488 Y90.06 E.01253
G1 X115.245 Y90.377 E.01253
G1 X115.031 Y90.715 E.01253
G1 X114.771 Y91.242 E.01845
G1 X114.634 Y91.618 E.01253
G1 X114.53 Y92.004 E.01253
G1 X114.46 Y92.397 E.01253
G1 X114.42 Y92.997 E.01887
G1 X114.42 Y121.095 E.881
G1 X114.493 Y121.272 E.00599
G1 X114.728 Y121.507 E.01042
G1 X114.905 Y121.58 E.00599
G1 X135.095 Y121.58 E.63307
G1 X135.272 Y121.507 E.00599
M73 Q1 S47
G1 X135.507 Y121.272 E.01042
G1 X135.58 Y121.095 E.00599
G1 X135.58 Y92.997 E.881
G1 X135.541 Y92.407 E.01854
G1 X135.47 Y92.004 E.01286
G1 X135.306 Y91.438 E.01846
G1 X135.149 Y91.06 E.01285
G1 X134.95 Y90.682 E.01338
G1 X134.637 Y90.216 E.01761
G1 X134.373 Y89.902 E.01285
G1 X134.07 Y89.602 E.01337
G1 X133.631 Y89.251 E.01761
G1 X133.285 Y89.031 E.01286
G1 X132.906 Y88.836 E.01337
G1 X132.382 Y88.634 E.01761
G1 X131.79 Y88.489 E.01911
G1 X131.195 Y88.424 E.01878
G1 X126.801 Y88.42 E.13776
G1 X126.52 Y88.701 E.01247
G1 X126.52 Y91.794 E.09697
G1 X123.48 Y91.794 E.0953
G1 X123.48 Y88.701 E.09697
G1 X123.199 Y88.42 E.01247
G1 X119.054 Y88.42 E.12997
M204 S1000
;WIPE_START
G1 F8640
G1 X122.345 Y88.42 E-.76
;WIPE_END
G1 E-.04 F2100
G1 Z.6 F720
G1 X138.826 Y126.23 F10800
G1 Z.2 F720
G1 E.8 F2100
M204 S800
G1 F1200
G1 X138.826 Y86.246 E1.25367
G1 X138.407 Y86.246 E.01314
G1 X138.407 Y126.061 E1.24835
G1 X137.988 Y126.061 E.01314
G1 X137.988 Y86.246 E1.24835
G1 X137.569 Y86.246 E.01314
G1 X137.569 Y126.061 E1.24835
G1 X137.15 Y126.061 E.01314
G1 X137.15 Y86.246 E1.24835
G1 X136.832 Y86.246 E.00997
G1 X136.832 Y83.939 E.07234
G1 X136.731 Y83.939 E.00317
G1 X136.731 Y126.061 E1.32069
G1 X136.312 Y126.061 E.01314
M73 Q2 S47
G1 X136.312 Y83.939 E1.32069
G1 X135.893 Y83.939 E.01314
M73 P2 R47
G1 X135.893 Y126.061 E1.32069
G1 X135.474 Y126.061 E.01314
G1 X135.474 Y121.784 E.13408
G1 X135.163 Y121.919 E.01064
G1 X135.055 Y121.919 E.00337
G1 X135.055 Y126.061 E.12985
G1 X134.636 Y126.061 E.01314
G1 X134.636 Y121.919 E.12985
G1 X134.217 Y121.919 E.01314
G1 X134.217 Y126.061 E.12985
G1 X133.799 Y126.061 E.01314
G1 X133.799 Y121.919 E.12985
G1 X133.38 Y121.919 E.01314
G1 X133.38 Y126.061 E.12985
G1 X132.961 Y126.061 E.01314
G1 X132.961 Y121.919 E.12985
G1 X132.542 Y121.919 E.01314
G1 X132.542 Y126.061 E.12985
G1 X132.123 Y126.061 E.01314
G1 X132.123 Y121.919 E.12985
G1 X131.704 Y121.919 E.01314
G1 X131.704 Y126.061 E.12985
G1 X131.285 Y126.061 E.01314
G1 X131.285 Y121.919 E.12985
G1 X130.866 Y121.919 E.01314
G1 X130.866 Y126.061 E.12985
G1 X130.447 Y126.061 E.01314
G1 X130.447 Y121.919 E.12985
G1 X130.028 Y121.919 E.01314
G1 X130.028 Y126.061 E.12985
G1 X129.609 Y126.061 E.01314
G1 X129.609 Y121.919 E.12985
G1 X129.19 Y121.919 E.01314
G1 X129.19 Y126.061 E.12985
G1 X128.771 Y126.061 E.01314
G1 X128.771 Y121.919 E.12985
G1 X128.352 Y121.919 E.01314
G1 X128.352 Y126.061 E.12985
G1 X127.933 Y126.061 E.01314
G1 X127.933 Y121.919 E.12985
G1 X127.514 Y121.919 E.01314
G1 X127.514 Y126.061 E.12985
G1 X127.095 Y126.061 E.01314
G1 X127.095 Y121.919 E.12985
G1 X126.676 Y121.919 E.01314
G1 X126.676 Y126.061 E.12985
G1 X126.257 Y126.061 E.01314
G1 X126.257 Y121.919 E.12985
G1 X125.838 Y121.919 E.01314
G1 X125.838 Y126.061 E.12985
G1 X125.419 Y126.061 E.01314
G1 X125.419 Y121.919 E.12985
G1 X125 Y121.919 E.01314
G1 X125 Y126.061 E.12985
G1 X124.581 Y126.061 E.01314
G1 X124.581 Y121.919 E.12985
G1 X124.162 Y121.919 E.01314
G1 X124.162 Y126.061 E.12985
G1 X123.743 Y126.061 E.01314
G1 X123.743 Y121.919 E.12985
G1 X123.324 Y121.919 E.01314
G1 X123.324 Y126.061 E.12985
G1 X122.905 Y126.061 E.01314
G1 X122.905 Y121.919 E.12985
G1 X122.486 Y121.919 E.01314
G1 X122.486 Y126.061 E.12985
G1 X122.067 Y126.061 E.01314
G1 X122.067 Y121.919 E.12985
G1 X121.648 Y121.919 E.01314
G1 X121.648 Y126.061 E.12985
G1 X121.229 Y126.061 E.01314
G1 X121.229 Y121.919 E.12985
G1 X120.81 Y121.919 E.01314
G1 X120.81 Y126.061 E.12985
G1 X120.391 Y126.061 E.01314
G1 X120.391 Y121.919 E.12985
G1 X119.972 Y121.919 E.01314
G1 X119.972 Y126.061 E.12985
G1 X119.553 Y126.061 E.01314
G1 X119.553 Y121.919 E.12985
G1 X119.134 Y121.919 E.01314
G1 X119.134 Y126.061 E.12985
G1 X118.715 Y126.061 E.01314
G1 X118.715 Y121.919 E.12985
G1 X118.296 Y121.919 E.01314
G1 X118.296 Y126.061 E.12985
G1 X117.877 Y126.061 E.01314
G1 X117.877 Y121.919 E.12985
G1 X117.458 Y121.919 E.01314
G1 X117.458 Y126.061 E.12985
G1 X117.039 Y126.061 E.01314
G1 X117.039 Y121.919 E.12985
G1 X116.62 Y121.919 E.01314
G1 X116.62 Y126.061 E.12985
G1 X116.201 Y126.061 E.01314
G1 X116.201 Y121.919 E.12985
G1 X115.783 Y121.919 E.01314
G1 X115.783 Y126.061 E.12985
G1 X115.364 Y126.061 E.01314
G1 X115.364 Y121.919 E.12985
G1 X114.945 Y121.919 E.01314
G1 X114.945 Y126.061 E.12985
G1 X114.526 Y126.061 E.01314
G1 X114.526 Y121.544 E.14161
M204 S1000
;WIPE_START
G1 F8640
G1 X114.526 Y124.836 E-.76
;WIPE_END
G1 E-.04 F2100
G1 Z.6 F720
G1 X135.474 Y91.408 F10800
G1 Z.2 F720
G1 E.8 F2100
M204 S800
G1 F1200
G1 X135.474 Y83.939 E.23418
G1 X135.055 Y83.939 E.01314
G1 X135.055 Y90.217 E.19682
G1 X134.636 Y89.687 E.02117
G1 X134.636 Y83.939 E.18022
G1 X134.217 Y83.939 E.01314
G1 X134.217 Y89.28 E.16745
G1 X133.799 Y88.955 E.01663
G1 X133.799 Y83.939 E.15725
G1 X133.38 Y83.939 E.01314
G1 X133.38 Y88.696 E.14913
G1 X132.961 Y88.489 E.01464
G1 X132.961 Y83.939 E.14266
G1 X132.542 Y83.939 E.01314
G1 X132.542 Y88.329 E.13764
G1 X132.123 Y88.211 E.01365
G1 X132.123 Y83.939 E.13394
G1 X131.704 Y83.939 E.01314
G1 X131.704 Y88.132 E.13146
G1 X131.285 Y88.09 E.0132
G1 X131.285 Y83.939 E.13013
G1 X130.866 Y83.939 E.01314
G1 X130.866 Y88.081 E.12985
G1 X130.447 Y88.081 E.01314
G1 X130.447 Y83.939 E.12985
G1 X130.028 Y83.939 E.01314
G1 X130.028 Y88.081 E.12985
G1 X129.609 Y88.081 E.01314
G1 X129.609 Y83.939 E.12985
G1 X129.19 Y83.939 E.01314
G1 X129.19 Y88.081 E.12985
G1 X128.771 Y88.081 E.01314
G1 X128.771 Y83.939 E.12985
G1 X128.352 Y83.939 E.01314
G1 X128.352 Y88.081 E.12985
G1 X127.933 Y88.081 E.01314
G1 X127.933 Y83.939 E.12985
G1 X127.514 Y83.939 E.01314
G1 X127.514 Y88.081 E.12985
G1 X127.095 Y88.081 E.01314
G1 X127.095 Y83.939 E.12985
G1 X126.676 Y83.939 E.01314
G1 X126.676 Y88.081 E.12985
G1 X126.257 Y88.484 E.01824
G1 X126.257 Y83.939 E.1425
G1 X125.838 Y83.939 E.01314
G1 X125.838 Y91.455 E.23563
G1 X125.419 Y91.455 E.01314
G1 X125.419 Y83.939 E.23563
G1 X125 Y83.939 E.01314
G1 X125 Y91.455 E.23563
G1 X124.581 Y91.455 E.01314
G1 X124.581 Y83.939 E.23563
G1 X124.162 Y83.939 E.01314
G1 X124.162 Y91.455 E.23563
G1 X123.82 Y91.455 E.01074
G1 X123.82 Y88.561 E.09074
G1 X123.743 Y88.484 E.0034
G1 X123.743 Y83.939 E.1425
G1 X123.324 Y83.939 E.01314
G1 X123.324 Y88.081 E.12985
G1 X122.905 Y88.081 E.01314
G1 X122.905 Y83.939 E.12985
G1 X122.486 Y83.939 E.01314
G1 X122.486 Y88.081 E.12985
G1 X122.067 Y88.081 E.01314
G1 X122.067 Y83.939 E.12985
G1 X121.648 Y83.939 E.01314
G1 X121.648 Y88.081 E.12985
G1 X121.229 Y88.081 E.01314
G1 X121.229 Y83.939 E.12985
G1 X120.81 Y83.939 E.01314
G1 X120.81 Y88.081 E.12985
G1 X120.391 Y88.081 E.01314
G1 X120.391 Y83.939 E.12985
G1 X119.972 Y83.939 E.01314
G1 X119.972 Y88.081 E.12985
G1 X119.553 Y88.081 E.01314
G1 X119.553 Y83.939 E.12985
G1 X119.134 Y83.939 E.01314
G1 X119.134 Y88.081 E.12985
G1 X118.715 Y88.09 E.01314
G1 X118.715 Y83.939 E.13013
G1 X118.296 Y83.939 E.01314
M73 Q3 S47
G1 X118.296 Y88.132 E.13146
G1 X117.877 Y88.211 E.01337
M73 P3 R47
G1 X117.877 Y83.939 E.13394
G1 X117.458 Y83.939 E.01314
G1 X117.458 Y88.329 E.13764
G1 X117.039 Y88.489 E.01406
G1 X117.039 Y83.939 E.14266
G1 X116.62 Y83.939 E.01314
G1 X116.62 Y88.696 E.14913
G1 X116.201 Y88.955 E.01545
G1 X116.201 Y83.939 E.15725
G1 X115.783 Y83.939 E.01314
G1 X115.783 Y89.28 E.16745
G1 X115.364 Y89.687 E.01832
G1 X115.364 Y83.939 E.18022
G1 X114.945 Y83.939 E.01314
G1 X114.945 Y90.217 E.19682
G1 X114.735 Y90.548 E.0123
G1 X114.526 Y90.957 E.0144
G1 X114.526 Y83.939 E.22003
G1 X114.107 Y83.939 E.01314
G1 X114.107 Y126.061 E1.32069
G1 X113.688 Y126.061 E.01314
G1 X113.688 Y83.939 E1.32069
G1 X113.269 Y83.939 E.01314
M73 P3 R46
G1 X113.269 Y126.061 E1.32069
G1 X112.85 Y126.061 E.01314
G1 X112.85 Y86.246 E1.24835
G1 X112.431 Y86.246 E.01314
G1 X112.431 Y126.061 E1.24835
G1 X112.012 Y126.061 E.01314
G1 X112.012 Y86.246 E1.24835
G1 X111.593 Y86.246 E.01314
M73 Q3 S46
G1 X111.593 Y126.061 E1.24835
G1 X111.174 Y126.061 E.01314
G1 X111.174 Y86.077 E1.25367
M204 S1000
;WIPE_START
G1 F8640
G1 X111.174 Y89.368 E-.76
;WIPE_END
G1 E-.04 F2100
G1 Z.6 F720
G1 X122.213 Y108.143 F10800
G1 Z.2 F720
G1 E.8 F2100
M204 S800
;TYPE:Perimeter
G1 F1200
G1 X121.767 Y108.023 E.01447
G1 X117.796 Y108.013 E.12452
G1 X117.448 Y108.051 E.01097
G1 X117.145 Y108.147 E.00998
G1 X116.868 Y108.291 E.00978
G1 X116.621 Y108.481 E.00978
G1 X116.41 Y108.711 E.00978
G1 X116.242 Y108.974 E.00978
G1 X116.121 Y109.268 E.00998
G1 X116.047 Y109.637 E.01181
G1 X116.042 Y120.313 E.33472
G1 X115.687 Y120.313 E.01114
G1 X115.687 Y93.015 E.85591
G1 X115.7 Y92.711 E.00953
G1 X115.799 Y92.149 E.0179
G1 X115.94 Y91.733 E.01378
G1 X116.135 Y91.338 E.01378
G1 X116.459 Y90.876 E.0177
G1 X116.767 Y90.554 E.01398
G1 X117.215 Y90.21 E.0177
G1 X117.606 Y89.996 E.01399
G1 X118.137 Y89.802 E.0177
G1 X118.574 Y89.715 E.01398
G1 X118.856 Y89.691 E.00887
G1 X122.213 Y89.688 E.10527
G1 X122.213 Y108.083 E.57677
M204 S1000
;WIPE_START
G1 F8640
G1 X121.767 Y108.023 E-.10387
G1 X118.926 Y108.016 E-.65613
;WIPE_END
G1 E-.04 F2100
G1 Z.6 F720
G1 X122.943 Y120.118 F10800
G1 Z.2 F720
G1 E.8 F2100
M204 S800
;TYPE:External perimeter
G1 F1200
G1 X116.42 Y120.118 E.20453
G1 X116.424 Y109.675 E.32745
G1 X116.483 Y109.378 E.00949
G1 X116.578 Y109.149 E.00778
G1 X116.71 Y108.941 E.00771
G1 X116.876 Y108.76 E.00771
G1 X117.072 Y108.61 E.00771
G1 X117.29 Y108.497 E.00771
G1 X117.526 Y108.422 E.00778
G1 X117.816 Y108.39 E.00914
G1 X121.717 Y108.4 E.12231
G1 X122.073 Y108.496 E.01156
G1 X122.392 Y108.68 E.01155
G1 X122.653 Y108.941 E.01156
G1 X122.835 Y109.256 E.01141
G1 X122.911 Y109.497 E.00793
G1 X122.943 Y109.786 E.00913
G1 X122.943 Y120.058 E.32207
M204 S1000
G1 X122.943 Y120.518 F10800
;WIPE_START
G1 F8640
G1 X119.652 Y120.089 E-.76
;WIPE_END
