; generated by PrusaSlicer 2.4.2+win64 on 2023-02-03 at 10:16:03 UTC

; 

; external perimeters extrusion width = 0.45mm
; perimeters extrusion width = 0.45mm
; infill extrusion width = 0.45mm
; solid infill extrusion width = 0.45mm
; top infill extrusion width = 0.40mm
; first layer extrusion width = 0.42mm

M73 P0 R8
M73 Q0 S8
M201 X1000 Y1000 Z200 E5000 ; sets maximum accelerations, mm/sec^2
M203 X200 Y200 Z12 E120 ; sets maximum feedrates, mm / sec
M204 P1250 R1250 T1250 ; sets acceleration (P, T) and retract acceleration (R), mm/sec^2
M205 X8.00 Y8.00 Z0.40 E4.50 ; sets the jerk limits, mm/sec
M205 S0 T0 ; sets the minimum extruding and travel feed rate, mm/sec
M107
;TYPE:Custom
M862.3 P "MK3S" ; printer model check
M862.1 P0.4 ; nozzle diameter check
M115 U3.10.1 ; tell printer latest fw version
G90 ; use absolute coordinates
M83 ; extruder relative mode
M104 S215 ; set extruder temp
M140 S60 ; set bed temp
M190 S60 ; wait for bed temp
M109 S215 ; wait for extruder temp
G28 W ; home all without mesh bed level
G80 ; mesh bed leveling
G1 Z0.2 F720
G1 Y-3 F1000 ; go outside print area
G92 E0
G1 X60 E9 F1000 ; intro line
G1 X100 E12.5 F1000 ; intro line
G92 E0
M221 S95

; Don't change E values below. Excessive value can damage the printer.
M907 E430 ; set extruder motor current
G21 ; set units to millimeters
G90 ; use absolute coordinates
M83 ; use relative distances for extrusion
M900 K0.05 ; Filament gcode LA 1.5
M900 K30 ; Filament gcode LA 1.0
M107
;LAYER_CHANGE
;Z:0.2
;HEIGHT:0.2
;BEFORE_LAYER_CHANGE
G92 E0.0
;0.2


G1 E-.8 F2100
M73 P1 R8
M73 Q1 S8
G1 Z.4 F720
;AFTER_LAYER_CHANGE
;0.2
G1 X116.35 Y92.631 F10800
G1 Z.2 F720
G1 E.8 F2100
M204 S800
;TYPE:Skirt/Brim
;WIDTH:0.42
G1 F1200
G1 X117.163 Y91.656 E.0398
G1 X117.835 Y91.001 E.02943
G1 X118.651 Y90.34 E.03293
G1 X119.637 Y89.706 E.03675
G1 X120.492 Y89.373 E.02877
G1 X121.344 Y89.234 E.02707
G1 X128.407 Y89.226 E.22146
G1 X129.197 Y89.301 E.02488
G1 X129.912 Y89.504 E.02328
G1 X130.518 Y89.791 E.02104
G1 X131.349 Y90.34 E.03122
G1 X132.157 Y90.994 E.03261
G1 X133.058 Y91.899 E.04004
G1 X134.232 Y93.505 E.06237
G1 X134.821 Y94.638 E.04004
G1 X135.163 Y95.504 E.02919
G1 X135.635 Y97.426 E.06205
G1 X135.749 Y98.698 E.04004
G1 X135.736 Y99.629 E.02919
G1 X135.471 Y101.47 E.05833
G1 X131.389 Y117.941 E.53207
G1 X131.126 Y118.661 E.02401
G1 X130.764 Y119.257 E.02188
G1 X130.254 Y119.817 E.02374
G1 X129.683 Y120.238 E.02226
G1 X128.978 Y120.567 E.02441
G1 X128.311 Y120.732 E.02152
G1 X122.25 Y120.774 E.19004
G1 X121.379 Y120.671 E.0275
G1 X120.463 Y120.321 E.03073
G1 X119.67 Y119.747 E.03072
G1 X119.054 Y118.989 E.03061
G1 X118.643 Y118.061 E.03183
G1 X114.433 Y101.014 E.55054
G1 X114.274 Y99.785 E.03886
M73 P2 R8
M73 Q2 S8
G1 X114.248 Y98.817 E.03037
G1 X114.319 Y97.769 E.03292
G1 X114.543 Y96.512 E.04004
G1 X114.837 Y95.504 E.03293
G1 X115.321 Y94.333 E.03972
G1 X116.319 Y92.682 E.06049
M204 S1000
G1 X116.64 Y92.876 F10800
M204 S800
G1 F1200
G1 X117.442 Y91.91 E.03937
G1 X118.091 Y91.278 E.0284
G1 X118.869 Y90.648 E.03139
G1 X119.814 Y90.039 E.03525
G1 X120.593 Y89.736 E.02621
G1 X121.429 Y89.607 E.0265
G1 X128.404 Y89.603 E.2187
G1 X129.129 Y89.672 E.02284
G1 X129.78 Y89.857 E.02123
G1 X130.383 Y90.148 E.02098
G1 X131.214 Y90.709 E.03144
G1 X132.164 Y91.513 E.03902
G1 X132.847 Y92.231 E.03108
G1 X133.608 Y93.225 E.03925
G1 X134.078 Y93.993 E.02824
G1 X134.808 Y95.633 E.05628
G1 X135.261 Y97.476 E.0595
G1 X135.372 Y98.715 E.03901
G1 X135.36 Y99.613 E.02817
G1 X135.102 Y101.39 E.05628
G1 X131.023 Y117.851 E.53172
G1 X130.788 Y118.494 E.02147
G1 X130.486 Y118.999 E.01846
G1 X130.073 Y119.471 E.01967
G1 X129.52 Y119.895 E.02184
G1 X128.954 Y120.175 E.01982
G1 X128.252 Y120.359 E.02274
G1 X122.25 Y120.397 E.18819
G1 X121.468 Y120.305 E.02467
G1 X120.645 Y119.991 E.02764
G1 X119.931 Y119.474 E.02764
G1 X119.376 Y118.793 E.02754
G1 X119.005 Y117.954 E.02878
G1 X114.805 Y100.95 E.54915
G1 X114.65 Y99.754 E.03784
G1 X114.625 Y98.818 E.02935
G1 X114.693 Y97.819 E.03139
M73 Q3 S8
G1 X114.911 Y96.594 E.03901
G1 X115.192 Y95.633 E.03139
G1 X115.663 Y94.492 E.03871
G1 X116.609 Y92.927 E.05732
M204 S1000
; printing object TLG_MP 1.stl id:0 copy 0
;WIPE_START
G1 F8640
M73 P3 R8
G1 X117.442 Y91.91 E-.30363
G1 X118.091 Y91.278 E-.20917
G1 X118.869 Y90.648 E-.23117
G1 X118.927 Y90.611 E-.01603
;WIPE_END
G1 E-.04 F2100
G1 Z.6 F720
G1 X123.964 Y101.658 F10800
G1 Z.2 F720
G1 E.8 F2100
M204 S800
;TYPE:Perimeter
G1 F1200
G1 X123.742 Y101.829 E.0088
G1 X123.537 Y102.15 E.01194
G1 X123.463 Y102.484 E.0107
G1 X123.451 Y117.061 E.45706
G1 X123.432 Y117.118 E.0019
G1 X123.371 Y117.188 E.00291
G1 X123.205 Y117.233 E.00541
G1 X122.26 Y117.232 E.02961
G1 X122.127 Y117.184 E.00444
G1 X122.056 Y117.09 E.00368
G1 X122.038 Y116.998 E.00294
G1 X122.043 Y116.172 E.02591
G1 X122.267 Y115.363 E.02632
G1 X122.421 Y114.597 E.0245
G1 X122.512 Y113.818 E.0246
G1 X122.537 Y113.034 E.0246
G1 X122.497 Y112.25 E.0246
G1 X122.393 Y111.473 E.0246
G1 X122.224 Y110.707 E.02459
G1 X122.037 Y110.1 E.01991
G1 X122.037 Y106.631 E.10878
G1 X122.001 Y106.295 E.01061
G1 X121.913 Y106.006 E.00947
G1 X121.813 Y105.795 E.00731
G1 X121.687 Y105.599 E.0073
G1 X121.482 Y105.365 E.00978
G1 X120.429 Y104.599 E.04082
G1 X119.966 Y104.185 E.01945
G1 X119.538 Y103.73 E.01958
G1 X119.152 Y103.24 E.01958
G1 X118.808 Y102.719 E.01958
G1 X118.509 Y102.164 E.01978
G1 X118.384 Y101.891 E.00939
G1 X118.158 Y101.302 E.01978
G1 X117.987 Y100.702 E.01958
G1 X117.867 Y100.089 E.01958
G1 X117.801 Y99.462 E.01978
G1 X117.789 Y99.162 E.00939
G1 X117.804 Y98.532 E.01978
G1 X117.873 Y97.911 E.01958
G1 X117.996 Y97.299 E.01958
G1 X118.172 Y96.696 E.01968
G1 X118.275 Y96.412 E.00949
G1 X118.53 Y95.832 E.01988
G1 X118.67 Y95.563 E.00949
G1 X118.998 Y95.02 E.01987
G1 X119.175 Y94.767 E.00969
G1 X119.36 Y94.524 E.00959
G1 X119.779 Y94.044 E.01998
G1 X119.99 Y93.831 E.00939
G1 X120.463 Y93.413 E.01978
G1 X120.966 Y93.041 E.01963
G1 X121.278 Y92.847 E.01151
G1 X121.42 Y92.794 E.00476
G1 X121.614 Y92.771 E.00612
G1 X121.761 Y92.789 E.00464
G1 X121.899 Y92.838 E.0046
G1 X122.059 Y92.941 E.00595
G1 X122.182 Y93.077 E.00575
G1 X122.266 Y93.24 E.00575
G1 X122.308 Y93.432 E.00616
G1 X122.313 Y98.134 E.14745
G1 X122.201 Y98.542 E.01326
G1 X122.161 Y99.038 E.01558
G1 X122.206 Y99.522 E.01526
G1 X122.296 Y99.881 E.0116
G1 X122.386 Y100.124 E.00813
G1 X122.545 Y100.444 E.01119
G1 X122.689 Y100.667 E.00834
G1 X122.996 Y101.031 E.01492
G1 X123.273 Y101.272 E.01153
G1 X123.481 Y101.417 E.00793
G1 X123.7 Y101.543 E.00793
G1 X123.91 Y101.634 E.00717
M204 S1000
;WIPE_START
G1 F8640
G1 X123.742 Y101.829 E-.05938
G1 X123.537 Y102.15 E-.08791
G1 X123.463 Y102.484 E-.0788
G1 X123.462 Y104.796 E-.53392
;WIPE_END
G1 E-.04 F2100
G1 Z.6 F720
G1 X126.078 Y101.674 F10800
G1 Z.2 F720
G1 E.8 F2100
M204 S800
G1 F1200
G1 X126.043 Y101.656 E.00122
G1 X126.201 Y101.591 E.00536
G1 X126.52 Y101.417 E.0114
G1 X126.818 Y101.199 E.01159
G1 X127.082 Y100.949 E.01139
G1 X127.249 Y100.751 E.00814
G1 X127.452 Y100.449 E.01139
G1 X127.617 Y100.118 E.01159
G1 X127.738 Y99.769 E.0116
G1 X127.812 Y99.406 E.01159
G1 X127.838 Y99.037 E.0116
G1 X127.817 Y98.668 E.01159
G1 X127.747 Y98.307 E.01153
G1 X127.687 Y98.121 E.00614
G1 X127.687 Y93.52 E.14425
G1 X127.718 Y93.285 E.00743
G1 X127.757 Y93.176 E.00365
G1 X127.873 Y93.003 E.00653
G1 X127.963 Y92.919 E.00385
G1 X128.18 Y92.804 E.00768
G1 X128.299 Y92.776 E.00386
G1 X128.415 Y92.77 E.00362
G1 X128.568 Y92.791 E.00485
G1 X128.763 Y92.869 E.00661
G1 X129.032 Y93.039 E.00996
G1 X129.537 Y93.413 E.01972
G1 X130.005 Y93.827 E.01958
G1 X130.44 Y94.284 E.01978
G1 X130.632 Y94.514 E.00939
G1 X131.004 Y95.023 E.01978
G1 X131.327 Y95.557 E.01958
G1 X131.605 Y96.123 E.01978
G1 X131.72 Y96.4 E.00939
G1 X131.923 Y96.997 E.01978
G1 X132.073 Y97.61 E.01978
G1 X132.167 Y98.214 E.01918
G1 X132.21 Y98.844 E.01978
G1 X132.198 Y99.474 E.01978
G1 X132.134 Y100.083 E.01918
G1 X132.012 Y100.708 E.01998
G1 X131.936 Y100.998 E.00939
G1 X131.736 Y101.596 E.01978
G1 X131.486 Y102.175 E.01978
G1 X131.195 Y102.713 E.01918
G1 X130.849 Y103.24 E.01978
G1 X130.462 Y103.73 E.01958
G1 X130.034 Y104.185 E.01958
G1 X129.571 Y104.599 E.01945
G1 X128.518 Y105.365 E.04082
G1 X128.313 Y105.599 E.00978
M73 Q4 S8
G1 X128.187 Y105.795 E.0073
G1 X128.087 Y106.006 E.0073
G1 X127.999 Y106.295 E.00947
G1 X127.963 Y106.631 E.0106
G1 X127.963 Y110.1 E.10878
G1 X127.776 Y110.707 E.01991
G1 X127.607 Y111.473 E.02459
G1 X127.503 Y112.25 E.0246
M73 P4 R8
G1 X127.463 Y113.034 E.0246
G1 X127.488 Y113.818 E.0246
G1 X127.579 Y114.597 E.0246
G1 X127.733 Y115.363 E.0245
G1 X127.958 Y116.173 E.02634
G1 X127.951 Y117.074 E.02826
G1 X127.908 Y117.156 E.0029
G1 X127.862 Y117.195 E.0019
G1 X127.733 Y117.232 E.00419
G1 X126.797 Y117.233 E.02937
G1 X126.694 Y117.217 E.00324
G1 X126.626 Y117.182 E.00242
G1 X126.574 Y117.125 E.00242
G1 X126.537 Y116.98 E.00469
G1 X126.535 Y102.462 E.45519
G1 X126.475 Y102.19 E.00874
G1 X126.318 Y101.904 E.01023
G1 X126.121 Y101.715 E.00855
M204 S1000
G1 X126.118 Y102.324 F10800
M204 S800
;TYPE:External perimeter
G1 F1200
G1 X126.015 Y102.136 E.00672
G1 X125.859 Y101.986 E.0068
G1 X125.664 Y101.89 E.00679
G1 X125.468 Y101.86 E.00623
G1 X124.476 Y101.862 E.0311
G1 X124.223 Y101.936 E.00829
G1 X124.024 Y102.088 E.00784
G1 X123.891 Y102.297 E.00777
G1 X123.84 Y102.525 E.00733
G1 X123.828 Y117.121 E.45766
G1 X123.774 Y117.286 E.00543
G1 X123.692 Y117.409 E.00464
G1 X123.581 Y117.506 E.00461
G1 X123.422 Y117.582 E.00552
G1 X123.232 Y117.61 E.00601
G1 X122.231 Y117.609 E.03139
G1 X122.105 Y117.59 E.00402
G1 X121.911 Y117.499 E.00668
G1 X121.784 Y117.377 E.00553
G1 X121.698 Y117.221 E.0056
G1 X121.661 Y117.035 E.00595
G1 X121.666 Y116.12 E.02868
G1 X121.9 Y115.276 E.02747
G1 X122.049 Y114.538 E.02358
G1 X122.135 Y113.79 E.02361
G1 X122.16 Y113.037 E.02362
G1 X122.122 Y112.285 E.02362
G1 X122.021 Y111.539 E.02362
G1 X121.859 Y110.803 E.02361
G1 X121.66 Y110.157 E.0212
G1 X121.66 Y106.651 E.10993
G1 X121.63 Y106.37 E.00885
G1 X121.561 Y106.142 E.00747
G1 X121.483 Y105.979 E.00568
G1 X121.385 Y105.827 E.00568
G1 X121.226 Y105.645 E.00758
G1 X120.192 Y104.892 E.04009
G1 X119.703 Y104.455 E.02056
G1 X119.253 Y103.977 E.0206
G1 X118.845 Y103.461 E.0206
G1 X118.484 Y102.912 E.0206
G1 X118.171 Y102.332 E.02067
G1 X118.036 Y102.038 E.01016
G1 X117.8 Y101.422 E.02067
G1 X117.62 Y100.79 E.0206
G1 X117.494 Y100.145 E.0206
G1 X117.425 Y99.489 E.02067
G1 X117.412 Y99.165 E.01016
G1 X117.428 Y98.506 E.02067
G1 X117.5 Y97.853 E.0206
G1 X117.629 Y97.209 E.0206
G1 X117.813 Y96.579 E.02058
G1 X117.925 Y96.272 E.01026
G1 X118.19 Y95.669 E.02064
G1 X118.341 Y95.378 E.01026
G1 X118.682 Y94.815 E.02064
G1 X118.87 Y94.544 E.01033
G1 X119.068 Y94.285 E.01023
G1 X119.503 Y93.786 E.02074
G1 X119.731 Y93.557 E.01016
G1 X120.225 Y93.12 E.02067
G1 X120.754 Y92.729 E.02062
G1 X121.111 Y92.507 E.01318
G1 X121.331 Y92.425 E.00736
G1 X121.614 Y92.392 E.00894
G1 X121.847 Y92.42 E.00734
G1 X122.067 Y92.497 E.0073
G1 X122.305 Y92.651 E.00891
G1 X122.494 Y92.86 E.00884
G1 X122.624 Y93.111 E.00884
G1 X122.685 Y93.391 E.00898
G1 X122.69 Y98.185 E.15033
G1 X122.574 Y98.608 E.01374
G1 X122.539 Y99.035 E.01344
G1 X122.579 Y99.458 E.01333
G1 X122.657 Y99.769 E.01005
G1 X122.732 Y99.974 E.00685
G1 X122.873 Y100.257 E.00991
G1 X122.993 Y100.443 E.00692
G1 X123.265 Y100.765 E.01325
G1 X123.506 Y100.974 E.00999
G1 X123.87 Y101.205 E.01354
G1 X124.164 Y101.334 E.01005
G1 X124.574 Y101.443 E.01332
G1 X124.891 Y101.478 E.00999
G1 X125.111 Y101.478 E.00692
G1 X125.528 Y101.423 E.01318
G1 X125.836 Y101.334 E.01005
G1 X126.038 Y101.251 E.00685
G1 X126.317 Y101.098 E.00998
G1 X126.576 Y100.909 E.01005
G1 X126.807 Y100.69 E.00998
G1 X126.948 Y100.523 E.00685
G1 X127.126 Y100.259 E.00998
G1 X127.269 Y99.972 E.01005
G1 X127.373 Y99.669 E.01005
G1 X127.438 Y99.355 E.01005
G1 X127.46 Y99.035 E.01005
G1 X127.442 Y98.715 E.01005
G1 X127.381 Y98.401 E.01003
G1 X127.31 Y98.18 E.00727
G1 X127.31 Y93.496 E.14688
G1 X127.349 Y93.196 E.00948
G1 X127.477 Y92.901 E.01009
G1 X127.593 Y92.749 E.00598
G1 X127.731 Y92.621 E.00591
G1 X127.889 Y92.518 E.00591
G1 X128.062 Y92.445 E.00591
G1 X128.246 Y92.402 E.00591
G1 X128.43 Y92.391 E.00579
G1 X128.665 Y92.424 E.00742
G1 X128.936 Y92.532 E.00914
G1 X129.245 Y92.728 E.0115
G1 X129.775 Y93.12 E.02065
G1 X130.267 Y93.555 E.0206
G1 X130.721 Y94.033 E.02067
G1 X130.929 Y94.282 E.01016
G1 X131.318 Y94.814 E.02067
G1 X131.658 Y95.376 E.0206
G1 X131.949 Y95.968 E.02067
G1 X132.073 Y96.267 E.01016
G1 X132.285 Y96.892 E.02067
M73 Q5 S8
G1 X132.443 Y97.532 E.02067
G1 X132.543 Y98.177 E.02046
G1 X132.587 Y98.835 E.02067
G1 X132.575 Y99.494 E.02067
G1 X132.506 Y100.143 E.02046
G1 X132.38 Y100.792 E.02075
G1 X132.298 Y101.106 E.01016
G1 X132.089 Y101.731 E.02067
G1 X131.827 Y102.336 E.02067
M73 P5 R8
G1 X131.517 Y102.91 E.02046
G1 X131.155 Y103.461 E.02067
G1 X130.747 Y103.977 E.0206
G1 X130.297 Y104.455 E.0206
G1 X129.808 Y104.892 E.02056
G1 X128.774 Y105.645 E.04009
G1 X128.615 Y105.827 E.00758
G1 X128.517 Y105.979 E.00568
G1 X128.439 Y106.142 E.00568
G1 X128.37 Y106.37 E.00747
G1 X128.34 Y106.651 E.00885
G1 X128.34 Y110.157 E.10993
G1 X128.141 Y110.803 E.0212
G1 X127.979 Y111.539 E.02361
G1 X127.878 Y112.285 E.02361
G1 X127.84 Y113.037 E.02362
G1 X127.865 Y113.79 E.02362
G1 X127.951 Y114.538 E.02362
G1 X128.1 Y115.276 E.02358
G1 X128.334 Y116.12 E.02748
G1 X128.34 Y117.005 E.02774
G1 X128.318 Y117.172 E.00529
G1 X128.258 Y117.316 E.00488
G1 X128.185 Y117.416 E.00387
G1 X128.066 Y117.516 E.00489
G1 X127.927 Y117.581 E.00481
G1 X127.766 Y117.609 E.00511
G1 X126.768 Y117.61 E.0313
G1 X126.576 Y117.58 E.0061
G1 X126.393 Y117.485 E.00646
G1 X126.254 Y117.333 E.00646
G1 X126.182 Y117.17 E.0056
G1 X126.16 Y117.004 E.00524
G1 X126.158 Y102.503 E.45466
G1 X126.131 Y102.383 E.00387
M204 S1000
G1 X126.259 Y102.162 F10800
G1 X125.587 Y101.666
M204 S800
;TYPE:Gap fill
;WIDTH:0.105926
G1 F1200
G1 X125.523 Y101.646 E.00035
M204 S1000
M204 S800
;WIDTH:0.105927
G1 X125.487 Y101.645 E.00019
M204 S1000
M204 S800
;WIDTH:0.0955421
G1 X125.483 Y101.645 E.00002
M204 S1000
M204 S800
;WIDTH:0.0946945
G1 X125.447 Y101.648 E.00015
M204 S1000
G1 X124.537 Y101.651 F10800
M204 S800
;WIDTH:0.109911
G1 F1200
G1 X124.449 Y101.64 E.00049
M204 S1000
M204 S800
;WIDTH:0.113885
G1 X124.309 Y101.632 E.00083
M204 S1000
G1 X124.343 Y101.66 F10800
M204 S800
;WIDTH:0.118987
G1 F1200
G1 X124.235 Y101.714 E.00076
M204 S1000
G1 X124.343 Y101.66 F10800
M204 S800
;WIDTH:0.144653
G1 F1200
G1 X124.45 Y101.605 E.00102
M204 S1000
;WIPE_START
G1 F8640
G1 X124.343 Y101.66 E-.02779
;WIPE_END
G1 E-.77221 F2100
G1 Z.6 F720
G1 X122.195 Y93.483 F10800
G1 Z.2 F720
G1 E.8 F2100
M204 S800
;TYPE:Solid infill
;WIDTH:0.427035
G1 F1200
G1 X121.864 Y93.151 E.01497
G1 X121.774 Y93.093 E.00341
G1 X121.614 Y93.056 E.00525
G1 X121.487 Y93.071 E.00407
G1 X121.322 Y93.153 E.00589
G1 X122.026 Y93.857 E.03179
G1 X122.026 Y94.401 E.01737
G1 X120.996 Y93.371 E.04652
G1 X120.684 Y93.602 E.0124
G1 X122.027 Y94.944 E.06065
G1 X122.027 Y95.488 E.01737
G1 X120.392 Y93.853 E.07385
G1 X120.109 Y94.113 E.01228
G1 X122.028 Y96.032 E.08668
G1 X122.028 Y96.576 E.01737
G1 X119.848 Y94.395 E.0985
G1 X119.595 Y94.685 E.0123
G1 X122.029 Y97.119 E.10995
G1 X122.03 Y97.663 E.01737
G1 X119.361 Y94.994 E.12055
G1 X119.146 Y95.323 E.01253
G1 X122.006 Y98.183 E.12921
G1 X121.921 Y98.493 E.01026
G1 X121.91 Y98.63 E.0044
G1 X118.941 Y95.661 E.13411
G1 X118.757 Y96.02 E.01289
G1 X121.887 Y99.15 E.14141
G1 X121.926 Y99.57 E.01345
G1 X121.981 Y99.787 E.00716
G1 X118.591 Y96.397 E.15313
G1 X118.439 Y96.789 E.01342
G1 X123.435 Y101.785 E.22564
G1 X123.272 Y102.041 E.00969
M73 Q6 S8
G1 X123.249 Y102.142 E.00333
G1 X118.317 Y97.21 E.22281
G1 X118.214 Y97.65 E.01445
M73 P6 R8
G1 X123.181 Y102.617 E.22433
G1 X123.18 Y103.159 E.01734
G1 X118.135 Y98.115 E.22787
G1 X118.085 Y98.608 E.01583
G1 X123.18 Y103.702 E.23011
G1 X123.179 Y104.245 E.01734
G1 X118.072 Y99.138 E.23067
G1 X118.072 Y99.16 E.00071
G1 X118.113 Y99.722 E.01799
G1 X123.179 Y104.788 E.22882
G1 X123.178 Y105.331 E.01734
