; generated by PrusaSlicer 2.4.2+win64 on 2023-02-28 at 19:27:57 UTC

; 

; external perimeters extrusion width = 0.45mm
; perimeters extrusion width = 0.45mm
; infill extrusion width = 0.45mm
; solid infill extrusion width = 0.45mm
; top infill extrusion width = 0.40mm
; first layer extrusion width = 0.42mm

M73 P0 R82
M73 Q0 S82
M201 X1000 Y1000 Z200 E5000 ; sets maximum accelerations, mm/sec^2
M203 X200 Y200 Z12 E120 ; sets maximum feedrates, mm / sec
M204 P1250 R1250 T1250 ; sets acceleration (P, T) and retract acceleration (R), mm/sec^2
M205 X8.00 Y8.00 Z0.40 E4.50 ; sets the jerk limits, mm/sec
M205 S0 T0 ; sets the minimum extruding and travel feed rate, mm/sec
M107
;TYPE:Custom
M862.3 P "MK3S" ; printer model check
M862.1 P0.4 ; nozzle diameter check
M115 U3.10.1 ; tell printer latest fw version
G90 ; use absolute coordinates
M83 ; extruder relative mode
M104 S215 ; set extruder temp
M140 S55 ; set bed temp
M190 S55 ; wait for bed temp
M109 S215 ; wait for extruder temp
G28 W ; home all without mesh bed level
G80 ; mesh bed leveling
G1 Z0.2 F720
G1 Y-3 F1000 ; go outside print area
G92 E0
G1 X60 E9 F1000 ; intro line
G1 X100 E12.5 F1000 ; intro line
G92 E0
M221 S95

; Don't change E values below. Excessive value can damage the printer.
M907 E430 ; set extruder motor current
G21 ; set units to millimeters
G90 ; use absolute coordinates
M83 ; use relative distances for extrusion
M900 K0.05 ; Filament gcode LA 1.5
M900 K30 ; Filament gcode LA 1.0
M107
;LAYER_CHANGE
;Z:0.2
;HEIGHT:0.2
;BEFORE_LAYER_CHANGE
G92 E0.0
;0.2


G1 E-.8 F2100
G1 Z.4 F720
;AFTER_LAYER_CHANGE
;0.2
G1 X124.078 Y96.721 F10800
G1 Z.2 F720
M73 P0 R81
G1 E.8 F2100
M204 S800
;TYPE:Skirt/Brim
;WIDTH:0.42
G1 F1200
G1 X126.201 Y94.075 E.10637
G1 X127.847 Y92.423 E.07311
G1 X129.63 Y90.921 E.0731
G1 X131.625 Y89.524 E.07635
G1 X133.646 Y88.362 E.07311
G1 X136.751 Y86.996 E.10637
G1 X139.074 Y86.264 E.07635
G1 X141.351 Y85.763 E.07311
G1 X144.183 Y85.43 E.08939
G1 X147.055 Y85.39 E.09007
G1 X149.378 Y85.588 E.07311
G1 X151.776 Y86.011 E.07635
G1 X154.027 Y86.619 E.07311
G1 X157.189 Y87.849 E.10637
G1 X159.349 Y88.973 E.07635
G1 X161.313 Y90.23 E.07311
G1 X163.959 Y92.353 E.10637
G1 X165.611 Y93.998 E.07311
G1 X167.113 Y95.782 E.0731
G1 X168.51 Y97.776 E.07635
G1 X169.672 Y99.798 E.07311
G1 X171.038 Y102.903 E.10637
G1 X171.77 Y105.226 E.07635
G1 X172.271 Y107.503 E.07311
G1 X172.604 Y110.334 E.08939
G1 X172.644 Y113.207 E.09007
G1 X172.446 Y115.53 E.07311
G1 X172.023 Y117.928 E.07635
G1 X171.415 Y120.179 E.07311
G1 X170.185 Y123.341 E.10637
G1 X169.061 Y125.501 E.07635
G1 X167.804 Y127.465 E.07311
G1 X165.681 Y130.111 E.10637
G1 X164.036 Y131.763 E.07311
G1 X162.252 Y133.265 E.0731
G1 X160.258 Y134.662 E.07635
G1 X158.236 Y135.824 E.07311
G1 X155.131 Y137.19 E.10637
G1 X152.909 Y137.895 E.07311
G1 X150.531 Y138.422 E.07635
G1 X147.7 Y138.756 E.08939
G1 X144.827 Y138.796 E.09007
G1 X142.504 Y138.598 E.07311
G1 X140.106 Y138.175 E.07635
G1 X137.855 Y137.567 E.07311
G1 X134.693 Y136.337 E.10637
G1 X132.533 Y135.213 E.07635
G1 X130.569 Y133.956 E.07311
G1 X128.331 Y132.19 E.08939
G1 X126.271 Y130.187 E.09007
G1 X124.769 Y128.404 E.0731
G1 X123.372 Y126.409 E.07635
G1 X122.21 Y124.388 E.07311
G1 X120.844 Y121.283 E.10637
G1 X120.139 Y119.06 E.07311
G1 X119.612 Y116.683 E.07635
G1 X119.278 Y113.851 E.08939
G1 X119.238 Y110.979 E.09007
G1 X119.436 Y108.656 E.07311
G1 X119.859 Y106.258 E.07635
G1 X120.467 Y104.007 E.07311
G1 X121.697 Y100.845 E.10637
G1 X122.821 Y98.685 E.07635
G1 X124.045 Y96.771 E.07122
M204 S1000
; printing object TLG_DC 3.stl id:0 copy 0
;WIPE_START
G1 F8640
G1 X126.101 Y94.2 E-.76
;WIPE_END
G1 E-.04 F2100
M73 Q0 S81
G1 Z.6 F720
G1 X131.639 Y102.078 F10800
G1 Z.2 F720
G1 E.8 F2100
M204 S800
;TYPE:External perimeter
G1 F1200
G1 X132.089 Y101.464 E.02388
G1 X132.566 Y100.87 E.02389
G1 X133.068 Y100.297 E.02388
G1 X133.595 Y99.747 E.02389
G1 X134.145 Y99.22 E.02389
G1 X134.718 Y98.718 E.02388
G1 X135.312 Y98.241 E.02388
G1 X135.926 Y97.79 E.02388
G1 X136.56 Y97.367 E.02389
G1 X137.211 Y96.972 E.02389
G1 X137.879 Y96.606 E.02388
G1 X138.562 Y96.269 E.02389
G1 X139.259 Y95.962 E.02389
G1 X139.969 Y95.686 E.02388
G1 X140.691 Y95.441 E.02389
G1 X141.422 Y95.228 E.02388
G1 X142.162 Y95.047 E.02389
G1 X142.909 Y94.898 E.02388
G1 X143.662 Y94.782 E.02389
G1 X144.419 Y94.699 E.02388
G1 X145.18 Y94.649 E.02389
G1 X145.933 Y94.633 E.02364
G1 X146.703 Y94.649 E.02413
G1 X147.463 Y94.699 E.02389
G1 X148.22 Y94.782 E.02389
G1 X148.973 Y94.898 E.02389
G1 X149.72 Y95.047 E.02388
G1 X150.46 Y95.228 E.02389
G1 X151.191 Y95.441 E.02388
G1 X151.913 Y95.686 E.02389
G1 X152.623 Y95.962 E.02388
G1 X153.32 Y96.269 E.02388
G1 X154.003 Y96.606 E.02389
G1 X154.671 Y96.972 E.02388
G1 X155.322 Y97.367 E.02389
G1 X155.949 Y97.786 E.02364
G1 X156.57 Y98.241 E.02413
G1 X157.164 Y98.718 E.02389
G1 X157.737 Y99.22 E.02388
G1 X158.287 Y99.747 E.02389
G1 X158.814 Y100.297 E.02389
G1 X159.316 Y100.87 E.02388
G1 X159.793 Y101.464 E.02388
G1 X160.244 Y102.078 E.02388
G1 X160.667 Y102.712 E.02389
G1 X161.062 Y103.363 E.02389
G1 X161.428 Y104.031 E.02388
G1 X161.765 Y104.714 E.02389
G1 X162.072 Y105.411 E.02389
G1 X162.348 Y106.121 E.02388
G1 X162.593 Y106.843 E.02389
G1 X162.806 Y107.574 E.02388
G1 X162.985 Y108.306 E.02364
G1 X163.136 Y109.061 E.02413
G1 X163.252 Y109.814 E.02389
G1 X163.335 Y110.571 E.02389
G1 X163.385 Y111.331 E.02389
G1 X163.401 Y112.093 E.02388
G1 X163.385 Y112.854 E.02389
G1 X163.335 Y113.615 E.02388
G1 X163.252 Y114.372 E.02389
G1 X163.136 Y115.125 E.02389
G1 X162.987 Y115.872 E.02388
G1 X162.806 Y116.612 E.02389
G1 X162.593 Y117.343 E.02388
G1 X162.348 Y118.065 E.02389
G1 X162.072 Y118.775 E.02388
G1 X161.765 Y119.472 E.02388
G1 X161.428 Y120.155 E.02389
G1 X161.062 Y120.823 E.02388
G1 X160.667 Y121.474 E.02389
G1 X160.248 Y122.101 E.02364
G1 X159.793 Y122.722 E.02413
G1 X159.316 Y123.316 E.02389
G1 X158.814 Y123.889 E.02388
G1 X158.287 Y124.439 E.02389
G1 X157.737 Y124.966 E.02389
G1 X157.164 Y125.468 E.02388
G1 X156.57 Y125.945 E.02388
G1 X155.956 Y126.395 E.02388
G1 X155.322 Y126.819 E.02389
G1 X154.671 Y127.214 E.02389
G1 X154.003 Y127.58 E.02388
G1 X153.32 Y127.917 E.02389
G1 X152.623 Y128.224 E.02389
G1 X151.913 Y128.5 E.02388
G1 X151.191 Y128.745 E.02389
G1 X150.46 Y128.958 E.02388
G1 X149.72 Y129.139 E.02389
G1 X148.973 Y129.288 E.02388
G1 X148.22 Y129.404 E.02389
G1 X147.463 Y129.487 E.02388
G1 X146.703 Y129.536 E.02389
G1 X145.941 Y129.553 E.02388
G1 X145.18 Y129.536 E.02389
G1 X144.419 Y129.487 E.02388
G1 X143.662 Y129.404 E.02389
G1 X142.909 Y129.288 E.02389
G1 X142.162 Y129.139 E.02388
G1 X141.422 Y128.958 E.02389
G1 X140.689 Y128.744 E.02393
G1 X139.614 Y128.362 E.03577
G1 X138.564 Y127.918 E.03577
G1 X137.879 Y127.58 E.02393
G1 X137.211 Y127.214 E.02388
G1 X136.56 Y126.819 E.02389
G1 X135.926 Y126.395 E.02388
G1 X135.312 Y125.945 E.02389
G1 X134.718 Y125.468 E.02389
G1 X134.145 Y124.966 E.02388
G1 X133.595 Y124.439 E.02389
G1 X133.068 Y123.889 E.02389
G1 X132.566 Y123.316 E.02388
G1 X132.089 Y122.722 E.02388
G1 X131.639 Y122.108 E.02388
G1 X131.215 Y121.474 E.02389
G1 X130.82 Y120.823 E.02389
G1 X130.454 Y120.155 E.02388
G1 X130.117 Y119.472 E.02389
G1 X129.81 Y118.775 E.02389
G1 X129.534 Y118.065 E.02388
G1 X129.289 Y117.343 E.02389
G1 X129.077 Y116.609 E.02396
G1 X128.752 Y115.127 E.04758
G1 X128.631 Y114.37 E.02402
G1 X128.564 Y113.599 E.02427
G1 X128.584 Y113.197 E.01261
G1 X128.689 Y112.449 E.02368
G1 X128.697 Y111.342 E.03473
G1 X128.746 Y110.601 E.02328
G1 X128.742 Y109.84 E.02386
G1 X128.928 Y108.718 E.03563
G1 X129.085 Y107.597 E.0355
G1 X129.289 Y106.845 E.02444
G1 X129.534 Y106.121 E.02395
G1 X129.811 Y105.41 E.02393
G1 X130.285 Y104.372 E.03577
G1 X130.819 Y103.364 E.03577
G1 X131.215 Y102.712 E.02393
G1 X131.605 Y102.128 E.022
M204 S1000
G1 X131.47 Y101.716 F10800
G1 X131.292 Y101.919
M204 S800
;TYPE:Perimeter
G1 F1200
G1 X130.897 Y102.509 E.02226
G1 X130.491 Y103.178 E.02454
G1 X129.947 Y104.205 E.03646
G1 X129.463 Y105.263 E.03646
G1 X129.18 Y105.992 E.02454
G1 X128.928 Y106.735 E.02457
G1 X128.837 Y107.071 E.01094
G1 X128.726 Y106.823 E.00854
G1 X128.536 Y106.523 E.01112
G1 X128.313 Y106.276 E.01042
G1 X128.065 Y106.079 E.00994
G1 X127.792 Y105.927 E.00981
G1 X127.539 Y105.835 E.00842
G1 X127.182 Y105.771 E.01136
G1 X126.83 Y105.771 E.01106
G1 X126.233 Y105.927 E.01934
G1 X125.966 Y106.157 E.01105
G1 X125.849 Y106.342 E.00685
G1 X125.767 Y106.421 E.00359
G1 X125.677 Y106.358 E.00345
G1 X125.547 Y106.202 E.00636
G1 X125.24 Y106 E.01151
G1 X124.557 Y105.89 E.02168
G1 X124.21 Y105.961 E.01112
G1 X123.787 Y106.143 E.01443
G1 X123.491 Y106.41 E.0125
G1 X123.85 Y105.128 E.04175
G1 X124.175 Y104.171 E.03169
G1 X124.542 Y103.229 E.03169
G1 X124.949 Y102.304 E.03169
G1 X125.396 Y101.398 E.03169
G1 X125.882 Y100.512 E.03169
G1 X126.406 Y99.648 E.03169
G1 X126.967 Y98.807 E.03169
G1 X127.565 Y97.992 E.03169
G1 X128.197 Y97.204 E.03169
G1 X128.864 Y96.444 E.03169
G1 X129.563 Y95.714 E.03169
G1 X130.293 Y95.016 E.03169
G1 X131.052 Y94.349 E.03169
G1 X131.841 Y93.717 E.03169
G1 X132.656 Y93.119 E.03169
G1 X133.496 Y92.558 E.03169
G1 X134.36 Y92.033 E.03169
G1 X135.246 Y91.547 E.03169
G1 X136.152 Y91.1 E.03169
G1 X137.077 Y90.693 E.03169
G1 X138.019 Y90.327 E.03169
G1 X138.976 Y90.002 E.03169
G1 X139.946 Y89.719 E.03169
G1 X140.928 Y89.479 E.03169
G1 X141.919 Y89.282 E.03169
G1 X142.918 Y89.128 E.03169
G1 X143.922 Y89.018 E.03169
G1 X144.931 Y88.952 E.03169
G1 X145.941 Y88.93 E.03169
G1 X146.951 Y88.952 E.03169
G1 X147.96 Y89.018 E.03169
G1 X148.964 Y89.128 E.03169
G1 X149.963 Y89.282 E.03169
G1 X150.954 Y89.479 E.03169
G1 X151.936 Y89.719 E.03169
G1 X152.906 Y90.002 E.03169
G1 X153.863 Y90.327 E.03169
G1 X154.805 Y90.693 E.03169
G1 X155.73 Y91.1 E.03169
G1 X156.636 Y91.547 E.03169
G1 X157.522 Y92.033 E.03169
G1 X158.386 Y92.558 E.03169
G1 X159.227 Y93.119 E.03169
G1 X160.042 Y93.717 E.03169
G1 X160.83 Y94.349 E.03169
G1 X161.59 Y95.016 E.03169
G1 X162.32 Y95.714 E.03169
G1 X163.018 Y96.444 E.03169
G1 X163.685 Y97.204 E.03169
G1 X164.317 Y97.992 E.03169
G1 X164.915 Y98.807 E.03169
G1 X165.476 Y99.648 E.03169
G1 X166.001 Y100.512 E.03169
G1 X166.487 Y101.398 E.03169
G1 X166.934 Y102.304 E.03169
G1 X167.341 Y103.229 E.03169
G1 X167.707 Y104.171 E.03169
G1 X168.032 Y105.128 E.03169
G1 X168.315 Y106.098 E.03169
G1 X168.555 Y107.08 E.03169
G1 X168.752 Y108.071 E.03169
G1 X168.906 Y109.07 E.03169
G1 X169.016 Y110.074 E.03169
G1 X169.075 Y110.98 E.02846
G1 X169.104 Y112.094 E.03495
G1 X169.082 Y113.103 E.03165
G1 X169.016 Y114.112 E.03169
G1 X168.906 Y115.116 E.03169
G1 X168.752 Y116.115 E.03169
G1 X168.555 Y117.106 E.03169
G1 X168.315 Y118.088 E.03169
G1 X168.032 Y119.058 E.03169
G1 X167.707 Y120.015 E.03169
G1 X167.341 Y120.957 E.03169
G1 X166.934 Y121.882 E.03169
G1 X166.487 Y122.788 E.03169
G1 X166.001 Y123.674 E.03169
G1 X165.476 Y124.538 E.03169
G1 X164.915 Y125.378 E.03169
G1 X164.317 Y126.193 E.03169
G1 X163.685 Y126.982 E.03169
G1 X163.018 Y127.741 E.03169
G1 X162.32 Y128.471 E.03169
G1 X161.59 Y129.17 E.03169
G1 X160.83 Y129.837 E.03169
G1 X160.042 Y130.469 E.03169
G1 X159.227 Y131.067 E.03169
G1 X158.386 Y131.628 E.03169
G1 X157.522 Y132.152 E.03169
G1 X156.636 Y132.638 E.03169
G1 X155.73 Y133.085 E.03169
G1 X154.805 Y133.492 E.03169
G1 X153.863 Y133.859 E.03169
G1 X152.906 Y134.184 E.03169
G1 X151.936 Y134.466 E.03169
G1 X150.954 Y134.707 E.03169
G1 X149.963 Y134.904 E.03169
G1 X148.964 Y135.057 E.03169
G1 X147.96 Y135.167 E.03169
G1 X146.951 Y135.234 E.03169
G1 X145.941 Y135.256 E.03169
G1 X144.931 Y135.234 E.03169
G1 X143.922 Y135.167 E.03169
G1 X142.918 Y135.057 E.03169
G1 X141.919 Y134.904 E.03169
G1 X140.928 Y134.707 E.03169
G1 X139.946 Y134.466 E.03169
G1 X138.976 Y134.184 E.03169
G1 X138.019 Y133.859 E.03169
G1 X137.077 Y133.492 E.03169
G1 X136.152 Y133.085 E.03169
G1 X135.246 Y132.638 E.03169
G1 X134.36 Y132.152 E.03169
G1 X133.496 Y131.628 E.03169
G1 X132.656 Y131.067 E.03169
G1 X131.841 Y130.469 E.03169
G1 X131.052 Y129.837 E.03169
G1 X130.293 Y129.17 E.03169
G1 X129.563 Y128.471 E.03169
G1 X128.864 Y127.741 E.03169
G1 X128.197 Y126.982 E.03169
G1 X127.565 Y126.193 E.03169
G1 X126.967 Y125.378 E.03169
G1 X126.406 Y124.538 E.03169
G1 X125.882 Y123.674 E.03169
G1 X125.396 Y122.788 E.03169
G1 X124.949 Y121.882 E.03169
G1 X124.542 Y120.957 E.03169
G1 X124.175 Y120.014 E.03171
G1 X123.686 Y118.605 E.04677
G1 X124.191 Y118.661 E.01591
G1 X124.718 Y118.69 E.01656
G1 X128.993 Y118.696 E.13404
G1 X128.992 Y117.64 E.03311
G1 X129.18 Y118.194 E.01834
G1 X129.462 Y118.919 E.0244
G1 X129.775 Y119.631 E.0244
G1 X130.119 Y120.329 E.0244
G1 X130.494 Y121.012 E.0244
G1 X130.897 Y121.677 E.0244
G1 X131.33 Y122.324 E.0244
G1 X131.79 Y122.952 E.0244
G1 X132.277 Y123.558 E.0244
G1 X132.79 Y124.144 E.0244
G1 X133.328 Y124.706 E.0244
G1 X133.89 Y125.244 E.0244
G1 X134.476 Y125.757 E.0244
G1 X135.082 Y126.244 E.0244
G1 X135.71 Y126.704 E.0244
G1 X136.357 Y127.137 E.0244
G1 X137.022 Y127.54 E.0244
G1 X137.705 Y127.915 E.0244
G1 X138.407 Y128.261 E.02453
G1 X139.478 Y128.714 E.03646
G1 X140.573 Y129.103 E.03646
G1 X141.324 Y129.322 E.02453
G1 X142.08 Y129.507 E.0244
G1 X142.844 Y129.659 E.0244
G1 X143.613 Y129.778 E.0244
G1 X144.386 Y129.862 E.0244
G1 X145.163 Y129.913 E.0244
G1 X145.941 Y129.93 E.0244
G1 X146.719 Y129.913 E.0244
G1 X147.496 Y129.862 E.0244
G1 X148.269 Y129.778 E.0244
G1 X149.039 Y129.659 E.0244
G1 X149.802 Y129.507 E.0244
G1 X150.558 Y129.322 E.0244
G1 X151.305 Y129.105 E.0244
G1 X152.042 Y128.854 E.0244
G1 X152.767 Y128.572 E.0244
G1 X153.479 Y128.259 E.0244
G1 X154.177 Y127.915 E.0244
G1 X154.86 Y127.54 E.0244
G1 X155.525 Y127.137 E.0244
G1 X156.172 Y126.704 E.0244
G1 X156.8 Y126.244 E.0244
G1 X157.407 Y125.757 E.0244
G1 X157.992 Y125.244 E.0244
G1 X158.554 Y124.706 E.0244
G1 X159.092 Y124.144 E.0244
G1 X159.605 Y123.558 E.0244
G1 X160.092 Y122.951 E.02441
G1 X160.557 Y122.317 E.02464
G1 X160.985 Y121.677 E.02415
G1 X161.389 Y121.012 E.0244
G1 X161.763 Y120.329 E.0244
G1 X162.107 Y119.631 E.0244
G1 X162.421 Y118.919 E.0244
G1 X162.703 Y118.194 E.0244
G1 X162.953 Y117.457 E.0244
G1 X163.171 Y116.71 E.0244
G1 X163.356 Y115.954 E.0244
G1 X163.507 Y115.19 E.0244
G1 X163.626 Y114.421 E.0244
G1 X163.71 Y113.647 E.0244
G1 X163.761 Y112.871 E.0244
G1 X163.778 Y112.093 E.0244
G1 X163.761 Y111.315 E.0244
G1 X163.71 Y110.538 E.0244
G1 X163.626 Y109.765 E.0244
G1 X163.507 Y108.995 E.02441
G1 X163.354 Y108.225 E.02464
G1 X163.171 Y107.476 E.02415
G1 X162.953 Y106.729 E.0244
G1 X162.703 Y105.992 E.0244
G1 X162.421 Y105.267 E.0244
G1 X162.107 Y104.555 E.0244
G1 X161.763 Y103.857 E.0244
G1 X161.389 Y103.174 E.0244
G1 X160.985 Y102.509 E.0244
G1 X160.553 Y101.862 E.0244
G1 X160.092 Y101.234 E.0244
G1 X159.605 Y100.627 E.0244
G1 X159.092 Y100.042 E.0244
G1 X158.554 Y99.48 E.0244
G1 X157.992 Y98.942 E.0244
G1 X157.407 Y98.429 E.0244
G1 X156.8 Y97.942 E.02441
G1 X156.166 Y97.477 E.02464
G1 X155.525 Y97.049 E.02415
G1 X154.86 Y96.645 E.0244
G1 X154.177 Y96.271 E.0244
G1 X153.479 Y95.927 E.0244
G1 X152.767 Y95.613 E.0244
G1 X152.042 Y95.331 E.0244
G1 X151.305 Y95.081 E.0244
G1 X150.558 Y94.863 E.0244
G1 X149.802 Y94.678 E.0244
G1 X149.039 Y94.527 E.0244
G1 X148.269 Y94.408 E.0244
G1 X147.496 Y94.323 E.0244
G1 X146.719 Y94.273 E.0244
G1 X145.933 Y94.256 E.02465
G1 X145.163 Y94.273 E.02415
G1 X144.386 Y94.323 E.0244
G1 X143.613 Y94.408 E.0244
G1 X142.844 Y94.527 E.0244
G1 X142.08 Y94.678 E.0244
G1 X141.324 Y94.863 E.0244
G1 X140.577 Y95.081 E.0244
G1 X139.84 Y95.331 E.0244
G1 X139.115 Y95.613 E.0244
G1 X138.403 Y95.927 E.0244
G1 X137.705 Y96.271 E.0244
G1 X137.022 Y96.645 E.0244
G1 X136.357 Y97.049 E.0244
G1 X135.71 Y97.481 E.0244
G1 X135.082 Y97.942 E.0244
G1 X134.476 Y98.429 E.0244
G1 X133.89 Y98.942 E.0244
G1 X133.328 Y99.48 E.0244
G1 X132.79 Y100.042 E.0244
G1 X132.277 Y100.627 E.0244
G1 X131.79 Y101.234 E.0244
G1 X131.325 Y101.869 E.02466
M204 S1000
;WIPE_START
G1 F8640
G1 X130.897 Y102.509 E-.1778
G1 X130.491 Y103.178 E-.18069
G1 X129.947 Y104.205 E-.2685
G1 X129.707 Y104.729 E-.13301
;WIPE_END
G1 E-.04 F2100
G1 Z.6 F720
