; generated by PrusaSlicer 2.4.2+win64 on 2023-02-22 at 19:01:11 UTC

; 

; external perimeters extrusion width = 0.45mm
; perimeters extrusion width = 0.45mm
; infill extrusion width = 0.45mm
; solid infill extrusion width = 0.45mm
; top infill extrusion width = 0.40mm
; first layer extrusion width = 0.42mm

M73 P0 R93
M73 Q0 S93
M201 X1000 Y1000 Z200 E5000 ; sets maximum accelerations, mm/sec^2
M203 X200 Y200 Z12 E120 ; sets maximum feedrates, mm / sec
M204 P1250 R1250 T1250 ; sets acceleration (P, T) and retract acceleration (R), mm/sec^2
M205 X8.00 Y8.00 Z0.40 E4.50 ; sets the jerk limits, mm/sec
M205 S0 T0 ; sets the minimum extruding and travel feed rate, mm/sec
M107
;TYPE:Custom
M862.3 P "MK3S" ; printer model check
M862.1 P0.4 ; nozzle diameter check
M115 U3.10.1 ; tell printer latest fw version
G90 ; use absolute coordinates
M83 ; extruder relative mode
M104 S215 ; set extruder temp
M140 S55 ; set bed temp
M190 S55 ; wait for bed temp
M109 S215 ; wait for extruder temp
G28 W ; home all without mesh bed level
G80 ; mesh bed leveling
G1 Z0.2 F720
G1 Y-3 F1000 ; go outside print area
G92 E0
G1 X60 E9 F1000 ; intro line
G1 X100 E12.5 F1000 ; intro line
G92 E0
M221 S95

; Don't change E values below. Excessive value can damage the printer.
M907 E430 ; set extruder motor current
G21 ; set units to millimeters
G90 ; use absolute coordinates
M83 ; use relative distances for extrusion
M900 K0.05 ; Filament gcode LA 1.5
M900 K30 ; Filament gcode LA 1.0
M107
;LAYER_CHANGE
;Z:0.2
;HEIGHT:0.2
;BEFORE_LAYER_CHANGE
G92 E0.0
;0.2


G1 E-.8 F2100
G1 Z.4 F720
;AFTER_LAYER_CHANGE
;0.2
G1 X109.06 Y101.798 F10800
G1 Z.2 F720
G1 E.8 F2100
M204 S800
;TYPE:Skirt/Brim
;WIDTH:0.42
G1 F1200
G1 X111.255 Y99.801 E.09306
G1 X113.897 Y97.849 E.10298
G1 X116.55 Y96.278 E.09668
G1 X119.025 Y95.116 E.08572
G1 X121.793 Y94.115 E.0923
G1 X124.997 Y93.314 E.10356
G1 X128.055 Y92.874 E.09686
G1 X130.994 Y92.745 E.09224
G1 X134.324 Y92.94 E.10459
G1 X137.444 Y93.45 E.09911
G1 X138.967 Y93.824 E.04917
G1 X140.828 Y94.396 E.06105
G1 X143.792 Y95.577 E.10005
G1 X146.881 Y97.224 E.10975
G1 X149.532 Y99.025 E.10047
G1 X152.182 Y101.291 E.10933
G1 X154.391 Y103.63 E.10089
G1 X156.482 Y106.404 E.10891
G1 X158.142 Y109.176 E.10131
G1 X159.58 Y112.323 E.10848
G1 X160.607 Y115.401 E.10174
G1 X160.969 Y116.858 E.04707
G1 X161.267 Y118.571 E.05452
G1 X161.267 Y128.571 E.31354
G1 X161.092 Y129.689 E.03547
G1 X160.649 Y131.584 E.06104
G1 X159.842 Y134.137 E.08394
G1 X158.799 Y136.647 E.08522
G1 X157.579 Y138.984 E.08266
G1 X156.119 Y141.275 E.08519
G1 X154.488 Y143.397 E.08392
G1 X152.679 Y145.37 E.08393
G1 X150.706 Y147.179 E.08392
G1 X148.446 Y148.905 E.08916
G1 X146.177 Y150.336 E.08411
G1 X143.792 Y151.565 E.08411
G1 X141.31 Y152.581 E.08411
G1 X138.748 Y153.378 E.08411
G1 X136.127 Y153.949 E.08411
G1 X133.466 Y154.289 E.08411
G1 X130.786 Y154.398 E.08411
G1 X128.055 Y154.268 E.08572
G1 X124.979 Y153.825 E.09743
G1 X121.793 Y153.026 E.10298
G1 X119.025 Y152.026 E.0923
G1 X116.55 Y150.863 E.08572
G1 X113.897 Y149.293 E.09668
G1 X111.255 Y147.341 E.10298
G1 X109.06 Y145.344 E.09306
G1 X107.216 Y143.325 E.08572
G1 X105.377 Y140.881 E.09592
G1 X103.679 Y138.069 E.10299
G1 X102.4 Y135.363 E.09381
G1 X101.371 Y132.474 E.09618
G1 X100.587 Y129.259 E.10375
G1 X100.175 Y126.277 E.09441
G1 X100.056 Y123.545 E.08572
G1 X100.207 Y120.533 E.09457
G1 X100.705 Y117.286 E.10299
G1 X101.468 Y114.348 E.09516
G1 X102.4 Y111.778 E.08572
G1 X103.679 Y109.073 E.09381
G1 X105.377 Y106.261 E.10299
G1 X107.216 Y103.817 E.09592
G1 X109.019 Y101.842 E.08384
M204 S1000
; printing object TLG_ED.stl id:0 copy 0
;WIPE_START
G1 F8640
G1 X111.255 Y99.801 E-.69912
G1 X111.467 Y99.644 E-.06088
;WIPE_END
G1 E-.04 F2100
G1 Z.6 F720
G1 X147.633 Y118.61 F10800
G1 Z.2 F720
G1 E.8 F2100
M204 S800
;TYPE:Perimeter
G1 F1200
G1 X154.662 Y118.61 E.22037
G1 X154.66 Y121.648 E.09526
G1 X154.621 Y123.113 E.04597
G1 X154.66 Y124.525 E.04429
G1 X154.647 Y125.805 E.04014
G1 X154.57 Y126.36 E.01757
G1 X154.395 Y126.962 E.01965
G1 X154.272 Y127.241 E.00954
G1 X154.077 Y127.582 E.01233
G1 X153.846 Y127.888 E.01202
G1 X153.564 Y128.174 E.0126
G1 X153.271 Y128.405 E.01171
G1 X152.951 Y128.597 E.0117
G1 X152.597 Y128.754 E.01214
G1 X152.198 Y128.876 E.01306
G1 X151.745 Y128.956 E.01444
G1 X151.387 Y128.983 E.01125
G1 X150.992 Y128.983 E.01237
G1 X150.61 Y128.953 E.01204
G1 X149.977 Y128.826 E.02022
G1 X149.679 Y128.724 E.00987
G1 X149.322 Y128.558 E.01236
G1 X149.092 Y128.42 E.00841
G1 X148.801 Y128.201 E.01142
G1 X148.559 Y127.968 E.01054
G1 X148.318 Y127.675 E.01189
G1 X148.114 Y127.353 E.01194
G1 X147.989 Y127.1 E.00886
G1 X147.838 Y126.7 E.01338
G1 X147.751 Y126.375 E.01055
G1 X147.664 Y125.833 E.01721
G1 X147.636 Y125.388 E.01398
G1 X147.636 Y124.438 E.02979
G1 X147.674 Y123.127 E.04111
G1 X147.635 Y121.648 E.04641
G1 X147.633 Y118.67 E.09338
M204 S1000
G1 X148.011 Y118.987 F10800
M204 S800
;TYPE:External perimeter
G1 F1200
G1 X154.284 Y118.987 E.19671
G1 X154.283 Y121.643 E.08327
G1 X154.249 Y122.917 E.03998
G1 X152.549 Y122.917 E.05329
G1 X152.52 Y120.963 E.06127
G1 X152.139 Y120.963 E.01193
G1 X152.139 Y122.81 E.05789
G1 X150.372 Y122.81 E.05542
G1 X150.372 Y120.963 E.05789
G1 X149.782 Y120.963 E.01848
G1 X149.753 Y122.917 E.06127
G1 X148.046 Y122.917 E.05351
G1 X148.012 Y121.643 E.03998
G1 X148.011 Y119.047 E.08139
M204 S1000
G1 X148.009 Y118.587 F10800
;WIPE_START
G1 F8640
G1 X151.302 Y119.015 E-.76
;WIPE_END
G1 E-.04 F2100
G1 Z.6 F720
G1 X148.047 Y123.294 F10800
G1 Z.2 F720
G1 E.8 F2100
M204 S800
G1 F1200
G1 X149.41 Y123.294 E.04275
G1 X150.898 Y123.265 E.04667
G1 X154.249 Y123.296 E.10505
G1 X154.283 Y124.528 E.03865
G1 X154.27 Y125.777 E.03917
G1 X154.2 Y126.282 E.01595
G1 X154.04 Y126.833 E.01801
G1 X153.935 Y127.07 E.00814
G1 X153.761 Y127.374 E.01095
G1 X153.559 Y127.641 E.01051
G1 X153.312 Y127.893 E.01107
G1 X153.056 Y128.094 E.0102
G1 X152.776 Y128.262 E.01023
G1 X152.465 Y128.4 E.01069
G1 X152.11 Y128.508 E.01163
G1 X151.697 Y128.581 E.01314
G1 X151.373 Y128.606 E.01021
G1 X151.007 Y128.606 E.01146
G1 X150.661 Y128.579 E.01087
G1 X150.076 Y128.461 E.01873
G1 X149.82 Y128.374 E.00847
G1 X149.499 Y128.225 E.0111
G1 X149.303 Y128.107 E.00716
G1 X149.046 Y127.913 E.0101
G1 X148.836 Y127.711 E.00914
G1 X148.624 Y127.454 E.01045
G1 X148.444 Y127.168 E.01061
G1 X148.335 Y126.949 E.00766
G1 X148.198 Y126.585 E.01219
G1 X148.121 Y126.296 E.00937
G1 X148.039 Y125.791 E.01605
G1 X148.013 Y125.376 E.01303
G1 X148.013 Y124.444 E.02924
G1 X148.045 Y123.354 E.03417
M204 S1000
G1 X148.049 Y122.894 F10800
;WIPE_START
G1 F8640
G1 X149.41 Y123.294 E-.31556
G1 X150.898 Y123.265 E-.34373
G1 X151.335 Y123.269 E-.10072
;WIPE_END
G1 E-.04 F2100
G1 Z.6 F720
G1 X145.313 Y117.557 F10800
G1 Z.2 F720
G1 E.8 F2100
M204 S800
;TYPE:Perimeter
G1 F1200
G1 X145.583 Y118.238 E.02296
G1 X145.801 Y118.884 E.02137
G1 X146.004 Y119.589 E.02299
G1 X146.183 Y120.345 E.02436
G1 X146.386 Y121.532 E.03777
G1 X146.461 Y122.213 E.02147
G1 X146.505 Y122.891 E.02132
G1 X146.52 Y123.571 E.02132
G1 X146.505 Y124.251 E.02132
G1 X146.461 Y124.929 E.02132
G1 X146.386 Y125.61 E.02147
G1 X146.183 Y126.797 E.03777
G1 X146.004 Y127.553 E.02436
G1 X145.801 Y128.258 E.02299
G1 X145.583 Y128.903 E.02137
G1 X145.313 Y129.584 E.02296
G1 X145.299 Y136.58 E.21933
G1 X145.248 Y137.298 E.02258
G1 X145.094 Y138.455 E.03658
G1 X144.97 Y139.078 E.01993
G1 X144.821 Y139.689 E.01974
G1 X144.645 Y140.294 E.01974
G1 X144.442 Y140.89 E.01974
G1 X144.214 Y141.477 E.01974
G1 X143.961 Y142.053 E.01974
G1 X143.682 Y142.618 E.01974
G1 X143.379 Y143.17 E.01974
G1 X143.053 Y143.708 E.01974
G1 X142.703 Y144.231 E.01974
G1 X142.331 Y144.739 E.01974
G1 X141.937 Y145.23 E.01974
G1 X141.521 Y145.703 E.01974
G1 X141.086 Y146.158 E.01974
G1 X140.631 Y146.594 E.01974
G1 X140.158 Y147.009 E.01974
G1 X139.666 Y147.404 E.01979
G1 X139.088 Y147.823 E.0224
G1 X138.103 Y148.449 E.03658
G1 X137.546 Y148.754 E.01993
G1 X136.981 Y149.033 E.01974
G1 X136.405 Y149.286 E.01974
G1 X135.818 Y149.514 E.01974
G1 X135.222 Y149.717 E.01974
G1 X134.617 Y149.893 E.01974
G1 X134.006 Y150.043 E.01974
G1 X133.388 Y150.165 E.01974
G1 X132.765 Y150.261 E.01979
G1 X132.054 Y150.336 E.0224
G1 X130.884 Y150.385 E.03671
G1 X129.939 Y150.351 E.02966
G1 X129.003 Y150.262 E.02947
G1 X128.377 Y150.165 E.01987
G1 X127.759 Y150.043 E.01974
G1 X127.148 Y149.893 E.01974
G1 X126.543 Y149.717 E.01974
G1 X125.947 Y149.514 E.01974
G1 X125.356 Y149.285 E.01987
G1 X124.502 Y148.894 E.02947
G1 X123.671 Y148.454 E.02947
G1 X123.129 Y148.125 E.01987
G1 X122.606 Y147.775 E.01974
G1 X122.098 Y147.403 E.01974
G1 X121.607 Y147.009 E.01974
G1 X121.134 Y146.594 E.01974
G1 X120.679 Y146.158 E.01974
G1 X120.244 Y145.703 E.01974
G1 X119.829 Y145.23 E.01974
G1 X119.434 Y144.739 E.01974
G1 X119.062 Y144.231 E.01974
G1 X118.712 Y143.708 E.01974
G1 X118.386 Y143.17 E.01974
G1 X118.083 Y142.618 E.01974
G1 X117.805 Y142.053 E.01974
G1 X117.551 Y141.477 E.01974
G1 X117.323 Y140.89 E.01974
G1 X117.12 Y140.294 E.01974
G1 X116.944 Y139.689 E.01974
G1 X116.795 Y139.078 E.01974
G1 X116.672 Y138.46 E.01974
G1 X116.576 Y137.838 E.01974
G1 X116.507 Y137.212 E.01974
G1 X116.466 Y136.578 E.01993
G1 X116.452 Y129.584 E.21928
G1 X116.183 Y128.903 E.02296
G1 X115.964 Y128.258 E.02137
G1 X115.761 Y127.553 E.02299
G1 X115.582 Y126.797 E.02436
G1 X115.379 Y125.61 E.03777
G1 X115.304 Y124.929 E.02147
G1 X115.26 Y124.251 E.02132
G1 X115.245 Y123.571 E.02132
G1 X115.26 Y122.891 E.02132
G1 X115.304 Y122.213 E.02132
G1 X115.379 Y121.532 E.02147
G1 X115.582 Y120.344 E.03778
G1 X115.766 Y119.57 E.02495
G1 X115.964 Y118.884 E.02241
G1 X116.183 Y118.238 E.02136
G1 X116.453 Y117.553 E.0231
G1 X116.466 Y110.562 E.2192
G1 X116.517 Y109.844 E.02258
G1 X116.671 Y108.687 E.03658
G1 X116.795 Y108.064 E.01993
G1 X116.944 Y107.452 E.01974
G1 X117.12 Y106.848 E.01974
G1 X117.323 Y106.252 E.01974
G1 X117.551 Y105.665 E.01974
G1 X117.805 Y105.089 E.01974
G1 X118.083 Y104.524 E.01974
G1 X118.386 Y103.972 E.01974
G1 X118.712 Y103.434 E.01974
G1 X119.062 Y102.91 E.01974
G1 X119.434 Y102.403 E.01974
G1 X119.829 Y101.912 E.01974
G1 X120.244 Y101.438 E.01974
G1 X120.679 Y100.984 E.01974
G1 X121.134 Y100.548 E.01974
G1 X121.607 Y100.133 E.01974
G1 X122.099 Y99.738 E.01979
G1 X122.677 Y99.319 E.0224
G1 X123.662 Y98.693 E.03658
G1 X124.22 Y98.388 E.01993
G1 X124.784 Y98.109 E.01974
G1 X125.36 Y97.856 E.01974
G1 X125.947 Y97.627 E.01974
G1 X126.543 Y97.425 E.01974
G1 X127.148 Y97.249 E.01974
G1 X127.759 Y97.099 E.01974
G1 X128.377 Y96.976 E.01974
G1 X128.999 Y96.881 E.01974
G1 X129.629 Y96.812 E.01988
G1 X130.605 Y96.763 E.03063
G1 X131.508 Y96.771 E.02831
G1 X132.14 Y96.812 E.01986
G1 X132.766 Y96.881 E.01974
G1 X133.388 Y96.976 E.01974
G1 X134.006 Y97.099 E.01974
G1 X134.617 Y97.249 E.01974
G1 X135.222 Y97.425 E.01974
G1 X135.818 Y97.627 E.01974
G1 X136.409 Y97.857 E.01987
G1 X137.263 Y98.248 E.02947
G1 X138.094 Y98.688 E.02947
G1 X138.636 Y99.017 E.01987
G1 X139.159 Y99.367 E.01974
G1 X139.667 Y99.739 E.01974
G1 X140.158 Y100.133 E.01974
G1 X140.631 Y100.548 E.01974
G1 X141.086 Y100.984 E.01974
G1 X141.521 Y101.438 E.01974
G1 X141.937 Y101.912 E.01974
G1 X142.331 Y102.403 E.01974
G1 X142.703 Y102.91 E.01974
G1 X143.053 Y103.434 E.01974
G1 X143.379 Y103.972 E.01974
G1 X143.682 Y104.524 E.01974
G1 X143.961 Y105.089 E.01974
G1 X144.214 Y105.665 E.01974
G1 X144.442 Y106.252 E.01974
G1 X144.645 Y106.848 E.01974
G1 X144.821 Y107.452 E.01974
G1 X144.97 Y108.064 E.01974
G1 X145.093 Y108.681 E.01974
G1 X145.189 Y109.304 E.01974
G1 X145.258 Y109.93 E.01974
G1 X145.299 Y110.564 E.01993
G1 X145.313 Y117.497 E.2174
M204 S1000
G1 X144.936 Y117.63 F10800
M204 S800
;TYPE:External perimeter
G1 F1200
G1 X145.228 Y118.368 E.0249
G1 X145.441 Y118.997 E.02081
G1 X145.639 Y119.684 E.02244
G1 X145.814 Y120.42 E.0237
G1 X146.013 Y121.584 E.03704
G1 X146.085 Y122.246 E.02086
G1 X146.128 Y122.908 E.0208
G1 X146.143 Y123.571 E.0208
G1 X146.128 Y124.234 E.0208
G1 X146.085 Y124.896 E.0208
G1 X146.013 Y125.558 E.02086
G1 X145.814 Y126.722 E.03704
G1 X145.639 Y127.457 E.0237
G1 X145.441 Y128.145 E.02244
G1 X145.228 Y128.774 E.02081
G1 X144.936 Y129.512 E.0249
G1 X144.922 Y136.566 E.22117
G1 X144.873 Y137.26 E.02181
G1 X144.722 Y138.393 E.03583
G1 X144.602 Y138.996 E.01929
G1 X144.457 Y139.592 E.01922
G1 X144.285 Y140.18 E.01922
G1 X144.088 Y140.761 E.01922
G1 X143.866 Y141.332 E.01922
G1 X143.619 Y141.894 E.01922
G1 X143.348 Y142.444 E.01922
G1 X143.053 Y142.981 E.01922
G1 X142.735 Y143.505 E.01922
G1 X142.394 Y144.015 E.01922
G1 X142.031 Y144.509 E.01922
G1 X141.648 Y144.988 E.01922
G1 X141.243 Y145.449 E.01922
G1 X140.819 Y145.892 E.01922
G1 X140.376 Y146.316 E.01922
G1 X139.916 Y146.72 E.01922
G1 X139.437 Y147.104 E.01924
G1 X138.876 Y147.511 E.02174
G1 X137.911 Y148.124 E.03584
G1 X137.371 Y148.42 E.01929
G1 X136.822 Y148.691 E.01922
G1 X136.26 Y148.938 E.01922
G1 X135.689 Y149.16 E.01922
G1 X135.108 Y149.357 E.01923
G1 X134.52 Y149.529 E.01922
G1 X133.924 Y149.674 E.01922
G1 X133.323 Y149.794 E.01922
G1 X132.716 Y149.887 E.01924
G1 X132.027 Y149.959 E.02174
G1 X130.883 Y150.008 E.03588
G1 X129.964 Y149.974 E.02885
G1 X129.05 Y149.888 E.02878
G1 X128.442 Y149.794 E.01927
G1 X127.841 Y149.674 E.01922
G1 X127.245 Y149.529 E.01922
G1 X126.657 Y149.357 E.01922
G1 X126.076 Y149.16 E.01923
G1 X125.503 Y148.937 E.01927
G1 X124.669 Y148.555 E.02878
G1 X123.857 Y148.126 E.02878
G1 X123.332 Y147.807 E.01927
G1 X122.822 Y147.466 E.01922
G1 X122.328 Y147.104 E.01922
G1 X121.85 Y146.72 E.01922
G1 X121.389 Y146.316 E.01922
G1 X120.946 Y145.892 E.01922
G1 X120.522 Y145.449 E.01922
G1 X120.117 Y144.988 E.01923
G1 X119.734 Y144.51 E.01922
G1 X119.371 Y144.015 E.01922
G1 X119.031 Y143.505 E.01922
G1 X118.712 Y142.981 E.01922
G1 X118.418 Y142.444 E.01922
G1 X118.146 Y141.894 E.01922
G1 X117.899 Y141.332 E.01922
G1 X117.677 Y140.761 E.01922
G1 X117.48 Y140.18 E.01922
G1 X117.309 Y139.592 E.01922
G1 X117.163 Y138.996 E.01922
G1 X117.043 Y138.395 E.01922
G1 X116.95 Y137.789 E.01922
G1 X116.883 Y137.179 E.01922
G1 X116.843 Y136.565 E.0193
G1 X116.829 Y129.512 E.22114
G1 X116.537 Y128.774 E.0249
G1 X116.324 Y128.145 E.02081
G1 X116.126 Y127.457 E.02244
G1 X115.951 Y126.722 E.0237
G1 X115.752 Y125.558 E.03704
G1 X115.68 Y124.896 E.02086
G1 X115.637 Y124.234 E.0208
G1 X115.622 Y123.571 E.0208
G1 X115.637 Y122.908 E.0208
G1 X115.68 Y122.246 E.0208
G1 X115.752 Y121.584 E.02086
G1 X115.951 Y120.42 E.03704
G1 X116.13 Y119.666 E.02428
G1 X116.324 Y118.997 E.02186
G1 X116.537 Y118.368 E.02081
G1 X116.83 Y117.625 E.02504
G1 X116.843 Y110.576 E.22103
G1 X116.892 Y109.882 E.02181
G1 X117.043 Y108.749 E.03583
G1 X117.163 Y108.146 E.01929
G1 X117.309 Y107.55 E.01922
G1 X117.48 Y106.961 E.01922
G1 X117.677 Y106.381 E.01922
G1 X117.899 Y105.809 E.01922
G1 X118.146 Y105.248 E.01922
G1 X118.418 Y104.698 E.01922
G1 X118.712 Y104.161 E.01922
G1 X119.031 Y103.637 E.01922
G1 X119.371 Y103.127 E.01922
G1 X119.734 Y102.632 E.01922
G1 X120.117 Y102.154 E.01922
G1 X120.522 Y101.693 E.01922
G1 X120.946 Y101.25 E.01922
G1 X121.389 Y100.826 E.01922
G1 X121.85 Y100.422 E.01922
G1 X122.328 Y100.038 E.01924
G1 X122.889 Y99.631 E.02174
G1 X123.854 Y99.018 E.03584
G1 X124.394 Y98.722 E.01929
G1 X124.944 Y98.451 E.01922
G1 X125.505 Y98.204 E.01922
G1 X126.076 Y97.982 E.01922
G1 X126.657 Y97.785 E.01923
G1 X127.245 Y97.613 E.01922
G1 X127.841 Y97.467 E.01922
G1 X128.442 Y97.348 E.01922
G1 X129.048 Y97.255 E.01922
G1 X129.659 Y97.188 E.01928
G1 X130.613 Y97.14 E.02994
G1 X131.494 Y97.148 E.02762
G1 X132.107 Y97.188 E.01927
G1 X132.717 Y97.255 E.01922
G1 X133.323 Y97.348 E.01922
G1 X133.924 Y97.467 E.01922
G1 X134.52 Y97.613 E.01922
G1 X135.108 Y97.785 E.01922
G1 X135.689 Y97.982 E.01923
G1 X136.262 Y98.205 E.01927
G1 X137.096 Y98.586 E.02878
G1 X137.908 Y99.016 E.02878
G1 X138.433 Y99.335 E.01927
G1 X138.943 Y99.676 E.01922
G1 X139.437 Y100.038 E.01922
G1 X139.916 Y100.422 E.01922
G1 X140.376 Y100.826 E.01922
G1 X140.819 Y101.25 E.01922
G1 X141.243 Y101.693 E.01922
G1 X141.648 Y102.154 E.01923
G1 X142.031 Y102.632 E.01922
