; generated by PrusaSlicer 2.4.2+win64 on 2023-02-28 at 19:27:16 UTC

; 

; external perimeters extrusion width = 0.45mm
; perimeters extrusion width = 0.45mm
; infill extrusion width = 0.45mm
; solid infill extrusion width = 0.45mm
; top infill extrusion width = 0.40mm
; first layer extrusion width = 0.42mm

M73 P0 R115
M73 Q0 S116
M201 X1000 Y1000 Z200 E5000 ; sets maximum accelerations, mm/sec^2
M203 X200 Y200 Z12 E120 ; sets maximum feedrates, mm / sec
M204 P1250 R1250 T1250 ; sets acceleration (P, T) and retract acceleration (R), mm/sec^2
M205 X8.00 Y8.00 Z0.40 E4.50 ; sets the jerk limits, mm/sec
M205 S0 T0 ; sets the minimum extruding and travel feed rate, mm/sec
M107
;TYPE:Custom
M862.3 P "MK3S" ; printer model check
M862.1 P0.4 ; nozzle diameter check
M115 U3.10.1 ; tell printer latest fw version
G90 ; use absolute coordinates
M83 ; extruder relative mode
M104 S215 ; set extruder temp
M140 S55 ; set bed temp
M190 S55 ; wait for bed temp
M109 S215 ; wait for extruder temp
G28 W ; home all without mesh bed level
G80 ; mesh bed leveling
G1 Z0.2 F720
G1 Y-3 F1000 ; go outside print area
G92 E0
G1 X60 E9 F1000 ; intro line
G1 X100 E12.5 F1000 ; intro line
G92 E0
M221 S95

; Don't change E values below. Excessive value can damage the printer.
M907 E430 ; set extruder motor current
G21 ; set units to millimeters
G90 ; use absolute coordinates
M83 ; use relative distances for extrusion
M900 K0.05 ; Filament gcode LA 1.5
M900 K30 ; Filament gcode LA 1.0
M107
;LAYER_CHANGE
;Z:0.2
;HEIGHT:0.2
;BEFORE_LAYER_CHANGE
G92 E0.0
;0.2


G1 E-.8 F2100
M73 Q0 S115
G1 Z.4 F720
;AFTER_LAYER_CHANGE
;0.2
G1 X133.401 Y93.165 F10800
G1 Z.2 F720
G1 E.8 F2100
M204 S800
;TYPE:Skirt/Brim
;WIDTH:0.42
G1 F1200
G1 X135.24 Y90.721 E.09592
G1 X137.083 Y88.701 E.08572
G1 X139.279 Y86.705 E.09306
G1 X141.92 Y84.752 E.10298
G1 X144.574 Y83.182 E.09668
G1 X147.048 Y82.019 E.08572
G1 X149.817 Y81.019 E.0923
G1 X153.021 Y80.217 E.10356
G1 X156.079 Y79.777 E.09686
G1 X159.018 Y79.648 E.09224
G1 X162.348 Y79.843 E.10459
G1 X165.468 Y80.354 E.09911
G1 X166.991 Y80.727 E.04917
G1 X168.852 Y81.299 E.06105
G1 X171.816 Y82.481 E.10005
G1 X174.905 Y84.128 E.10975
G1 X177.555 Y85.928 E.10047
G1 X180.206 Y88.194 E.10933
G1 X182.415 Y90.533 E.10089
G1 X184.506 Y93.307 E.10891
G1 X186.166 Y96.079 E.10131
G1 X187.604 Y99.226 E.10848
G1 X188.631 Y102.304 E.10174
G1 X188.993 Y103.761 E.04707
G1 X189.291 Y105.474 E.05452
G1 X189.291 Y115.474 E.31354
G1 X189.116 Y116.592 E.03547
G1 X188.673 Y118.488 E.06104
G1 X187.866 Y121.04 E.08394
G1 X186.823 Y123.55 E.08522
G1 X185.603 Y125.887 E.08266
G1 X184.142 Y128.178 E.08519
G1 X182.512 Y130.301 E.08392
G1 X180.703 Y132.274 E.08393
G1 X178.729 Y134.082 E.08392
G1 X176.47 Y135.809 E.08916
G1 X174.201 Y137.24 E.08411
G1 X171.816 Y138.468 E.08411
G1 X169.334 Y139.484 E.08411
G1 X166.772 Y140.281 E.08411
G1 X164.151 Y140.852 E.08411
G1 X161.49 Y141.193 E.08411
G1 X158.81 Y141.301 E.08411
G1 X156.079 Y141.171 E.08572
G1 X153.003 Y140.728 E.09743
G1 X149.817 Y139.93 E.10298
G1 X147.048 Y138.929 E.0923
G1 X144.574 Y137.767 E.08572
G1 X141.92 Y136.197 E.09668
G1 X139.279 Y134.244 E.10298
G1 X137.083 Y132.247 E.09306
G1 X135.24 Y130.228 E.08572
G1 X133.401 Y127.784 E.09592
G1 X131.703 Y124.972 E.10299
G1 X130.424 Y122.267 E.09381
G1 X129.395 Y119.377 E.09618
G1 X128.61 Y116.163 E.10375
G1 X128.198 Y113.18 E.09441
G1 X128.079 Y110.449 E.08572
G1 X128.231 Y107.436 E.09457
G1 X128.729 Y104.189 E.10299
G1 X129.491 Y101.252 E.09516
G1 X130.424 Y98.682 E.08572
G1 X131.703 Y95.977 E.09381
G1 X133.37 Y93.216 E.10111
M204 S1000
; printing object TLG_DC 1.stl id:0 copy 0
;WIPE_START
G1 F8640
G1 X135.24 Y90.721 E-.72014
G1 X135.357 Y90.593 E-.03986
;WIPE_END
G1 E-.04 F2100
G1 Z.6 F720
G1 X140.62 Y116.883 F10800
G1 Z.2 F720
G1 E.8 F2100
M204 S800
;TYPE:Perimeter
G1 F1200
G1 X134.088 Y116.883 E.20482
G1 X134.088 Y114.522 E.07404
G1 X134.119 Y113.971 E.01729
G1 X134.243 Y113.353 E.01978
G1 X134.342 Y113.064 E.00955
G1 X134.504 Y112.715 E.01208
G1 X134.701 Y112.404 E.01154
G1 X134.953 Y112.103 E.01229
G1 X135.305 Y111.797 E.01462
G1 X135.697 Y111.584 E.01401
G1 X135.361 Y111.428 E.01163
G1 X135.132 Y111.272 E.00868
G1 X134.858 Y111.036 E.01134
G1 X134.507 Y110.603 E.01747
G1 X134.267 Y110.155 E.01594
G1 X134.086 Y109.571 E.01917
G1 X134.019 Y109.007 E.0178
G1 X134.046 Y108.369 E.02004
G1 X134.187 Y107.719 E.02083
G1 X134.405 Y107.193 E.01789
G1 X134.815 Y106.394 E.02813
G1 X134.911 Y106.444 E.0034
G1 X134.088 Y105.424 E.0411
G1 X134.088 Y103.498 E.06038
G1 X140.62 Y103.498 E.2048
G1 X140.62 Y106.122 E.08226
G1 X138.385 Y106.117 E.07006
G1 X137.868 Y106.095 E.01623
G1 X137.514 Y106.047 E.01122
G1 X137.709 Y106.228 E.00836
G1 X136.918 Y107.033 E.03539
G1 X136.626 Y107.239 E.0112
G1 X136.834 Y107.32 E.007
G1 X136.632 Y108.176 E.02756
G1 X136.554 Y108.393 E.00722
G1 X136.467 Y108.842 E.01435
G1 X136.491 Y109.007 E.00523
G1 X136.569 Y109.114 E.00414
G1 X136.735 Y109.209 E.00601
G1 X137.01 Y109.28 E.00892
G1 X137.367 Y109.305 E.0112
G1 X137.763 Y109.277 E.01247
G1 X138.046 Y109.201 E.00916
G1 X138.179 Y109.108 E.00511
G1 X138.229 Y108.957 E.00498
G1 X138.222 Y108.645 E.0098
G1 X138.127 Y108.18 E.01488
G1 X137.68 Y106.798 E.04554
G1 X140.189 Y106.798 E.07864
G1 X140.487 Y107.589 E.02651
G1 X140.607 Y108.059 E.01522
G1 X140.661 Y108.42 E.01143
G1 X140.689 Y108.949 E.01661
G1 X140.663 Y109.41 E.01447
G1 X140.586 Y109.832 E.01344
G1 X140.47 Y110.194 E.01193
G1 X140.27 Y110.598 E.01412
G1 X139.952 Y111.016 E.01647
G1 X139.575 Y111.344 E.01569
G1 X139.168 Y111.572 E.01461
G1 X139.035 Y111.622 E.00446
G1 X139.214 Y111.71 E.00624
G1 X139.436 Y111.853 E.00829
G1 X139.752 Y112.137 E.01332
G1 X139.983 Y112.416 E.01138
G1 X140.177 Y112.722 E.01134
G1 X140.34 Y113.069 E.01202
G1 X140.473 Y113.471 E.01327
G1 X140.57 Y113.949 E.01532
G1 X140.618 Y114.53 E.01828
G1 X140.62 Y116.823 E.07189
M204 S1000
G1 X140.243 Y116.506 F10800
M204 S800
;TYPE:External perimeter
G1 F1200
G1 X134.465 Y116.506 E.18116
G1 X134.465 Y114.532 E.06189
G1 X134.494 Y114.019 E.01611
G1 X134.608 Y113.451 E.01817
G1 X134.692 Y113.205 E.00815
G1 X134.836 Y112.896 E.0107
G1 X135.006 Y112.626 E.00999
G1 X135.223 Y112.368 E.01056
G1 X135.524 Y112.106 E.01252
G1 X135.788 Y111.955 E.00954
G1 X135.987 Y111.869 E.00678
G1 X136.31 Y111.796 E.0104
G1 X137.023 Y111.767 E.02238
G1 X138.28 Y111.798 E.03942
G1 X138.739 Y111.897 E.01471
G1 X139.029 Y112.039 E.01011
G1 X139.207 Y112.154 E.00665
G1 X139.479 Y112.399 E.0115
G1 X139.678 Y112.638 E.00975
G1 X139.846 Y112.904 E.00986
G1 X139.99 Y113.209 E.01057
G1 X140.108 Y113.568 E.01184
G1 X140.196 Y114.002 E.01391
G1 X140.241 Y114.546 E.0171
G1 X140.243 Y116.446 E.05958
M204 S1000
G1 X140.245 Y116.906 F10800
;WIPE_START
G1 F8640
G1 X136.952 Y116.48 E-.76
;WIPE_END
G1 E-.04 F2100
G1 Z.6 F720
G1 X134.977 Y106.904 F10800
G1 Z.2 F720
G1 E.8 F2100
M204 S800
G1 F1200
G1 X135.705 Y107.282 E.0257
G1 X136.392 Y107.552 E.02315
G1 X136.27 Y108.068 E.01664
G1 X136.191 Y108.287 E.00728
G1 X136.097 Y108.705 E.01343
G1 X136.103 Y109.013 E.00966
G1 X136.174 Y109.223 E.00696
G1 X136.326 Y109.404 E.00741
G1 X136.59 Y109.558 E.00958
G1 X136.959 Y109.655 E.01195
G1 X137.367 Y109.683 E.01283
G1 X137.826 Y109.65 E.01443
G1 X138.182 Y109.555 E.01155
G1 X138.404 Y109.421 E.00815
G1 X138.485 Y109.333 E.00375
G1 X138.581 Y109.128 E.0071
G1 X138.607 Y108.988 E.00446
G1 X138.599 Y108.602 E.01208
G1 X138.492 Y108.084 E.01661
G1 X138.199 Y107.175 E.02995
G1 X139.928 Y107.175 E.05421
G1 X140.126 Y107.702 E.01768
G1 X140.237 Y108.134 E.01397
G1 X140.285 Y108.458 E.01027
G1 X140.311 Y108.948 E.0154
G1 X140.288 Y109.365 E.01309
G1 X140.219 Y109.74 E.01194
G1 X140.119 Y110.052 E.01028
G1 X139.948 Y110.398 E.01211
G1 X139.676 Y110.757 E.01412
G1 X139.357 Y111.034 E.01325
G1 X139.008 Y111.229 E.01253
G1 X138.794 Y111.311 E.00717
G1 X138.558 Y111.361 E.00758
G1 X138.3 Y111.39 E.00812
G1 X137.869 Y111.393 E.01353
G1 X136.327 Y111.363 E.04835
G1 X135.938 Y111.279 E.0125
G1 X135.547 Y111.099 E.01348
G1 X135.362 Y110.973 E.00703
G1 X135.13 Y110.772 E.00962
G1 X134.822 Y110.394 E.01529
G1 X134.616 Y110.009 E.01368
G1 X134.456 Y109.492 E.01696
G1 X134.397 Y108.993 E.01576
G1 X134.421 Y108.417 E.01808
G1 X134.548 Y107.833 E.01875
G1 X134.748 Y107.351 E.01635
G1 X134.95 Y106.957 E.01389
M204 S1000
G1 X135.156 Y106.546 F10800
;WIPE_START
G1 F8640
G1 X135.705 Y107.282 E-.1897
G1 X136.392 Y107.552 E-.17048
G1 X136.27 Y108.068 E-.12253
G1 X136.191 Y108.287 E-.05365
G1 X136.097 Y108.705 E-.09894
G1 X136.103 Y109.013 E-.07115
G1 X136.174 Y109.223 E-.05122
G1 X136.181 Y109.231 E-.00233
;WIPE_END
G1 E-.04 F2100
G1 Z.6 F720
G1 X136.469 Y105.53 F10800
G1 Z.2 F720
G1 E.8 F2100
M204 S800
G1 F1200
G1 X136.701 Y105.809 E.01134
G1 X137.168 Y106.241 E.01996
G1 X136.673 Y106.744 E.02214
G1 X136.114 Y107.139 E.02147
G1 X135.619 Y106.672 E.02134
G1 X135.329 Y106.362 E.01329
G1 X134.465 Y105.291 E.04317
G1 X134.465 Y103.875 E.04438
G1 X140.243 Y103.875 E.18116
G1 X140.243 Y105.744 E.05859
G1 X138.394 Y105.74 E.05798
G1 X137.901 Y105.719 E.01544
G1 X137.404 Y105.652 E.01575
G1 X136.937 Y105.543 E.01504
G1 X136.529 Y105.532 E.01278
M204 S1000
G1 X136.762 Y105.743 F10800
;WIPE_START
G1 F8640
G1 X136.701 Y105.809 E-.07513
G1 X137.168 Y106.241 E-.14699
G1 X136.673 Y106.744 E-.16304
G1 X136.114 Y107.139 E-.15808
G1 X135.619 Y106.672 E-.15718
G1 X135.443 Y106.483 E-.05958
;WIPE_END
G1 E-.04 F2100
G1 Z.6 F720
G1 X144.477 Y104.457 F10800
G1 Z.2 F720
G1 E.8 F2100
M204 S800
;TYPE:Perimeter
G1 F1200
G1 X144.49 Y97.466 E.2192
G1 X144.54 Y96.747 E.02258
G1 X144.694 Y95.591 E.03658
G1 X144.818 Y94.967 E.01993
G1 X144.968 Y94.356 E.01974
G1 X145.144 Y93.751 E.01974
G1 X145.347 Y93.155 E.01974
G1 X145.575 Y92.568 E.01974
G1 X145.828 Y91.992 E.01974
G1 X146.107 Y91.428 E.01974
G1 X146.41 Y90.876 E.01974
G1 X146.736 Y90.337 E.01974
G1 X147.086 Y89.814 E.01974
G1 X147.458 Y89.306 E.01974
G1 X147.852 Y88.815 E.01974
G1 X148.267 Y88.342 E.01974
G1 X148.703 Y87.887 E.01974
G1 X149.158 Y87.452 E.01974
G1 X149.631 Y87.037 E.01974
G1 X150.123 Y86.642 E.01979
G1 X150.701 Y86.222 E.0224
G1 X151.686 Y85.597 E.03658
G1 X152.243 Y85.291 E.01993
G1 X152.808 Y85.013 E.01974
G1 X153.384 Y84.759 E.01974
G1 X153.971 Y84.531 E.01974
G1 X154.567 Y84.328 E.01974
G1 X155.172 Y84.152 E.01974
G1 X155.783 Y84.003 E.01974
G1 X156.401 Y83.88 E.01974
G1 X157.023 Y83.784 E.01974
G1 X157.653 Y83.715 E.01988
G1 X158.629 Y83.666 E.03063
G1 X159.532 Y83.674 E.02831
G1 X160.164 Y83.715 E.01986
G1 X160.79 Y83.784 E.01974
G1 X161.412 Y83.88 E.01974
G1 X162.03 Y84.003 E.01974
G1 X162.641 Y84.152 E.01974
G1 X163.246 Y84.328 E.01974
G1 X163.842 Y84.531 E.01974
G1 X164.433 Y84.761 E.01987
G1 X165.287 Y85.152 E.02947
G1 X166.118 Y85.592 E.02947
G1 X166.66 Y85.92 E.01987
G1 X167.183 Y86.27 E.01974
G1 X167.691 Y86.643 E.01974
G1 X168.182 Y87.037 E.01974
G1 X168.655 Y87.452 E.01974
G1 X169.11 Y87.887 E.01974
G1 X169.545 Y88.342 E.01974
G1 X169.96 Y88.815 E.01974
G1 X170.354 Y89.306 E.01974
G1 X170.727 Y89.814 E.01974
G1 X171.077 Y90.337 E.01974
G1 X171.403 Y90.876 E.01974
G1 X171.706 Y91.428 E.01974
G1 X171.984 Y91.992 E.01974
G1 X172.238 Y92.568 E.01974
G1 X172.466 Y93.155 E.01974
G1 X172.669 Y93.751 E.01974
G1 X172.845 Y94.356 E.01974
G1 X172.994 Y94.967 E.01974
G1 X173.117 Y95.585 E.01974
G1 X173.213 Y96.207 E.01974
G1 X173.281 Y96.833 E.01974
G1 X173.323 Y97.467 E.01993
G1 X173.337 Y104.461 E.21928
G1 X173.606 Y105.142 E.02296
G1 X173.825 Y105.787 E.02137
G1 X174.028 Y106.492 E.023
G1 X174.207 Y107.249 E.02437
G1 X174.41 Y108.435 E.03775
G1 X174.485 Y109.116 E.02147
G1 X174.529 Y109.795 E.02132
G1 X174.544 Y110.474 E.02132
G1 X174.529 Y111.154 E.02132
G1 X174.485 Y111.832 E.02132
G1 X174.41 Y112.513 E.02147
G1 X174.207 Y113.7 E.03775
G1 X174.028 Y114.456 E.02437
G1 X173.825 Y115.161 E.023
G1 X173.606 Y115.807 E.02137
G1 X173.337 Y116.488 E.02296
G1 X173.323 Y123.483 E.21933
G1 X173.272 Y124.202 E.02258
G1 X173.118 Y125.358 E.03658
G1 X172.994 Y125.981 E.01993
G1 X172.845 Y126.593 E.01974
G1 X172.669 Y127.197 E.01974
G1 X172.466 Y127.793 E.01974
G1 X172.238 Y128.38 E.01974
G1 X171.984 Y128.956 E.01974
G1 X171.706 Y129.521 E.01974
G1 X171.403 Y130.073 E.01974
G1 X171.077 Y130.611 E.01974
G1 X170.727 Y131.135 E.01974
G1 X170.354 Y131.643 E.01974
G1 X169.96 Y132.134 E.01974
G1 X169.545 Y132.607 E.01974
G1 X169.11 Y133.062 E.01974
G1 X168.655 Y133.497 E.01974
G1 X168.182 Y133.912 E.01974
G1 X167.69 Y134.307 E.01979
G1 X167.112 Y134.727 E.0224
G1 X166.127 Y135.352 E.03658
G1 X165.569 Y135.658 E.01993
G1 X165.005 Y135.936 E.01974
G1 X164.429 Y136.19 E.01974
G1 X163.842 Y136.418 E.01974
G1 X163.246 Y136.62 E.01974
G1 X162.641 Y136.796 E.01974
G1 X162.03 Y136.946 E.01974
G1 X161.412 Y137.069 E.01974
G1 X160.788 Y137.165 E.01979
G1 X160.078 Y137.239 E.0224
G1 X158.908 Y137.288 E.03671
G1 X157.963 Y137.254 E.02966
G1 X157.027 Y137.165 E.02947
G1 X156.401 Y137.069 E.01987
G1 X155.783 Y136.946 E.01974
G1 X155.172 Y136.796 E.01974
G1 X154.567 Y136.62 E.01974
G1 X153.971 Y136.418 E.01974
G1 X153.38 Y136.188 E.01987
G1 X152.526 Y135.797 E.02947
G1 X151.695 Y135.357 E.02947
G1 X151.153 Y135.028 E.01987
G1 X150.63 Y134.678 E.01974
G1 X150.122 Y134.306 E.01974
G1 X149.631 Y133.912 E.01974
G1 X149.158 Y133.497 E.01974
G1 X148.703 Y133.062 E.01974
G1 X148.268 Y132.607 E.01974
G1 X147.852 Y132.133 E.01974
G1 X147.458 Y131.643 E.01974
G1 X147.086 Y131.135 E.01974
G1 X146.736 Y130.611 E.01974
G1 X146.41 Y130.073 E.01974
G1 X146.107 Y129.521 E.01974
G1 X145.828 Y128.956 E.01974
G1 X145.575 Y128.38 E.01974
G1 X145.347 Y127.793 E.01974
G1 X145.144 Y127.197 E.01974
G1 X144.968 Y126.593 E.01974
G1 X144.818 Y125.981 E.01974
G1 X144.696 Y125.364 E.01974
G1 X144.6 Y124.742 E.01974
G1 X144.531 Y124.116 E.01974
G1 X144.49 Y123.481 E.01993
G1 X144.476 Y116.488 E.21928
G1 X144.206 Y115.807 E.02296
G1 X143.988 Y115.161 E.02137
G1 X143.785 Y114.456 E.023
G1 X143.605 Y113.7 E.02437
G1 X143.403 Y112.513 E.03775
G1 X143.328 Y111.832 E.02147
G1 X143.284 Y111.154 E.02132
G1 X143.269 Y110.474 E.02132
G1 X143.284 Y109.795 E.02132
G1 X143.328 Y109.116 E.02132
G1 X143.403 Y108.435 E.02147
G1 X143.605 Y107.248 E.03776
G1 X143.789 Y106.474 E.02496
G1 X143.988 Y105.787 E.02242
G1 X144.206 Y105.142 E.02136
G1 X144.455 Y104.512 E.02122
M204 S1000
G1 X144.854 Y104.529 F10800
M204 S800
;TYPE:External perimeter
G1 F1200
G1 X144.867 Y97.479 E.22103
G1 X144.916 Y96.785 E.02181
G1 X145.067 Y95.652 E.03583
G1 X145.187 Y95.049 E.01929
G1 X145.332 Y94.453 E.01922
G1 X145.504 Y93.865 E.01922
G1 X145.701 Y93.284 E.01922
G1 X145.923 Y92.713 E.01922
G1 X146.17 Y92.152 E.01922
G1 X146.441 Y91.602 E.01922
G1 X146.736 Y91.064 E.01922
G1 X147.054 Y90.54 E.01922
G1 X147.395 Y90.03 E.01922
G1 X147.758 Y89.536 E.01922
G1 X148.141 Y89.058 E.01922
G1 X148.546 Y88.597 E.01922
G1 X148.97 Y88.154 E.01922
G1 X149.412 Y87.73 E.01922
G1 X149.873 Y87.325 E.01922
G1 X150.352 Y86.941 E.01924
G1 X150.913 Y86.534 E.02174
G1 X151.878 Y85.922 E.03584
G1 X152.418 Y85.626 E.01929
G1 X152.967 Y85.354 E.01922
G1 X153.529 Y85.107 E.01922
G1 X154.1 Y84.885 E.01922
G1 X154.681 Y84.688 E.01923
G1 X155.269 Y84.517 E.01922
G1 X155.865 Y84.371 E.01922
G1 X156.466 Y84.251 E.01922
G1 X157.072 Y84.158 E.01922
G1 X157.683 Y84.091 E.01928
G1 X158.637 Y84.044 E.02994
G1 X159.518 Y84.051 E.02762
G1 X160.131 Y84.091 E.01927
G1 X160.741 Y84.158 E.01922
G1 X161.347 Y84.251 E.01922
G1 X161.948 Y84.371 E.01922
G1 X162.544 Y84.517 E.01922
G1 X163.132 Y84.688 E.01922
G1 X163.713 Y84.885 E.01923
G1 X164.286 Y85.108 E.01927
G1 X165.12 Y85.49 E.02878
G1 X165.932 Y85.92 E.02878
G1 X166.457 Y86.239 E.01927
G1 X166.967 Y86.579 E.01922
G1 X167.461 Y86.942 E.01922
G1 X167.939 Y87.325 E.01922
G1 X168.4 Y87.73 E.01922
G1 X168.843 Y88.154 E.01922
G1 X169.267 Y88.597 E.01922
G1 X169.672 Y89.058 E.01923
G1 X170.055 Y89.536 E.01922
G1 X170.418 Y90.03 E.01922
G1 X170.758 Y90.54 E.01922
G1 X171.077 Y91.064 E.01922
G1 X171.371 Y91.602 E.01922
G1 X171.643 Y92.152 E.01922
G1 X171.89 Y92.713 E.01922
G1 X172.112 Y93.284 E.01922
G1 X172.309 Y93.865 E.01922
G1 X172.48 Y94.453 E.01922
