; generated by PrusaSlicer 2.4.2+win64 on 2023-02-03 at 10:13:58 UTC

; 

; external perimeters extrusion width = 0.45mm
; perimeters extrusion width = 0.45mm
; infill extrusion width = 0.45mm
; solid infill extrusion width = 0.45mm
; top infill extrusion width = 0.40mm
; support material extrusion width = 0.35mm
; first layer extrusion width = 0.42mm

M73 P0 R95
M73 Q0 S95
M201 X1000 Y1000 Z200 E5000 ; sets maximum accelerations, mm/sec^2
M203 X200 Y200 Z12 E120 ; sets maximum feedrates, mm / sec
M204 P1250 R1250 T1250 ; sets acceleration (P, T) and retract acceleration (R), mm/sec^2
M205 X8.00 Y8.00 Z0.40 E4.50 ; sets the jerk limits, mm/sec
M205 S0 T0 ; sets the minimum extruding and travel feed rate, mm/sec
M107
;TYPE:Custom
M862.3 P "MK3S" ; printer model check
M862.1 P0.4 ; nozzle diameter check
M115 U3.10.1 ; tell printer latest fw version
G90 ; use absolute coordinates
M83 ; extruder relative mode
M104 S215 ; set extruder temp
M140 S60 ; set bed temp
M190 S60 ; wait for bed temp
M109 S215 ; wait for extruder temp
G28 W ; home all without mesh bed level
G80 ; mesh bed leveling
G1 Z0.2 F720
G1 Y-3 F1000 ; go outside print area
G92 E0
G1 X60 E9 F1000 ; intro line
G1 X100 E12.5 F1000 ; intro line
G92 E0
M221 S95

; Don't change E values below. Excessive value can damage the printer.
M907 E430 ; set extruder motor current
G21 ; set units to millimeters
G90 ; use absolute coordinates
M83 ; use relative distances for extrusion
M900 K0.05 ; Filament gcode LA 1.5
M900 K30 ; Filament gcode LA 1.0
M107
;LAYER_CHANGE
;Z:0.2
;HEIGHT:0.2
;BEFORE_LAYER_CHANGE
G92 E0.0
;0.2


G1 E-.8 F2100
G1 Z.4 F720
;AFTER_LAYER_CHANGE
;0.2
G1 X106.774 Y92.025 F10800
G1 Z.2 F720
G1 E.8 F2100
M204 S800
;TYPE:Skirt/Brim
;WIDTH:0.42
G1 F1200
G1 X107.84 Y91.012 E.04612
G1 X109.01 Y90.691 E.03803
G1 X115 Y90.421 E.18801
G1 X135.125 Y90.424 E.63102
G1 X140.99 Y90.691 E.18407
G1 X142.388 Y91.148 E.04612
G1 X143.352 Y92.259 E.04612
G1 X143.619 Y93.442 E.03803
G1 X143.619 Y112.251 E.58972
G1 X143.226 Y113.668 E.04612
G1 X141.781 Y114.848 E.05849
G1 X128.816 Y119.422 E.43107
G1 X127.9 Y119.579 E.02915
G1 X122.1 Y119.579 E.18184
G1 X121.184 Y119.422 E.02915
G1 X108.219 Y114.848 E.43107
G1 X107.013 Y114.006 E.04612
G1 X106.381 Y112.251 E.05849
G1 X106.381 Y93.442 E.58972
G1 X106.758 Y92.083 E.04424
M204 S1000
G1 X107.132 Y92.195 F10800
M204 S800
G1 F1200
G1 X107.15 Y92.135 E.00195
G1 X108.196 Y91.259 E.04278
G1 X109.027 Y91.068 E.02675
G1 X115 Y90.798 E.18747
G1 X135.108 Y90.8 E.63048
G1 X140.973 Y91.068 E.18407
G1 X142.261 Y91.518 E.04278
G1 X143.089 Y92.603 E.04278
G1 X143.242 Y93.442 E.02675
G1 X143.242 Y112.251 E.58972
G1 X142.85 Y113.558 E.04278
G1 X141.656 Y114.492 E.04756
G1 X128.691 Y119.067 E.43107
G1 X127.9 Y119.202 E.02516
G1 X122.1 Y119.202 E.18184
G1 X121.309 Y119.067 E.02516
G1 X108.344 Y114.492 E.43107
G1 X107.242 Y113.688 E.04278
G1 X106.758 Y112.251 E.04756
G1 X106.758 Y93.442 E.58972
G1 X107.115 Y92.252 E.03895
M204 S1000
; printing object TLG_PA 2.stl id:0 copy 0
;WIPE_START
G1 F8640
G1 X107.15 Y92.135 E-.0282
G1 X108.196 Y91.259 E-.31505
G1 X109.027 Y91.068 E-.197
G1 X109.978 Y91.025 E-.21975
;WIPE_END
G1 E-.04 F2100
G1 Z.6 F720
G1 X113.593 Y93.903 F10800
G1 Z.2 F720
G1 E.8 F2100
M204 S800
;TYPE:Support material
G1 F1200
G1 X113.52 Y94.08 E.00599
G1 X113.52 Y98.52 E.13924
G1 X113.593 Y98.697 E.00599
G1 X114.728 Y99.832 E.05033
G1 X114.905 Y99.905 E.00599
G1 X135.095 Y99.905 E.63307
G1 X135.272 Y99.832 E.00599
G1 X136.407 Y98.697 E.05033
G1 X136.48 Y98.52 E.00599
G1 X136.48 Y94.08 E.13924
G1 X136.407 Y93.903 E.00599
G1 X135.946 Y93.442 E.02043
G1 X140.865 Y93.442 E.15422
G1 X140.865 Y112.251 E.58972
G1 X136.48 Y112.251 E.13748
G1 X136.48 Y107.83 E.13862
G1 X136.407 Y107.653 E.00599
G1 X136.336 Y107.582 E.00316
G1 X135.272 Y106.518 E.04717
G1 X135.095 Y106.445 E.00599
G1 X114.905 Y106.445 E.63307
G1 X114.728 Y106.518 E.00599
G1 X113.593 Y107.653 E.05033
G1 X113.52 Y107.83 E.00599
G1 X113.52 Y112.251 E.13862
G1 X109.135 Y112.251 E.13748
G1 X109.135 Y93.442 E.58972
G1 X114.054 Y93.442 E.15422
G1 X113.633 Y93.863 E.01866
M204 S1000
;WIPE_START
G1 F8640
G1 X114.054 Y93.442 E-.13738
G1 X111.357 Y93.442 E-.62262
;WIPE_END
G1 E-.04 F2100
G1 Z.6 F720
G1 X140.502 Y112.081 F10800
G1 Z.2 F720
G1 E.8 F2100
M204 S800
G1 F1200
G1 X140.502 Y93.782 E.57375
G1 X140.083 Y93.782 E.01314
G1 X140.083 Y111.911 E.56843
G1 X139.664 Y111.911 E.01314
G1 X139.664 Y93.782 E.56843
G1 X139.245 Y93.782 E.01314
G1 X139.245 Y111.911 E.56843
G1 X138.826 Y111.911 E.01314
G1 X138.826 Y93.782 E.56843
G1 X138.407 Y93.782 E.01314
G1 X138.407 Y111.911 E.56843
G1 X137.988 Y111.911 E.01314
G1 X137.988 Y93.782 E.56843
G1 X137.569 Y93.782 E.01314
G1 X137.569 Y111.911 E.56843
G1 X137.15 Y111.911 E.01314
G1 X137.15 Y93.782 E.56843
G1 X136.731 Y93.782 E.01314
G1 X136.731 Y107.55 E.43168
G1 X136.695 Y107.461 E.00301
G1 X136.312 Y107.079 E.01695
G1 X136.312 Y99.271 E.24479
G1 X135.893 Y99.69 E.01858
G1 X135.893 Y106.66 E.21852
G1 X135.474 Y106.241 E.01858
M73 P0 R94
G1 X135.474 Y100.109 E.19224
G1 X135.163 Y100.244 E.01064
G1 X135.055 Y100.244 E.00337
G1 X135.055 Y106.106 E.18378
G1 X134.636 Y106.106 E.01314
G1 X134.636 Y100.244 E.18378
G1 X134.217 Y100.244 E.01314
G1 X134.217 Y106.106 E.18378
G1 X133.799 Y106.106 E.01314
G1 X133.799 Y100.244 E.18378
G1 X133.38 Y100.244 E.01314
G1 X133.38 Y106.106 E.18378
G1 X132.961 Y106.106 E.01314
G1 X132.961 Y100.244 E.18378
G1 X132.542 Y100.244 E.01314
G1 X132.542 Y106.106 E.18378
G1 X132.123 Y106.106 E.01314
G1 X132.123 Y100.244 E.18378
G1 X131.704 Y100.244 E.01314
G1 X131.704 Y106.106 E.18378
G1 X131.285 Y106.106 E.01314
G1 X131.285 Y100.244 E.18378
G1 X130.866 Y100.244 E.01314
G1 X130.866 Y106.106 E.18378
G1 X130.447 Y106.106 E.01314
G1 X130.447 Y100.244 E.18378
G1 X130.028 Y100.244 E.01314
G1 X130.028 Y106.106 E.18378
G1 X129.609 Y106.106 E.01314
G1 X129.609 Y100.244 E.18378
G1 X129.19 Y100.244 E.01314
G1 X129.19 Y106.106 E.18378
G1 X128.771 Y106.106 E.01314
G1 X128.771 Y100.244 E.18378
G1 X128.352 Y100.244 E.01314
G1 X128.352 Y106.106 E.18378
G1 X127.933 Y106.106 E.01314
G1 X127.933 Y100.244 E.18378
G1 X127.514 Y100.244 E.01314
G1 X127.514 Y106.106 E.18378
G1 X127.095 Y106.106 E.01314
G1 X127.095 Y100.244 E.18378
G1 X126.676 Y100.244 E.01314
G1 X126.676 Y106.106 E.18378
G1 X126.257 Y106.106 E.01314
G1 X126.257 Y100.244 E.18378
G1 X125.838 Y100.244 E.01314
G1 X125.838 Y106.106 E.18378
G1 X125.419 Y106.106 E.01314
G1 X125.419 Y100.244 E.18378
G1 X125 Y100.244 E.01314
G1 X125 Y106.106 E.18378
G1 X124.581 Y106.106 E.01314
G1 X124.581 Y100.244 E.18378
G1 X124.162 Y100.244 E.01314
G1 X124.162 Y106.106 E.18378
G1 X123.743 Y106.106 E.01314
G1 X123.743 Y100.244 E.18378
G1 X123.324 Y100.244 E.01314
G1 X123.324 Y106.106 E.18378
G1 X122.905 Y106.106 E.01314
G1 X122.905 Y100.244 E.18378
G1 X122.486 Y100.244 E.01314
G1 X122.486 Y106.106 E.18378
G1 X122.067 Y106.106 E.01314
G1 X122.067 Y100.244 E.18378
G1 X121.648 Y100.244 E.01314
G1 X121.648 Y106.106 E.18378
G1 X121.229 Y106.106 E.01314
G1 X121.229 Y100.244 E.18378
G1 X120.81 Y100.244 E.01314
G1 X120.81 Y106.106 E.18378
G1 X120.391 Y106.106 E.01314
G1 X120.391 Y100.244 E.18378
G1 X119.972 Y100.244 E.01314
M73 Q0 S94
G1 X119.972 Y106.106 E.18378
G1 X119.553 Y106.106 E.01314
G1 X119.553 Y100.244 E.18378
G1 X119.134 Y100.244 E.01314
G1 X119.134 Y106.106 E.18378
G1 X118.715 Y106.106 E.01314
G1 X118.715 Y100.244 E.18378
G1 X118.296 Y100.244 E.01314
G1 X118.296 Y106.106 E.18378
G1 X117.877 Y106.106 E.01314
G1 X117.877 Y100.244 E.18378
G1 X117.458 Y100.244 E.01314
G1 X117.458 Y106.106 E.18378
G1 X117.039 Y106.106 E.01314
G1 X117.039 Y100.244 E.18378
G1 X116.62 Y100.244 E.01314
G1 X116.62 Y106.106 E.18378
G1 X116.201 Y106.106 E.01314
G1 X116.201 Y100.244 E.18378
G1 X115.783 Y100.244 E.01314
G1 X115.783 Y106.106 E.18378
G1 X115.364 Y106.106 E.01314
G1 X115.364 Y100.244 E.18378
G1 X114.945 Y100.244 E.01314
G1 X114.945 Y106.106 E.18378
G1 X114.837 Y106.106 E.00337
G1 X114.526 Y106.241 E.01064
G1 X114.526 Y100.109 E.19224
G1 X114.107 Y99.69 E.01858
G1 X114.107 Y106.66 E.21852
G1 X113.688 Y107.079 E.01858
G1 X113.688 Y99.031 E.25231
M204 S1000
G1 X113.269 Y112.081 F10800
M204 S800
G1 F1200
G1 X113.269 Y93.782 E.57375
G1 X112.85 Y93.782 E.01314
G1 X112.85 Y111.911 E.56843
G1 X112.431 Y111.911 E.01314
G1 X112.431 Y93.782 E.56843
G1 X112.012 Y93.782 E.01314
M73 Q1 S94
G1 X112.012 Y111.911 E.56843
G1 X111.593 Y111.911 E.01314
M73 P1 R94
G1 X111.593 Y93.782 E.56843
G1 X111.174 Y93.782 E.01314
G1 X111.174 Y111.911 E.56843
G1 X110.755 Y111.911 E.01314
G1 X110.755 Y93.782 E.56843
G1 X110.336 Y93.782 E.01314
G1 X110.336 Y111.911 E.56843
G1 X109.917 Y111.911 E.01314
G1 X109.917 Y93.782 E.56843
G1 X109.498 Y93.782 E.01314
G1 X109.498 Y112.081 E.57375
M204 S1000
;WIPE_START
G1 F8640
G1 X109.498 Y108.789 E-.76
;WIPE_END
G1 E-.04 F2100
G1 Z.6 F720
G1 X126.113 Y112.388 F10800
G1 Z.2 F720
G1 E.8 F2100
M204 S800
;TYPE:Perimeter
G1 F1200
G1 X126.113 Y116.038 E.11444
G1 X123.887 Y116.038 E.06977
G1 X123.887 Y112.388 E.11444
G1 X115.326 Y112.388 E.26843
G1 X114.787 Y111.849 E.0239
G1 X114.787 Y108.251 E.11281
G1 X115.326 Y107.712 E.0239
G1 X134.674 Y107.712 E.60664
G1 X135.213 Y108.251 E.0239
G1 X135.213 Y111.849 E.11281
G1 X134.674 Y112.388 E.0239
G1 X126.173 Y112.388 E.26655
M204 S1000
G1 X126.49 Y112.765 F10800
M204 S800
;TYPE:External perimeter
G1 F1200
G1 X126.49 Y115.735 E.09312
G1 X128.41 Y115.735 E.06021
G1 X127.73 Y116.415 E.03015
G1 X122.27 Y116.415 E.17119
G1 X121.59 Y115.735 E.03015
G1 X123.51 Y115.735 E.06021
G1 X123.51 Y112.765 E.09312
G1 X115.17 Y112.765 E.26151
G1 X114.41 Y112.005 E.03369
G1 X114.41 Y108.095 E.12261
G1 X115.17 Y107.335 E.03369
G1 X134.83 Y107.335 E.61644
G1 X135.59 Y108.095 E.03369
G1 X135.59 Y112.005 E.12261
G1 X134.83 Y112.765 E.03369
G1 X126.55 Y112.765 E.25963
M204 S1000
G1 X126.09 Y112.776 F10800
;WIPE_START
G1 F8640
G1 X126.49 Y115.735 E-.68592
G1 X126.811 Y115.735 E-.07408
;WIPE_END
G1 E-.04 F2100
G1 Z.6 F720
G1 X126.301 Y116.075 F10800
G1 Z.2 F720
G1 E.8 F2100
M204 S800
;TYPE:Gap fill
;WIDTH:0.345834
G1 F1200
G1 X127.803 Y116.075 E.03783
M204 S1000
;WIPE_START
G1 F8640
G1 X126.301 Y116.075 E-.34683
;WIPE_END
G1 E-.45317 F2100
G1 Z.6 F720
G1 X123.699 Y116.075 F10800
G1 Z.2 F720
G1 E.8 F2100
M204 S800
G1 F1200
G1 X122.197 Y116.075 E.03783
M204 S1000
;WIPE_START
G1 F8640
G1 X123.699 Y116.075 E-.34683
;WIPE_END
G1 E-.45317 F2100
G1 Z.6 F720
G1 X135.1 Y108.541 F10800
G1 Z.2 F720
G1 E.8 F2100
M204 S800
;TYPE:Solid infill
;WIDTH:0.424713
G1 F1200
G1 X134.553 Y107.995 E.02453
G1 X134.014 Y107.995 E.01714
G1 X134.93 Y108.911 E.04115
G1 X134.93 Y109.451 E.01714
G1 X133.474 Y107.995 E.06539
G1 X132.934 Y107.995 E.01714
G1 X134.93 Y109.991 E.08963
G1 X134.93 Y110.531 E.01714
G1 X132.394 Y107.995 E.11388
G1 X131.854 Y107.995 E.01714
G1 X134.93 Y111.071 E.13812
G1 X134.93 Y111.611 E.01714
G1 X131.314 Y107.995 E.16236
G1 X130.774 Y107.995 E.01714
G1 X134.72 Y111.941 E.17719
G1 X134.557 Y112.105 E.00735
G1 X134.344 Y112.105 E.00675
G1 X130.234 Y107.995 E.18453
G1 X129.694 Y107.995 E.01714
G1 X133.804 Y112.105 E.18453
G1 X133.264 Y112.105 E.01714
G1 X129.154 Y107.995 E.18453
G1 X128.614 Y107.995 E.01714
G1 X132.724 Y112.105 E.18453
G1 X132.184 Y112.105 E.01714
G1 X128.074 Y107.995 E.18453
G1 X127.534 Y107.995 E.01714
G1 X131.645 Y112.105 E.18453
G1 X131.105 Y112.105 E.01714
G1 X126.994 Y107.995 E.18453
G1 X126.454 Y107.995 E.01714
G1 X130.565 Y112.105 E.18453
G1 X130.025 Y112.105 E.01714
G1 X125.914 Y107.995 E.18453
G1 X125.375 Y107.995 E.01714
G1 X129.485 Y112.105 E.18453
G1 X128.945 Y112.105 E.01714
G1 X124.835 Y107.995 E.18453
G1 X124.295 Y107.995 E.01714
G1 X128.405 Y112.105 E.18453
G1 X127.865 Y112.105 E.01714
G1 X123.755 Y107.995 E.18453
G1 X123.215 Y107.995 E.01714
G1 X127.325 Y112.105 E.18453
G1 X126.785 Y112.105 E.01714
G1 X122.675 Y107.995 E.18453
G1 X122.135 Y107.995 E.01714
G1 X126.245 Y112.105 E.18453
G1 X125.83 Y112.105 E.01318
G1 X125.83 Y112.23 E.00396
G1 X121.595 Y107.995 E.19013
G1 X121.055 Y107.995 E.01714
G1 X125.83 Y112.77 E.21437
G1 X125.83 Y113.31 E.01714
G1 X120.515 Y107.995 E.23861
G1 X119.975 Y107.995 E.01714
G1 X125.83 Y113.85 E.26285
G1 X125.83 Y114.39 E.01714
G1 X124.17 Y112.73 E.07452
G1 X124.17 Y113.27 E.01714
G1 X125.83 Y114.929 E.07452
G1 X125.83 Y115.469 E.01714
G1 X124.17 Y113.81 E.07452
G1 X124.17 Y114.35 E.01714
G1 X125.576 Y115.755 E.0631
G1 X125.036 Y115.755 E.01714
G1 X124.17 Y114.89 E.03886
G1 X124.17 Y115.429 E.01714
G1 X124.665 Y115.925 E.02224
M204 S1000
;WIPE_START
G1 F8640
G1 X124.17 Y115.429 E-.16175
G1 X124.17 Y114.89 E-.12467
G1 X125.036 Y115.755 E-.28266
G1 X125.576 Y115.755 E-.12467
G1 X125.373 Y115.552 E-.06625
;WIPE_END
G1 E-.04 F2100
G1 Z.6 F720
G1 X123.715 Y112.275 F10800
G1 Z.2 F720
G1 E.8 F2100
M204 S800
G1 F1200
G1 X119.435 Y107.995 E.19215
G1 X118.895 Y107.995 E.01714
G1 X123.006 Y112.105 E.18453
G1 X122.466 Y112.105 E.01714
G1 X118.355 Y107.995 E.18453
G1 X117.815 Y107.995 E.01714
G1 X121.926 Y112.105 E.18453
G1 X121.386 Y112.105 E.01714
G1 X117.275 Y107.995 E.18453
G1 X116.736 Y107.995 E.01714
G1 X120.846 Y112.105 E.18453
G1 X120.306 Y112.105 E.01714
G1 X116.196 Y107.995 E.18453
G1 X115.656 Y107.995 E.01714
G1 X119.766 Y112.105 E.18453
G1 X119.226 Y112.105 E.01714
G1 X115.279 Y108.159 E.17718
G1 X115.07 Y108.368 E.00941
G1 X115.07 Y108.489 E.00383
G1 X118.686 Y112.105 E.16235
G1 X118.146 Y112.105 E.01714
G1 X115.07 Y109.029 E.13811
G1 X115.07 Y109.569 E.01714
G1 X117.606 Y112.105 E.11387
G1 X117.066 Y112.105 E.01714
G1 X115.07 Y110.109 E.08963
G1 X115.07 Y110.649 E.01714
G1 X116.526 Y112.105 E.06539
G1 X115.986 Y112.105 E.01714
G1 X115.07 Y111.189 E.04115
G1 X115.07 Y111.729 E.01714
G1 X115.616 Y112.275 E.02452
M204 S1000
;WIPE_START
G1 F8640
G1 X115.07 Y111.729 E-.17837
G1 X115.07 Y111.189 E-.12467
G1 X115.986 Y112.105 E-.29928
G1 X116.526 Y112.105 E-.12467
G1 X116.425 Y112.004 E-.033
;WIPE_END
G1 E-.04 F2100
G1 Z.6 F720
G1 X115.326 Y98.638 F10800
G1 Z.2 F720
G1 E.8 F2100
M204 S800
;TYPE:Perimeter
;WIDTH:0.42
G1 F1200
G1 X114.787 Y98.099 E.0239
G1 X114.787 Y94.501 E.11281
G1 X115.326 Y93.962 E.0239
G1 X134.674 Y93.962 E.60664
G1 X135.213 Y94.501 E.0239
G1 X135.213 Y98.099 E.11281
G1 X134.674 Y98.638 E.0239
G1 X115.386 Y98.638 E.60476
M204 S1000
G1 X115.17 Y99.015 F10800
M204 S800
;TYPE:External perimeter
G1 F1200
G1 X114.41 Y98.255 E.03369
G1 X114.41 Y94.345 E.12261
G1 X115.17 Y93.585 E.03369
G1 X134.83 Y93.585 E.61644
G1 X135.59 Y94.345 E.03369
G1 X135.59 Y98.255 E.12261
G1 X134.83 Y99.015 E.03369
G1 X115.23 Y99.015 E.61456
M204 S1000
G1 X115.165 Y98.615 F10800
;WIPE_START
G1 F8640
G1 X114.41 Y98.255 E-.2581
G1 X114.41 Y96.082 E-.5019
;WIPE_END
G1 E-.04 F2100
G1 Z.6 F720
G1 X134.384 Y94.075 F10800
G1 Z.2 F720
G1 E.8 F2100
M204 S800
;TYPE:Solid infill
;WIDTH:0.424713
G1 F1200
G1 X134.93 Y94.622 E.02453
G1 X134.93 Y95.161 E.01714
G1 X134.014 Y94.245 E.04115
G1 X133.474 Y94.245 E.01714
G1 X134.93 Y95.701 E.06539
G1 X134.93 Y96.241 E.01714
G1 X132.934 Y94.245 E.08963
G1 X132.394 Y94.245 E.01714
G1 X134.93 Y96.781 E.11388
G1 X134.93 Y97.321 E.01714
G1 X131.854 Y94.245 E.13812
G1 X131.314 Y94.245 E.01714
G1 X134.93 Y97.861 E.16236
G1 X134.93 Y97.982 E.00383
G1 X134.72 Y98.191 E.00941
G1 X130.774 Y94.245 E.17719
G1 X130.234 Y94.245 E.01714
G1 X134.344 Y98.355 E.18453
G1 X133.804 Y98.355 E.01714
G1 X129.694 Y94.245 E.18453
G1 X129.154 Y94.245 E.01714
G1 X133.264 Y98.355 E.18453
G1 X132.724 Y98.355 E.01714
G1 X128.614 Y94.245 E.18453
G1 X128.074 Y94.245 E.01714
G1 X132.184 Y98.355 E.18453
G1 X131.645 Y98.355 E.01714
G1 X127.534 Y94.245 E.18453
G1 X126.994 Y94.245 E.01714
G1 X131.105 Y98.355 E.18453
G1 X130.565 Y98.355 E.01714
M73 P1 R93
G1 X126.454 Y94.245 E.18453
G1 X125.914 Y94.245 E.01714
G1 X130.025 Y98.355 E.18453
G1 X129.485 Y98.355 E.01714
G1 X125.375 Y94.245 E.18453
G1 X124.835 Y94.245 E.01714
G1 X128.945 Y98.355 E.18453
G1 X128.405 Y98.355 E.01714
G1 X124.295 Y94.245 E.18453
G1 X123.755 Y94.245 E.01714
G1 X127.865 Y98.355 E.18453
G1 X127.325 Y98.355 E.01714
G1 X123.215 Y94.245 E.18453
G1 X122.675 Y94.245 E.01714
