; generated by PrusaSlicer 2.4.2+win64 on 2023-02-23 at 16:25:01 UTC

; 

; external perimeters extrusion width = 0.60mm
; perimeters extrusion width = 0.50mm
; infill extrusion width = 0.50mm
; solid infill extrusion width = 0.50mm
; top infill extrusion width = 0.45mm
; support material extrusion width = 0.38mm
; first layer extrusion width = 0.42mm

M73 P0 R85
M73 Q0 S86
M201 X1000 Y1000 Z200 E5000 ; sets maximum accelerations, mm/sec^2
M203 X200 Y200 Z12 E120 ; sets maximum feedrates, mm / sec
M204 P1250 R1250 T1250 ; sets acceleration (P, T) and retract acceleration (R), mm/sec^2
M205 X8.00 Y8.00 Z0.40 E4.50 ; sets the jerk limits, mm/sec
M205 S0 T0 ; sets the minimum extruding and travel feed rate, mm/sec
M107
;TYPE:Custom
M862.3 P "MK3S" ; printer model check
M862.1 P0.4 ; nozzle diameter check
M115 U3.10.1 ; tell printer latest fw version
G90 ; use absolute coordinates
M83 ; extruder relative mode
M104 S215 ; set extruder temp
M140 S55 ; set bed temp
M190 S55 ; wait for bed temp
M109 S215 ; wait for extruder temp
G28 W ; home all without mesh bed level
G80 ; mesh bed leveling
G1 Z0.2 F720
G1 Y-3 F1000 ; go outside print area
G92 E0
G1 X60 E9 F1000 ; intro line
G1 X100 E12.5 F1000 ; intro line
G92 E0
M221 S95

; Don't change E values below. Excessive value can damage the printer.

M907 E538 ; set extruder motor current
G21 ; set units to millimeters
G90 ; use absolute coordinates
M83 ; use relative distances for extrusion
M900 K0.05 ; Filament gcode LA 1.5
M900 K30 ; Filament gcode LA 1.0
M107
;LAYER_CHANGE
;Z:0.2
;HEIGHT:0.2
;BEFORE_LAYER_CHANGE
G92 E0.0
;0.2


G1 E-.8 F2100
G1 Z.4 F720
;AFTER_LAYER_CHANGE
;0.2
G1 X111.227 Y89.554 F10800
G1 Z.2 F720
G1 E.8 F2100
M204 S800
;TYPE:Skirt/Brim
;WIDTH:0.42
G1 F1200
G1 X112.311 Y88.67 E.04385
G1 X126.407 Y82.967 E.47677
G1 X128.228 Y82.531 E.05873
G1 X129.997 Y82.426 E.05556
G1 X131.758 Y82.623 E.05556
G1 X133.46 Y83.118 E.05556
G1 X145.966 Y88.703 E.42945
G1 X146.675 Y89.192 E.027
G1 X150.991 Y93.507 E.19136
G1 X151.348 Y93.965 E.01821
G1 X164.295 Y115.543 E.78901
G1 X164.634 Y116.766 E.03979
G1 X164.634 Y129.734 E.4066
G1 X164.05 Y132.721 E.09542
G1 X162.913 Y134.283 E.06057
G1 X158.068 Y137.064 E.17516
G1 X157.153 Y137.403 E.03059
G1 X156.081 Y137.57 E.03401
G1 X102.326 Y139.742 E1.68685
G1 X101.208 Y139.608 E.03529
G1 X100.143 Y139.235 E.03539
G1 X95.286 Y136.449 E.17557
G1 X94.35 Y135.456 E.04278
G1 X94.131 Y134.792 E.0219
G1 X93.6 Y131.695 E.09852
G1 X93.565 Y121.082 E.33277
G1 X93.816 Y120.019 E.03425
M73 Q0 S85
G1 X102.596 Y102.501 E.61438
G1 X111.194 Y89.604 E.486
M204 S1000
; printing object PP00017-A2_Pcbs holder.stl id:0 copy 0
;WIPE_START
G1 F8640
G1 X112.311 Y88.67 E-.33619
G1 X114.012 Y87.982 E-.42381
;WIPE_END
G1 E-.04 F2100
G1 Z.6 F720
G1 X130.517 Y95.608 F10800
G1 Z.2 F720
G1 E.8 F2100
M204 S800
;TYPE:Support material
G1 F1200
G1 X131.42 Y95.727 E.02854
G1 X131.866 Y95.816 E.01428
G1 X132.745 Y96.052 E.02853
G1 X133.6 Y96.363 E.02853
G1 X134.017 Y96.546 E.01428
G1 X134.824 Y96.966 E.02851
G1 X135.591 Y97.455 E.02854
G1 X136.314 Y98.009 E.02854
G1 X136.656 Y98.309 E.01426
G1 X137.298 Y98.952 E.0285
G1 X137.599 Y99.295 E.0143
G1 X138.152 Y100.016 E.0285
G1 X138.406 Y100.395 E.01429
G1 X151.369 Y122.828 E.81239
G1 X151.792 Y123.64 E.02871
G1 X151.975 Y124.057 E.01426
G1 X152.286 Y124.911 E.0285
G1 X152.522 Y125.789 E.02852
G1 X152.68 Y126.685 E.02851
G1 X152.76 Y127.592 E.02853
G1 X152.76 Y128.501 E.02851
G1 X152.681 Y129.407 E.02852
G1 X152.523 Y130.304 E.02856
G1 X152.415 Y130.745 E.01424
G1 X152.25 Y131.293 E.01793
G1 X147.73 Y131.293 E.14173
G1 X147.73 Y126.977 E.13531
G1 X143.414 Y126.977 E.13531
G1 X143.414 Y118.346 E.27063
G1 X139.099 Y118.346 E.13531
G1 X139.099 Y109.715 E.27063
G1 X134.783 Y109.715 E.13531
G1 X134.783 Y105.399 E.13531
G1 X130.467 Y105.399 E.13531
G1 X130.467 Y95.612 E.30688
M204 S1000
G1 X152.143 Y131.071 F10800
M204 S800
G1 F1200
M73 P0 R84
G1 X152.143 Y125.67 E.16935
G1 X151.963 Y125.013 E.02137
G1 X151.724 Y124.348 E.02216
G1 X151.724 Y130.954 E.20713
G1 X151.305 Y130.954 E.01314
G1 X151.305 Y123.421 E.23619
G1 X150.886 Y122.671 E.02693
G1 X150.886 Y130.954 E.2597
G1 X150.467 Y130.954 E.01314
G1 X150.467 Y121.945 E.28246
G1 X150.048 Y121.219 E.02627
G1 X150.048 Y130.954 E.30521
G1 X149.629 Y130.954 E.01314
G1 X149.629 Y120.494 E.32796
G1 X149.21 Y119.768 E.02627
G1 X149.21 Y130.954 E.35072
G1 X148.791 Y130.954 E.01314
G1 X148.791 Y119.042 E.37347
G1 X148.372 Y118.317 E.02627
G1 X148.372 Y130.954 E.39622
G1 X148.069 Y130.954 E.00951
G1 X148.069 Y126.638 E.13531
G1 X147.954 Y126.638 E.00363
G1 X147.954 Y117.591 E.28366
G1 X147.535 Y116.865 E.02627
G1 X147.535 Y126.638 E.30642
G1 X147.116 Y126.638 E.01314
G1 X147.116 Y116.14 E.32917
G1 X146.697 Y115.414 E.02627
G1 X146.697 Y126.638 E.35192
G1 X146.278 Y126.638 E.01314
G1 X146.278 Y114.688 E.37468
G1 X145.859 Y113.962 E.02627
G1 X145.859 Y126.638 E.39743
G1 X145.44 Y126.638 E.01314
G1 X145.44 Y113.237 E.42019
G1 X145.021 Y112.511 E.02627
G1 X145.021 Y126.638 E.44294
G1 X144.602 Y126.638 E.01314
G1 X144.602 Y111.785 E.46569
G1 X144.183 Y111.06 E.02627
G1 X144.183 Y126.638 E.48845
G1 X143.764 Y126.638 E.01314
G1 X143.764 Y110.334 E.5112
G1 X143.345 Y109.608 E.02627
G1 X143.345 Y118.007 E.26333
G1 X142.926 Y118.007 E.01314
G1 X142.926 Y108.883 E.28608
G1 X142.507 Y108.157 E.02627
G1 X142.507 Y118.007 E.30883
G1 X142.088 Y118.007 E.01314
G1 X142.088 Y107.431 E.33159
G1 X141.669 Y106.706 E.02627
G1 X141.669 Y118.007 E.35434
G1 X141.25 Y118.007 E.01314
G1 X141.25 Y105.98 E.37709
G1 X140.831 Y105.254 E.02627
G1 X140.831 Y118.007 E.39985
G1 X140.412 Y118.007 E.01314
G1 X140.412 Y104.529 E.4226
G1 X139.993 Y103.803 E.02627
G1 X139.993 Y118.007 E.44535
G1 X139.574 Y118.007 E.01314
G1 X139.574 Y103.077 E.46811
G1 X139.155 Y102.351 E.02627
G1 X139.155 Y109.376 E.22023
G1 X138.736 Y109.376 E.01314
G1 X138.736 Y101.626 E.24299
G1 X138.317 Y100.903 E.02619
G1 X138.317 Y109.376 E.26565
G1 X137.898 Y109.376 E.01314
G1 X137.898 Y100.246 E.28625
G1 X137.479 Y99.688 E.02189
G1 X137.479 Y109.376 E.30376
G1 X137.06 Y109.376 E.01314
G1 X137.06 Y99.195 E.3192
G1 X136.641 Y98.765 E.01882
G1 X136.641 Y109.376 E.33268
G1 X136.222 Y109.376 E.01314
G1 X136.222 Y98.38 E.34474
G1 X135.803 Y98.035 E.01703
G1 X135.803 Y109.376 E.35558
G1 X135.384 Y109.376 E.01314
G1 X135.384 Y97.725 E.3653
G1 X134.965 Y97.449 E.01573
G1 X134.965 Y105.06 E.23864
G1 X134.546 Y105.06 E.01314
G1 X134.546 Y97.201 E.24641
G1 X134.127 Y96.979 E.01487
G1 X134.127 Y105.06 E.25338
G1 X133.708 Y105.06 E.01314
G1 X133.708 Y96.781 E.25958
G1 X133.289 Y96.606 E.01424
G1 X133.289 Y105.06 E.26507
G1 X132.87 Y105.06 E.01314
G1 X132.87 Y96.452 E.26988
G1 X132.451 Y96.319 E.01378
G1 X132.451 Y105.06 E.27405
G1 X132.032 Y105.06 E.01314
M73 P1 R84
G1 X132.032 Y96.206 E.27761
G1 X131.613 Y96.112 E.01347
M73 Q1 S85
G1 X131.613 Y105.06 E.28056
G1 X131.194 Y105.06 E.01314
G1 X131.194 Y95.864 E.28832
M204 S1000
;WIPE_START
G1 F8640
G1 X131.194 Y99.156 E-.76
;WIPE_END
G1 E-.04 F2100
G1 Z.6 F720
G1 X127.732 Y105.399 F10800
G1 Z.2 F720
G1 E.8 F2100
M204 S800
G1 F1200
G1 X123.416 Y105.399 E.13531
G1 X123.416 Y114.031 E.27063
G1 X119.1 Y114.031 E.13531
G1 X119.1 Y118.346 E.13531
G1 X114.785 Y118.346 E.13531
G1 X114.785 Y126.977 E.27063
G1 X110.469 Y126.977 E.13531
G1 X110.469 Y131.293 E.13531
G1 X106.968 Y131.293 E.10977
G1 X106.758 Y130.571 E.02357
G1 X106.66 Y130.137 E.01396
G1 X106.519 Y129.259 E.02786
G1 X106.454 Y128.372 E.02789
G1 X106.464 Y127.483 E.02789
G1 X106.55 Y126.597 E.02789
G1 X106.711 Y125.722 E.0279
G1 X106.947 Y124.864 E.0279
G1 X107.092 Y124.444 E.01395
G1 X107.434 Y123.623 E.0279
G1 X107.849 Y122.828 E.02809
G1 X120.573 Y100.789 E.79793
G1 X121.065 Y100.016 E.02872
G1 X121.619 Y99.295 E.02853
G1 X121.919 Y98.952 E.01427
G1 X122.563 Y98.309 E.02853
G1 X123.26 Y97.724 E.02853
G1 X123.627 Y97.455 E.01427
G1 X124.394 Y96.966 E.02851
G1 X124.793 Y96.747 E.01427
G1 X125.618 Y96.363 E.02854
G1 X126.472 Y96.052 E.02851
G1 X126.909 Y95.924 E.01427
G1 X127.732 Y95.74 E.02642
G1 X127.732 Y105.343 E.30107
M204 S1000
G1 X127.005 Y105.23 F10800
M204 S800
G1 F1200
G1 X127.005 Y96.25 E.28154
G1 X126.586 Y96.372 E.01368
G1 X126.586 Y105.06 E.2724
G1 X126.167 Y105.06 E.01314
G1 X126.167 Y96.514 E.26796
G1 X125.748 Y96.676 E.01409
G1 X125.748 Y105.06 E.26286
G1 X125.329 Y105.06 E.01314
G1 X125.329 Y96.862 E.25705
G1 X124.91 Y97.07 E.01468
G1 X124.91 Y105.06 E.25051
G1 X124.491 Y105.06 E.01314
G1 X124.491 Y97.304 E.24317
G1 X124.072 Y97.566 E.01548
G1 X124.072 Y105.06 E.23497
G1 X123.653 Y105.06 E.01314
G1 X123.653 Y97.857 E.22585
G1 X123.234 Y98.18 E.01659
G1 X123.234 Y105.06 E.21571
G1 X123.077 Y105.06 E.00493
G1 X123.077 Y113.691 E.27063
G1 X122.815 Y113.691 E.00821
G1 X122.815 Y98.539 E.47508
G1 X122.396 Y98.945 E.01829
G1 X122.396 Y113.691 E.46234
G1 X121.977 Y113.691 E.01314
G1 X121.977 Y99.401 E.44804
G1 X121.558 Y99.919 E.02087
G1 X121.558 Y113.691 E.43183
G1 X121.139 Y113.691 E.01314
G1 X121.139 Y100.517 E.41306
G1 X120.72 Y101.214 E.02549
G1 X120.72 Y113.691 E.39122
G1 X120.301 Y113.691 E.01314
G1 X120.301 Y101.939 E.36847
G1 X119.882 Y102.665 E.02627
G1 X119.882 Y113.691 E.34571
G1 X119.463 Y113.691 E.01314
G1 X119.463 Y103.391 E.32296
G1 X119.044 Y104.117 E.02627
G1 X119.044 Y113.691 E.30021
G1 X118.761 Y113.691 E.00888
G1 X118.761 Y118.007 E.13531
G1 X118.625 Y118.007 E.00426
G1 X118.625 Y104.842 E.41277
G1 X118.206 Y105.568 E.02627
G1 X118.206 Y118.007 E.39001
G1 X117.787 Y118.007 E.01314
G1 X117.787 Y106.294 E.36726
G1 X117.368 Y107.019 E.02627
G1 X117.368 Y118.007 E.3445
G1 X116.949 Y118.007 E.01314
G1 X116.949 Y107.745 E.32175
G1 X116.53 Y108.471 E.02627
G1 X116.53 Y118.007 E.299
G1 X116.111 Y118.007 E.01314
G1 X116.111 Y109.196 E.27624
G1 X115.692 Y109.922 E.02627
G1 X115.692 Y118.007 E.25349
G1 X115.273 Y118.007 E.01314
G1 X115.273 Y110.648 E.23074
G1 X114.854 Y111.373 E.02627
G1 X114.854 Y118.007 E.20798
G1 X114.445 Y118.007 E.01282
M73 Q1 S84
G1 X114.445 Y126.638 E.27063
G1 X114.435 Y112.099 E.45586
G1 X114.016 Y112.825 E.02627
G1 X114.016 Y126.638 E.4331
G1 X113.597 Y126.638 E.01314
G1 X113.597 Y113.55 E.41035
G1 X113.178 Y114.276 E.02627
G1 X113.178 Y126.638 E.3876
G1 X112.759 Y126.638 E.01314
G1 X112.759 Y115.002 E.36484
G1 X112.34 Y115.728 E.02627
G1 X112.34 Y126.638 E.34209
G1 X111.922 Y126.638 E.01314
G1 X111.922 Y116.453 E.31934
G1 X111.503 Y117.179 E.02627
G1 X111.503 Y126.638 E.29658
G1 X111.084 Y126.638 E.01314
G1 X111.084 Y117.905 E.27383
G1 X110.665 Y118.63 E.02627
G1 X110.665 Y126.638 E.25108
G1 X110.246 Y126.638 E.01314
G1 X110.246 Y119.356 E.22832
G1 X109.827 Y120.082 E.02627
G1 X109.827 Y130.954 E.34088
G1 X109.408 Y130.954 E.01314
G1 X109.408 Y120.807 E.31813
G1 X108.989 Y121.533 E.02627
M73 P1 R83
G1 X108.989 Y130.954 E.29537
G1 X108.57 Y130.954 E.01314
G1 X108.57 Y122.259 E.27262
G1 X108.151 Y122.984 E.02627
G1 X108.151 Y130.954 E.24987
G1 X107.732 Y130.954 E.01314
G1 X107.732 Y123.789 E.22463
G1 X107.567 Y124.16 E.01272
G1 X107.313 Y124.843 E.02286
G1 X107.313 Y130.954 E.19158
G1 X107.216 Y130.954 E.00303
G1 X107.201 Y130.905 E.00158
G1 X106.992 Y130.069 E.02703
G1 X106.894 Y129.491 E.0184
G1 X106.894 Y125.693 E.11907
M204 S1000
;WIPE_START
G1 F8640
G1 X106.894 Y128.984 E-.76
;WIPE_END
G1 E-.04 F2100
G1 Z.6 F720
G1 X99.271 Y128.406 F10800
G1 Z.2 F720
G1 E.8 F2100
M204 S800
G1 F1200
G1 X97.604 Y131.293 E.10452
G1 X95.943 Y131.293 E.0521
G1 X95.943 Y121.082 E.32016
G1 X100.258 Y121.082 E.13531
G1 X100.258 Y112.451 E.27063
G1 X104.574 Y112.451 E.13531
G1 X104.574 Y103.819 E.27063
G1 X108.889 Y103.819 E.13531
G1 X108.889 Y99.504 E.13531
G1 X113.205 Y99.504 E.13531
G1 X113.205 Y90.873 E.27063
G1 X120.941 Y90.873 E.24255
G1 X99.299 Y128.357 E1.35712
M204 S1000
G1 X120.301 Y91.641 F10800
M204 S800
G1 F1200
G1 X120.301 Y91.212 E.01346
G1 X119.882 Y91.212 E.01314
G1 X119.882 Y92.028 E.02558
G1 X119.463 Y92.753 E.02627
G1 X119.463 Y91.212 E.04833
G1 X119.044 Y91.212 E.01314
G1 X119.044 Y93.479 E.07108
G1 X118.625 Y94.205 E.02627
G1 X118.625 Y91.212 E.09384
G1 X118.206 Y91.212 E.01314
G1 X118.206 Y94.93 E.11659
G1 X117.787 Y95.656 E.02627
G1 X117.787 Y91.212 E.13934
G1 X117.368 Y91.212 E.01314
G1 X117.368 Y96.382 E.1621
G1 X116.949 Y97.108 E.02627
G1 X116.949 Y91.212 E.18485
G1 X116.53 Y91.212 E.01314
G1 X116.53 Y97.833 E.2076
G1 X116.111 Y98.559 E.02627
G1 X116.111 Y91.212 E.23036
G1 X115.692 Y91.212 E.01314
G1 X115.692 Y99.285 E.25311
G1 X115.273 Y100.01 E.02627
G1 X115.273 Y91.212 E.27586
G1 X114.854 Y91.212 E.01314
G1 X114.854 Y100.736 E.29862
G1 X114.435 Y101.462 E.02627
G1 X114.435 Y91.212 E.32137
G1 X114.016 Y91.212 E.01314
G1 X114.016 Y102.187 E.34412
G1 X113.597 Y102.913 E.02627
G1 X113.597 Y91.212 E.36688
G1 X113.544 Y91.212 E.00166
G1 X113.544 Y99.843 E.27063
G1 X113.178 Y99.843 E.01147
G1 X113.178 Y103.639 E.11901
G1 X112.759 Y104.364 E.02627
G1 X112.759 Y99.843 E.14176
G1 X112.34 Y99.843 E.01314
G1 X112.34 Y105.09 E.16451
G1 X111.922 Y105.816 E.02627
G1 X111.922 Y99.843 E.18727
G1 X111.503 Y99.843 E.01314
G1 X111.503 Y106.541 E.21002
G1 X111.084 Y107.267 E.02627
G1 X111.084 Y99.843 E.23277
G1 X110.665 Y99.843 E.01314
G1 X110.665 Y107.993 E.25553
G1 X110.246 Y108.719 E.02627
G1 X110.246 Y99.843 E.27828
G1 X109.827 Y99.843 E.01314
G1 X109.827 Y109.444 E.30103
G1 X109.408 Y110.17 E.02627
G1 X109.408 Y99.843 E.32379
G1 X109.229 Y99.843 E.00561
M73 P2 R83
G1 X109.229 Y104.159 E.13531
G1 X108.989 Y104.159 E.00753
M73 Q2 S84
G1 X108.989 Y110.896 E.21123
G1 X108.57 Y111.621 E.02627
G1 X108.57 Y104.159 E.23398
G1 X108.151 Y104.159 E.01314
G1 X108.151 Y112.347 E.25673
G1 X107.732 Y113.073 E.02627
G1 X107.732 Y104.159 E.27949
G1 X107.313 Y104.159 E.01314
G1 X107.313 Y113.798 E.30224
G1 X106.894 Y114.524 E.02627
G1 X106.894 Y104.159 E.32499
G1 X106.475 Y104.159 E.01314
G1 X106.475 Y115.25 E.34775
G1 X106.056 Y115.975 E.02627
G1 X106.056 Y104.159 E.3705
G1 X105.637 Y104.159 E.01314
G1 X105.637 Y116.701 E.39325
G1 X105.218 Y117.427 E.02627
G1 X105.218 Y104.159 E.41601
G1 X104.913 Y104.159 E.00956
G1 X104.913 Y112.79 E.27063
G1 X104.799 Y112.79 E.00358
G1 X104.799 Y118.152 E.16813
G1 X104.38 Y118.878 E.02627
G1 X104.38 Y112.79 E.19089
G1 X103.961 Y112.79 E.01314
G1 X103.961 Y119.604 E.21364
G1 X103.542 Y120.33 E.02627
G1 X103.542 Y112.79 E.2364
G1 X103.123 Y112.79 E.01314
G1 X103.123 Y121.055 E.25915
G1 X102.704 Y121.781 E.02627
G1 X102.704 Y112.79 E.2819
G1 X102.285 Y112.79 E.01314
G1 X102.285 Y122.507 E.30466
G1 X101.866 Y123.232 E.02627
G1 X101.866 Y112.79 E.32741
G1 X101.447 Y112.79 E.01314
G1 X101.447 Y123.958 E.35016
G1 X101.028 Y124.684 E.02627
G1 X101.028 Y112.79 E.37292
G1 X100.609 Y112.79 E.01314
G1 X100.609 Y125.409 E.39567
G1 X100.19 Y126.135 E.02627
G1 X100.19 Y121.421 E.1478
G1 X99.771 Y121.421 E.01314
G1 X99.771 Y126.861 E.17055
G1 X99.352 Y127.586 E.02627
G1 X99.352 Y121.421 E.1933
G1 X98.933 Y121.421 E.01314
G1 X98.933 Y128.312 E.21606
G1 X98.514 Y129.038 E.02627
G1 X98.514 Y121.421 E.23881
G1 X98.095 Y121.421 E.01314
G1 X98.095 Y129.764 E.26156
G1 X97.676 Y130.489 E.02627
G1 X97.676 Y121.421 E.28432
G1 X97.257 Y121.421 E.01314
G1 X97.257 Y130.954 E.29888
G1 X96.838 Y130.954 E.01314
G1 X96.838 Y121.421 E.29888
G1 X96.419 Y121.421 E.01314
G1 X96.419 Y131.123 E.3042
M204 S1000
;WIPE_START
G1 F8640
G1 X96.419 Y127.832 E-.76
;WIPE_END
G1 E-.04 F2100
G1 Z.6 F720
G1 X144.994 Y95.188 F10800
G1 Z.2 F720
G1 E.8 F2100
M204 S800
G1 F1200
G1 X149.31 Y95.188 E.13531
G1 X149.31 Y103.819 E.27063
G1 X153.625 Y103.819 E.13531
G1 X153.625 Y112.451 E.27063
G1 X157.941 Y112.451 E.13531
G1 X157.941 Y116.766 E.13531
G1 X162.257 Y116.766 E.13531
G1 X162.257 Y129.734 E.4066
G1 X161.121 Y130.039 E.03687
G1 X138.508 Y90.873 E1.418
G1 X144.994 Y90.873 E.20336
G1 X144.994 Y95.132 E.13354
M204 S1000
G1 X161.78 Y129.687 F10800
M204 S800
G1 F1200
G1 X161.78 Y117.106 E.39446
G1 X161.361 Y117.106 E.01314
G1 X161.361 Y129.623 E.39247
G1 X161.285 Y129.644 E.00247
G1 X160.942 Y129.05 E.02149
G1 X160.942 Y117.106 E.3745
G1 X160.523 Y117.106 E.01314
G1 X160.523 Y128.324 E.35175
G1 X160.104 Y127.598 E.02627
